/* XPM */
static char *_680faa356f044b8836db8551c56bffa1J42sy9n20OaFkvf[] = {
/* columns rows colors chars-per-pixel */
"225 225 250 2 ",
"   c #1D1C03",
".  c #15150D",
"X  c #1A150E",
"o  c #1B1A0D",
"O  c #171704",
"+  c #161512",
"@  c #191712",
"#  c #171912",
"$  c #1C1C15",
"%  c #1E1D19",
"&  c #191718",
"*  c #0F0F07",
"=  c #231D05",
"-  c #231E0C",
";  c #291D08",
":  c #221D16",
">  c #221F1A",
",  c #2A1E13",
"<  c #311D09",
"1  c #1E220B",
"2  c #1C2405",
"3  c #1E2115",
"4  c #1F211A",
"5  c #232205",
"6  c #2A2406",
"7  c #24240C",
"8  c #2A250C",
"9  c #242B0C",
"0  c #2B2A0D",
"q  c #282B05",
"w  c #33250C",
"e  c #332B0D",
"r  c #3B2C0D",
"t  c #342707",
"y  c #2C320D",
"u  c #34320D",
"i  c #3C330D",
"p  c #38360B",
"a  c #232115",
"s  c #2A2513",
"d  c #262B13",
"f  c #2C2B14",
"g  c #24221C",
"h  c #29241D",
"j  c #262A1C",
"k  c #2B2B1C",
"l  c #332514",
"z  c #332C14",
"x  c #3B2C14",
"c  c #332D1A",
"v  c #3A2D1A",
"b  c #382615",
"n  c #2C3214",
"m  c #2D331B",
"M  c #2D3A1B",
"N  c #283416",
"B  c #343215",
"V  c #3B3315",
"C  c #343A15",
"Z  c #3C3A15",
"A  c #34331B",
"S  c #3B341B",
"D  c #353A1C",
"F  c #3C3B1C",
"G  c #1F2422",
"H  c #262521",
"J  c #292622",
"K  c #262822",
"L  c #2B2A23",
"P  c #2D2D29",
"I  c #272929",
"U  c #312E2A",
"Y  c #322D24",
"T  c #2D3423",
"R  c #2E3B23",
"E  c #2F312A",
"W  c #2D3A28",
"Q  c #333523",
"!  c #3B3521",
"~  c #343A23",
"^  c #3C3C23",
"/  c #33332B",
"(  c #343B2B",
")  c #3B3C2B",
"_  c #39352C",
"`  c #353531",
"'  c #393632",
"]  c #373930",
"[  c #3A3A33",
"{  c #3E3E39",
"}  c #422D0D",
"|  c #44380E",
" . c #432D14",
".. c #422E1B",
"X. c #482C17",
"o. c #433415",
"O. c #4B3415",
"+. c #443B15",
"@. c #4A3B14",
"#. c #43341B",
"$. c #4B341C",
"%. c #443B1C",
"&. c #4B3B1D",
"*. c #513C1E",
"=. c #51361C",
"-. c #443522",
";. c #4B3523",
":. c #433C23",
">. c #4B3C23",
",. c #443E29",
"<. c #4C3D2A",
"1. c #4B3729",
"2. c #513622",
"3. c #523C24",
"4. c #523D2A",
"5. c #593D28",
"6. c #463326",
"7. c #3D421C",
"8. c #384119",
"9. c #3D4224",
"0. c #3D432B",
"q. c #3A4627",
"w. c #3D4432",
"e. c #3D4734",
"r. c #44421D",
"t. c #4B421D",
"y. c #48471A",
"u. c #52441D",
"i. c #544B1E",
"p. c #444324",
"a. c #4B4324",
"s. c #454A24",
"d. c #4C4A25",
"f. c #44442A",
"g. c #4C442A",
"h. c #454A2C",
"j. c #4C4B2C",
"k. c #524325",
"l. c #5A4425",
"z. c #534A25",
"x. c #5A4C24",
"c. c #53442B",
"v. c #5A442B",
"b. c #534C2C",
"n. c #5A4B2D",
"m. c #4C5125",
"M. c #4D532B",
"N. c #47532C",
"B. c #545225",
"V. c #54522C",
"C. c #5B532D",
"Z. c #545A2D",
"A. c #5C5A2C",
"S. c #5B5326",
"D. c #434532",
"F. c #4C4531",
"G. c #454B33",
"H. c #4C4C32",
"J. c #464C3A",
"K. c #544531",
"L. c #5A4632",
"P. c #544C32",
"I. c #5B4D33",
"U. c #544D3A",
"Y. c #5B4D3A",
"T. c #5C4638",
"R. c #4D5233",
"E. c #4D533A",
"W. c #4B5636",
"Q. c #545333",
"!. c #5B5334",
"~. c #545A34",
"^. c #5C5A34",
"/. c #54543A",
"(. c #5B553A",
"). c #555A3B",
"_. c #5C5B3C",
"`. c #624D2C",
"'. c #62542D",
"]. c #635A2D",
"[. c #624D33",
"{. c #654C37",
"}. c #625334",
"|. c #625B35",
" X c #63553A",
".X c #635B3C",
"XX c #6A5C3D",
"oX c #6A5737",
"OX c #735C3D",
"+X c #5C6235",
"@X c #5C633C",
"#X c #55613A",
"$X c #5D612F",
"%X c #646235",
"&X c #64623C",
"*X c #6A633D",
"=X c #6B6A3E",
"-X c #66673B",
";X c #72663C",
":X c #6F713F",
">X c #5C5D42",
",X c #575841",
"<X c #4B5341",
"1X c #635D42",
"2X c #6A5D43",
"3X c #675C47",
"4X c #725C44",
"5X c #5D6343",
"6X c #5C6644",
"7X c #646343",
"8X c #6B6443",
"9X c #646B44",
"0X c #6C6B44",
"qX c #64644A",
"wX c #6B644B",
"eX c #656A4B",
"rX c #6C6B4C",
"tX c #726445",
"yX c #726C44",
"uX c #73664C",
"iX c #736C4B",
"pX c #7A6A4A",
"aX c #6C724B",
"sX c #6B7246",
"dX c #73724C",
"fX c #7A734D",
"gX c #757448",
"hX c #6C6C52",
"jX c #6A6952",
"kX c #736C52",
"lX c #7B6C53",
"zX c #736751",
"xX c #6D7354",
"cX c #737353",
"vX c #7B7454",
"bX c #757B54",
"nX c #7B7B54",
"mX c #757A5C",
"MX c #7C7B5B",
"NX c #767559",
"BX c #7A7C64",
"VX c #847857",
"CX c #83714F",
"ZX c #8C7D63",
"AX c #7B8259",
"SX c #7D8563",
"DX c #89835B",
"FX c #918459",
"GX c #878665",
"HX c #938A67",
/* pixels */
"z z z S S D D 8.n n C C Z F %.%.%.r.%.V S :.0.^ ~ q.q.~ D S o.&.F C F f.p.p.j.p.b.b.a.C.8X|.x.!.C.!.^.|.^.C.z.a.d.d.d.r.p.Q.d.r.p.F F p.F p.p.C F F :.p.j.p.r.h.s.s.9.D D D F 0 0 z B B B z 0 0 V F j._..XP.p.:.f.a.:.F S V B B x V S %.^ ^ D D M n A D F F %.%.r.7.Z Z V V ! ) ~ M D 9.^ C x V p.F D p.s.s.s.j.^.j.a.z.Q.!.!.|.|.|.|.^.Q.x.z.d.d.d.C.d.r.r.r.j.f.f.0.^ ~ ~ ^ 9.D D 9.D s.9.s.7.s.8.8.s.j.Z u e z V B e 0 B B 0 0 S P.!.Q.Q.a.j.a.:.F S V V S F B ",
"-.:.>.g.f.f.f.s.s.h.h.h.b.b.n.n.C.V.b.b.P.j.j.G.e.G.W.G.p.F S o.F B F j.p.%.j.Q.a.a.t.a.k.k.n.8XC.C.C.C.C.C.C.C.Q.d.d.r.d.M.a.d.p.F p.p.F F p.F p.p.j.p.0 0 F s.D D D D 9.p.p.C S S A V B B B x %.a.a.:.p.g.g.p.:.%.F S S V V V &.#.&.:.:.f.f.f.0.s.s.h.d.z.x.z.Q.V.b.b.b.g.g.f.G.h.h.R.h.F V V %.F D p.p.s.h.R.j.p.%.a.b.x.!..Xx.C.!.!.Q.C.C.C.C.d.z.r.%.p.a.Q.h.G.f.0.~ A ! 9.Q.s.7.n D C 7.Z C C 8.7.F Z F F B V F :.%.A f 0 F F f.f.j.P.p.a.:.:.:.:.%.S B x V ",
"2X X X X.X_._.5X/.^.^.|..XXXXXXXz.d.b.^. XP.H.E.q.G.,X).H.a.>.k.g.a.Q.Q.f.j.1XrXb.b. X.Xn.x..XiX|.|.|.|..X.XXX&X.XQ.8XfXfX0Xz.z.^.j.j.p.F p.Q.Q.Q.p.p.F F j.Q.p.p.^ A f D h.Q.Q.j.P._.7X7X_.P.g.B %.p.:.:.a.:.S S %.:.g.b.!.(. X2XXX X!.!.(._.>X_._._..XXX*XtX*XC.V.b.!..X XU.f.E.W.).>XQ.p.:.a.g.f.j.P.H.j.Q.7XQ.V.Q.!.!.!. X8X!.!.|..X*X8X*X&X^.^.0XrXiX0XQ.Q././.).E.f.f.f.j.h.h.Q.s.s.Z M.~.C 7.C q q Z Q.^.!.P.!.7X7XQ.Q.Q.:.S %.%.a.j.F S S %.p.g.b.b.j.c.wX",
"pXtX4XXX.X2XwXrXiXiXiXfXlXCXCXCXiXiXiXiX2XP.:.D 9.W.5X>XP.g.v.I.!.1X8XQ.f..XkXuX8X2XiXiX}.!.8XtXXX8XiXfXfXiXyX8X8X.XiXfXfXyX!.^._.Q.Q.j.p.j._.>Xp.7XcXdX7X7XrXcXrX7XQ.j.Q.rXMXMXrXwX.X!.P.b.b.L.L.I.1XlXvXwX.X.Xg.b.I..X2XwXuXlXCXCXpXtX2X1X1X7XqXwXrXiXpXpXCXfXfXiXrXiXuX2Xg.A f.G.).5X/.g.c.I.!.(._._.Q.H.^.rX.XwXiXiX8X.X.XXXtXXXXXtXfXCXfXyX*X.X0XyXfXfX&X^././.>X_.H.H.Q.Q.j.^.aXrXdX-XaXdX@X9X^.d.j.7XvXVXuX8X.X_.!.j.j.P.!.!.2XwXuXuX X(.b.b.P.!.(..X2XwXlX",
"{.{.{.[.I.I.I.C.|.|.oXoXoXOXOXOXfXvXvXuX Xc.S 7 G.,XqX).p.S 3.[.1X3X1Xg.:.(.8X(.uXXX XI.k.I.2XXXXX8XtXiXtX8XoX|.|.XXfXiXyXiX|.!.p.:.j.Q.j.j.j.p.V._.^.0XGXcX^.&XqXrXkXuXcXMXNXrXP.b.a.:.:.>.g.b.g.a.c. X.X X X1X X X.X1X.X X!.I.{.{.{.{.}.}.!.I..X.XXXXX*X;XtXtXfXiXiXiXlX2X<.l A 0./.>XP.:.>.I. X X X(.j.p.b.7X_.1X8X|.I.I.}.oXXXXX8XtXtXtX8XXX.X|.8X8XiXfX.X^.f.^ g.H.j.H.Q.j.Q.V._.7XnXdX9XV.0XrXrXdXNXMXvXiXb.b.c.>.:.f.j.g.#.:.I.!.!.(.L.I.2X2X2X2X1X.X.X Xv.",
"=.3.v.[.I.n.a.%.x.n.n.n.'.'.oXoX}.XX2X|.I.c.S 8 f./.5X/.%.x 3. XuX(.I.L.g.c.I.I.!.b.k.a.x. XXX}.}.}.n.n.c.c.k.k.a.n.tX8XXX8X!.j.%.D f.Q.Q.Q.j.D 0 j.Q.^.&Xj.s.rXQ._.7X7X8X8X!.a.S %.a.b.L.b.c.a.&.a.k.a.k.!. X!. X X X X XI.k.3. .O.=.l.n.n.I.b.c.c.x.n.n.`.'.'.C.C. X2X2X Xg.S A f.>X>Xg.v  .l.2X1X(.I.g.:.g.(.Q.!.b.>.>.n.oX4Xk.n. X}.k.>.k.n.x.x.oX8X8X8X!.b.a.A :.j.j.^._.d.Z Z a.d.&X^.^.d._._..X&XwXwX Xx.#.a.k.>.g.P.P.c.o.o.k.a.>.c.v. XI. X2X2X2X XI.c.$.",
"=.3.l.n.n.x.z.d.&.&.&.u.u.u.l.l.tXtXtXXXI.k.S z A H.5X_.:.x 5.XX2XL.L.I.g.;.v.I.;.k.>.k.|.2X|.c.l.k.k.3.3.>.>.k.&.&.k.&.@.a.k.!.j.^ p.Q.(._.Q.^ p.p.p.V.Q.^.^.^..X.X!.b.b.I.P.a.I.c.>.&.o.#.;.;.#.3.c.k.c.I.v.>.L.I.{. X XI.v.l.X.O.=.*.l.n.I.!.a.a.t.k.k.x.x.x..X*XtXtX2XI.-.z z f.>X7Xg.v #.v.4X XI.K.k.a.b.(.c.b.a.;.k.}. XoX&.k.v.k.3.&.&.>.k.&.k.@.@.a.k.!.P.S F b.Q.7XXXr.Z r.V.z.Q.V.|.&X^.&X^.d.a.I.I.k.c.c.k.>.>.:.&.o.>.&.k.>.3.I.c.I.;.k.I. X XI.v.c.O.",
"3.*.$.o.@.t.z.C.d.z.z.l.x.n.`.`.oX}.}.}.I.;.S S A /.hXqX>.b $.[.4.>.v.g.v x >.c.;.c.;.o.c.I.c.k.&.k.v.n.`.n.k.k.>.&.x.n.x.c.x..X:.A ! H._._.j.z p.Z V.V.u Z j.Z _.!.a.V S >.g.>.#.#.#.&.>.v.I. X3.;.;.k.3.#.$.;.v.L.I.I.I.k.;.#.5.*.*.*.&.a.b.b.a.d.z.x.x.x.`.`.C.|.XXXX[.3...z s ,.1XqXL.#.2.{. Xv.;.;.;.:.>.b.&.a.a.>.c.[.v.$.n.k.&.l.`.[.k.&.k.k.n.k.a.x.x. XQ.B B f.b..X^.u t.r.d.r.d.r.y.y.r.!.Q.V r >.k.o.3.#.o.;.a.k.I.2X>.$.3.3.v.I.>.;.c.v.I.I.v.c.k.3.l.",
"k.&.&.%.a.d.r.Z 7.d.z.z.z.k.x.n.l.}.XXoXv.#.v l ! H.NX1Xv x X.v.4.-.;.>.o.o.<.v.n.!.>.x #.>.k.n.&.&.l.}. XtXn.v.&.&.#.#.&.>.k.b.,.  S f.Q.7Xh.F s.j.j.d.p.Z r.r.V e e P.&.g.I.o.;.v.;.n.I.v. .c.;.#.#.4.I.I.3.#.;.;.#.$.>.>.;.#.l.*.O.o.&.a.p.p.d.d.a.t.t.u.x.'.z.}.}.I.[.c.#.-.f f.qXcXa.b x ;.L.;.<.4.#.#.g.b.g.I.c.o.&.>.3.v.&.$.3.}.v. XoX}.n.#.o.>.&.>.k.&.!.0 5 %.a.7Xz.p.Z C.V.t.d.z.+.u Z V 6 z.a.x c.&.x #.k.I.I.v.c.c.>.#.b ;. X[.>.3.#.$.#.>.c.c.;.#.5.",
"&.&.@.%.a.d.r.7.r.s.d.z.z.z.k.x.x.}.[. X;.#.l f ! H.NX1Xv x $.v.c.-.;.>.o...>.c.v.I.a.V #.a.k.n.v.l.l.v.l. Xv.}.n.c.>.>.k.c.n.P.! = A f._.qXf.:.j.7X^.dXm.d.s.V.a.S #.:.a.&.I.#.V >.k.I.k.I.3.#.v.$.#.I.I.#.x $.v.v.c.k.3.;.#.o.k.&.o.+.t.a.p.p.j.d.r.r.t.z.z.x.t.x.}. X X3.b w f f.7XkXa.b x ;.5.;.;.>.o.v :.g.g.I.c.#.&.>.>.v.v.v.v.[.l.n.v.c. Xl.>.k.k.k.c.c.b.8 5 %.b.7Xb.r.d.^.&X&X.XB.d.V.%.%.e t.>.#.I.c.x #.c.I.I.v.c.k.;.;.;.k.c.$.o.;.c.c.c.c.c.>.$.o.#.",
"&.#.o.%.p.p.s.r.s.s.d.d.z.x.k.u.k.C.c.}.#.&.8 0 A H.hX>XS b $.5.L.<.<.c.-.#.g.v.<.c.>.v S :.>.a.v.c.5.3.o.l.&.n.}.x.>.>.k.b.n.b.z 6 A f.qXrXp.p.h.j.Z 0X-X-Xd.r.Q.b.a.#.g.&.b.>.o.o.c.!.;.I.I.o.o.#.;.k.k.>.;.;.#.;.>.k.c.c.k.k.&.O.o.+.%.p.p.s.j.s.r.r.d.B.z.i.%.t.I.oX[.>.b ; f f.>XkX>.x  .2.v.4.<.>.;.#.#.c.,.b.a.S o.#.;.3.3.v.&.l.2.l.&.k. Xn.>.a.c.k.k.I.p.7 5 p.Q.rXP.r.%.r.r.Z.gXsXV.r.r.b.Z %.&.>.}.I.#.&.k.k.k.a.g.c.x  .;.k.;.#.;.c.;.;.3.k.c.c.k.c.#.",
"o.o.o.%.%.p.p.s.7.7.r.d.C.C.l.k.+.k.k.}.>.a.l 0 A H.eX_.S b $.5.K.1.<.c.-.#.>.g.:.>.%.x B S %.o.#.;.l.l.o.&.r #.c.&.o.o.&.k.c.g.s s A f.hXrX^ p._._.^.-X^.r.r.r.!.1Xg.a.:.g.:.>.g.o.&.c.>.>.v.v.b #.;.;.>.n.v.>.>.;.;.>.3.>.#.x o.o.o.o.%.p.p.p.h.9.Z r.V.C.S.t.t.%.c.!.v.3.-.0 f :._.rX,.x  .2.4.L.<.>.>.#.S g.#.>.>.V x o.#.#.o.3.$.&.&.>.x #.c.k.#.o.a.&.&.P.F 7 7 p.(.kXP.F p.&X7X~.^.~.d.Z r..Xd.%.a.a.n.c.>.3.>.>.&.:.g.L.;.x #.k.4.v.I.k.c.k.>.;.;.;.#.o.#.",
" . .o.#.%.:.p.p.Z Z %.a.!.}.n.k.r +.c.}.I.v.S f A G.5X).S b 2.3.<.#.,.<.#.v :.>.:.,.:.F S :.:.S o.&.v.n.&.;.r x #.o.x V &.a.a.a.s k c f.hXqX^ p.5X&X~.V.r.u y.V.b.7XP.g.:.b.S :.g.>.#.#.g.;.>.I.v.&.#.k.I.c.>.>.c.>.;.a.c.g.o.t  . .o.$.&.-.:.p.F S V a.C.}.C.k.%.Z a.I.v.v.g.z z ) /.qX:.V  .;.>.4.1.;.<.S v g.:.g.f.%.V #.:.&.#.c.>.c.k.;.w t o.#.V S >.&.%.b.S d s ) _.cXH.F h.7X9XM.r.r.r.s.p.7X^.r.a.a.a.@.>.a.k.>.:.&.>.g.!.>.;.a.k.I.I.&.I.k.;.>.k.a.#.b b ",
" . .#.#.o.o.&.:.V V &.x.n.[.v.l.r V k.I. Xc.-.f f G.>X/.S b 3.2.4.;.g.L.<.,.g.P.a.g.j.f.:.f.f.%.&.;.c.v.;.c.#.>.o.o.&.>.>.>.>.:.c A c f.jX7X^ F r.j.Z V.r.B.B.V.a.Q._.F a.p.%.%.%.L.g.V c.>.&.>.>.&.o.#.c.I.c.;.k.a.k.b.I.v.;.x }  .O.$.#.#.%.-.S S &.k.!.}.n.k.+.Z a.n.[.I.<.z f ! E.1X:.V o.2.4.K.K.K.K.<.<.U.f.j.P.g.:.a.c.>.o.3.>.I.c.k.o.o.V S %.a.a.&.&.g.A f d ^ >XNXH.D F h.j.j.Q.j.s.V.s._.^.a.%.%.@.V &.a.c.c.a.%.%.%.c.a.>.>.>.I.I.a.a.a.a.v.I.b.>.#.r ",
"X.X.$.$... .o.&.V &.c.n.v.v.5.*.o.%.&.c.k.g.S d f G.)./.S r 3.;.4.,.K.Y.K.F.I.!.p.p.j.j.p.f.h.S &.#.#.>.&.b.;.k.V >.b.b.a.%.S S ! ! c f.qX_.:.F Z &X^.9Xr.B.B.B.p.f.Q.z S :.p.p.g.g.c.S :.%.>.%.w S S e o.I.I.:.L. X.X(.g.S e w } X.=.=.$...#.#.#.-.k.n.`.`.5.&.%.r.%.a.I.c.S f f ~ H.>X:.S o.;.4.4.K.Y.K.F.K.!.g.g.P.j.%.a.j.:.x x o.k.&.c.c.c.o.o.a.P.g.%.o.F ! A s A /.xXh.D D ~.9X@XQ.s.j.@Xr.j.Q.r.B V &.%.g.c.g.>.%.S %.:.z S V z o.>.g.g.g.I. X Xb.&.v b ..",
"X...;.$.v x S #.#.a.I.I.v.3.$.$.a.a.V a.S ,.f d f G.E./.S z a.;.S z -.F.,.:.F.K.! ! f.f.! p.f.z z e z S #.b.%.:.V a.!.!.p.B f f ,.^ c f.>X/.p.D s.Q.p.Z r.V.^.r.%.f.f.z = f.:.j.1X:.f.! S l g.f.z c S V S S -.:.%.P.1X(.:.0 w v } X.2.;.$.v v S -.<.I.I.I.c.&.#.b.j.S V >.-.z f f ~ G.>X) S S >.v l -.g.,.! g.g.) :.H.f.S ! g.S S x z S w #.a.>.#.S j.(.g.V B f ^ ~ f A E.hXh.D 9.R.9.n D R.).5X9.p.h.F 6 B a.a.(.P.p.S l B :.H.z S l = l S z v l g..X.Xg.S v #.b ",
"l l l l s s f s c f c A S S v l z f f f s s d d k q.J.G.0.0.~ A A -   s s     d s o o a s o 1 s 7 d c c f z S ! A f s 9 7 f A 7 A f A 5XBX>XD D A A D     n f.f A ^ f.f s s ! ! s d f Q Q f a d k A 1 7 7 O 9   0 7 5 6 d d 7 = l l l l s s s d f f k c z l z z s s s s s f k k a ~ J.W.J.G.0.D A f O   s 7   s 7 7 s a - - - - 1 7 s 9 s f c A f.s s c f d f 7 ~ d ~ 0.,XqXs.n D 9.f 5 2 d 0.^ n D ~ ) 8 = :.! A s d k m s 1 a m j 1 o 1 7 -   f 8 8 s f s - O - ",
"l l z z f f f f 7 1 7 s c A c f s a a s s s j d Q f.E.E.,X6X6XE./.H.H.f.A d s m c d s j s o o a a d d s 7 7 8 s - - s s s k Q A f ^ H.>XNXhXG.7 ~ A ~ ~ d 9 f d A A ! c ! A ^ ! k k k m m d 3 a 3 3 o 1 1 1 9 7 B f 0 f A A f s z l l z f f s s 1 7 s s s f c c a a a s s s d d k ) J.E.,X6X5XE.).>XH.~ ~ k d k k k k s a - o o a 3 a 7 7 7 7 s s - a k k s m A s f f.>XNXmXQ.C 9.D n A m 7 d k A A ^ ^ A A A Q ! c k k m m j j 3 3 3 3 1 7 9 d c f 8 9 f A A A c ",
"b c c c c c c k f s s k A c f s s s s k k c c A ~ f.E.).eXmXmXmXjXjXqX/.f.A A A A k c ! ! A Q ^ ^ ~ A A c c s s - s c c c f m ! p.0.H.7XjX7Xj.f f 2   D 7 0 9 f S z S S -.A A A c A ! ~ ~ ) 0.( k k Q Q A ^ A D D C 0 0 f A A c c b b c z c k k c c c c c c c z s s s k k k k f A 0.G.W.5XxXmXxXxXNXqXG.0.) ! A A A Q A ! ! ! ! ) ^ ~ ! A A c z ; s z c c s f ! ^ f.) /.eXhX7Xs.0 2 9 9 f d 9 m d 0 ) A ! ,.z ,.c A c A ~ 0.0.( j T ( ( ~ ! ! f.:.F z z z k z s S ",
"l l l l l f f f A A A S ! ! S c v A A A ! A ! A ~ ^ f.H.6XmXSXSXcXqX_./././.H.f.S A S ) f.f.f.H.D.f.! ! -.-.v l l z v S ! A A ! f.z A j.j.:.S 0 j.9.n 9 2 D D 0 z l S z l   8 A c k A ! A ^ 0.~ ~ A f.) ^ p.C F p.p.p.p.p.,.:.-.l l l l s f f d ! A S S ! ! S S ! S ! A A A A A ^ 0.0.h.).xXSXSXmXhX_.H./._.H.,.^ ! ! ! ,.g.F.F.D.f.f.f.,.-.! v ; v v v S z l ! S S f f.Q.p.F q p.s.9.9 2 f n ^   f ! z f 0 - -.c A f c A ~ ^ m R ( 0.f.0.) ! -.-.-.:.g.g.F.,.! S ",
">.>.>.>.>.,.,.,.g.g.H./.1XwX3X3XwXwXwX3X3X1X>X>X:.^ ^ 9.Q.hXmXmXNX7X(.7XkXqX7XqX_.U.U._._.U.U.,X/.P.P.L.Y.Y.K.<.I.L.I. X3XwXhXwXkX2XwXiXrXiXuX_.cXrXqXs.9.~.eX).P.g.c.>.>.V g.>X/.H.H.H.) ~ ~ f ) ^ H.g.j.H.p.a.b.!.wXiXuX3X!.L.<.<.>.>.>.,.,.:.g.f.g.P.,X3X3X3X3X3X3X3X3X1X1X1Xf.f.p.9.j.9XmXMXGXrX_.1XrXkXwX1X1X(.U.U.(.,X,X!.Q.P.P.U.(.(.K.4.<.Y.I.Y.2X3X3XkXkXwX XvXVXwX&XQ.0XdXrXR.9.h.).rXH.7XQ.f.:.x -.L.1X1XK.P.H.) ^ d ) ) 0.f.H.j.a.:.P.!..X8XuXwX1X!.c.",
"[.[.Y.I.Y.I.!.!..X.X1XwXkXlXlXkXzXzXwX3X3X.X(._.P.j.p.F h.5XxXcXkX.X(.qXrX1X1XkX.X(.(.1X1X(.,X3X(.(. X2X2X2X X{.VXlXlXlXlXGXHXVXlX2XuXZXGXvXcXcXNXnXGXrX5X5XAXMXkX2X.XI..X.XkXMXkX>XqXhX_.j.f.! ) -.g.j.Q.(.!.|.^.8XiXvXiXwX1X X{.[.I.I.I.I.I.!.1X(.(.1XuXlXlXuXwXwXwX3X2X1X1X1XP.Q.j.9.p.Q.rXmXMX7X_.7XwX8XqXqXwX1X!.!.1X3X3X1X(.!.(. X4X2X XI.uXCXlXpXCXVXZXHXVXuXwXVXGXVXvXvXvXnXbXmXrX_.cXGXrXNX.X.X.XI.uXuXkXkX3XkXwXj.f.A ^ ~ ^ f.Q.^.(.I.2X2XtXkXlXuX1X(.I.",
"5.5.4.5.3.a.a.a.(.!.!.!. X XI.v.2X2X2X2X X(.(.!.(.!.g.F F Q.qXcX7X!.b.!.(.!.!.(.>.%.:.g.g.g.g.P.>.c.I.[.[.v.v.v.4XXX4X[.;.XXlXI.I.l.n.pXVX8X|.iXMXvXMXaX@X~.5X_.8X.X Xk.I.P..X.X8Xj._.cX_.p.:.S l A z F :.a.C.C.C.oXyXiXtXXX XI.c.4.4.5.>.a.a.a.1X!.L.I. X XI.v.2X2X2X1X X X(.(.b.!.Q.%.V p.1XcXiX(.P.Q.Q.(.|.b.P.a.o.#.g.L.L.c.c.a.>.v. X}.v.;. X4X4X{.v.[.4XtX3.c. XtXlXVX8X|.nXDX0XbXxXR.6X).7X.X(.!.b.b. X XI.I.c.uXrXp.p.A f f A S :.g.b.n.k.n..XuXCXlX2X!.v.",
"v.v.v.v.c.k.k.c.!.!.!.}. X XI.n.I.I.I.I.I.I.P.P.(.(.j.V B f.7XiX.Xb.>.a.!.|.!.g.P.g.g.c.g.:.-.>.&.k.I.[.v.5.3.3.5.3.[.2.< c.uXk.$.v.n.v.XXtX8X8XiX8X_.@X~.9X@Xj.8XuXuXn.k.&.c.g.kXP.1XMX1X:.S z S -.x %.%.@.x.x.+.'.fXDXVXtXI.>.v.v.v.c.c.k.k.g.2X XI.!.XX2X XI. X X}.I.I.I.b.b.a.P.P.F e F !.rXwXQ.a.p.b.XX.X%.XXP.>.:.g.c.g.,.c.>.>.c.[.{.5.X.2.5.{.5. .;.XX4X;.2.v.$.k.yX*X|.&XnXQ.9X0X).rXs.iX7XvX.X&.&.#.3. X XL.VXMXg.f.^ A ! :.-.%.%.c.!.&.n.tXVXZXlX X>.v.",
"v.2.$.3.v.c.v.I.a.c.I. X XI.v.k.}.I.I.I. X XI.c.:.b.b.S 0 S (.kX|.@.&.k.b.|. X Xb.b.c.c.L.b.g.;.>.3.l.c.v.5.3.3.3.v.v.2.;.c.l.&.&.&.l.}.pXC.|.8X8X&X&X^.^.aXsXd.8X Xk.k.>.#.b. X:.%.:.1XQ.f.B F S :.:.a.>.&.!.}.n.'.XXCX Xn.>.&.v.$.$.5.c.3.>.k.b.c.c.I. X XI.k.[.n.n.I. X XI.c.P.b.b.p.e V P.1XkXg.F a.b.|.!.z.C.x.>.I.I.c.L.v v.k.k.c.v.v.3.=.[.5.3.5.3.$.$.5.l.3.l.}.|.}.x.iX0X&XV.~.9X9X).~.^.tXk.a.k.@.c.!.n.&.:.(.1Xj.S B A f.:.g.b.>.c.n.n.oXoXtXlXI.>.>.3.",
"5.$.X.;.5.k.k.n.>.a.c.n.I.n.c.l.I.n.n.n.I.I.b.c.>.b.g.V 0 S !.rX!.%.&.k.b..X X|.L.b.c.b.I.I.c.a.>.3.;.;.2.2.3.3.$.3.3.$.$.;.;.$.&.k.l.k.C.n.n.!.!.&XV.dXbXZ 8.dXk.n.r k.>.t b.>.V B S !.b.p.B %.S >.&.>.&.%.x.x.n.'.oX X&.v.3.$.5.$.O.3.v.3.>.k.c.a.>.k.I.I.v.3.n.n.n.I.I.I.b.c.!.a.g.a.z z j.1X1Xa.%.a.x.!.!.S.C.x.a.I.I.L.Y.-.v.k.>.;.3.5.3.2.3.$.O.$.$.$.;.5.$.;.3.l.n.oXz.|.z.=X+X&XMX#X7._.j.|.a.r >.&.#.XX&.b V b.(.f.S S A f.-.,.a.@.>.l.n.oX[.[.n.n.k.$.l.",
"3.$.X.$.3.3.k.k.;.>.>.>.3.k.l.l.n.n.n.c.k.k.c.b.a.c.a.B 0 S P..Xb.V %.b.b.|.(.(.b.c.c.L.!.!.L.c.>.>.$.$.$.$.3.5.$.2.2.$.$.;.;.$.r $.&.k.n..X!..Xz..Xr.^.j.s.AXr.%.x &.#.@.&.x &.:.%.:.(.U.f.S :.-.g.#.&.&.V t.a.x.k.n.k.r k.#.#.3.$.O.2.c.k.3.3.a.>.&.&.>.k.c.l.k.c.n.n.n.c.c.c.!.>.a.a.x 8 :._.Q.:.:.j.b.C.|.!.C.z.a.I.Y.Y.,X<.v.>.#.#.;.3.3.2.O.=.$.$.$.;.3.3.$.&.&.k.n.XXa.z.&X^.V.d.s.j.@XcX%.5 %.&.@.b.#.r >.o.&.I.1XP.:.^ A g.-.-.:.o.&.&.l.[.3.v.#.>.>.o.o.",
"2.$.$.$.3.k.k.k.>.;.&.&.;.>.c.v.k.c.n.c.>.&.k.b.g.g.:.z 0 S H.Q.g.V %.b.b.(.!.(.g.a.a.b.U.!.L.g.>.>.;.;.2.2.3.5.2.2.3.;.3.3.k.a.k.k.k.XXXX|.@.b.a.a.7Xr.s.9XZ j.a.x k.&.>.I.o.a.:.:.p.H.f.A 0 0 -.g.#.%.>.%.a.a.k.o.k.c.o.&.r #.2.$.$.;.c.c.k.a.a.>.#.#.$.>.c.n.>.c.n.n.k.>.a.c.L.:.a.p.l 8 :./.H.S F j.b.C.^.!.x.t.a.b.L.Y.Y.<.g.a.;.;.3.4.5.2.2.v.5.$.$.3.3.#.I.>.&.n..X*Xa.x.t.d.^.^.p.Q._.F P.6 V %.V c.v.x >.o.%.g.P.:.B f A H.:.! :.%.>.k.k.*.o.I.#.#.#. .$.",
"2.2.;.2.c.v.K.k.>.>.;.;.>.k.L.I.3.c.x.k.>.;.>.c.g.g.,.z l S F.U.g.V :.g.g.U.P.(.,.:.,.g.F.P.g.a.:.a.c.n.L.v.4.;.;.;.;.>.>.>.g.g.!.b.b.XX.X^.V a..X^.p.r.p.B Z Q.a. Xr a.b.#.1Xp.:.-.p.f.f.A d 8 -.c.#.-.g.a.c.x.x.o.&.c.o.;.x #.$.$.$.$.4.v.c.g.g.>.;.#.;.>.L.{.;.k.b.x.k.>.>.g.g.p.f.:.f f f.K.U.! S p.j.C.Q.V.z.%.%.a.g.U.U.<.<.>.g.b.I.I.c.;.;.5.4.;.;.>.>.&.!.g.&.b.|.8Xa.d.z.-Xj.u Z p.^ p.b.wXa.o.c.:.>. X:.S %.g.f.! A f A H.:.S ,.>.n.n.k.>.#.I.#.o.;.o.#.",
"2.3.3.3.c.I.L.<.>.>.>.>.<.v.I.[.>.k.c.c.k.a.>.>.:.g.g.S z ! H._.b.S :.p.:.g.P.(.,.:.-.f.g.g.,.-.-.g.L.I.I.L.3.;.$...o.;.>.:.:.a.b.a.a.%.a.!.%.d.7X%.d.7.q r.^._.b.(.e %.>.%.(.:.S S f.p.g.^ ! A -.K.! -.P.g.c.b.c.k.&.&.x >.3.#.$.;.;.$.>.K.K.g.>.<.>.>.>.k.I. X>.k.c.c.k.a.>.a.:.:.g.:.f A F.U.,X-.A :.p.j.C.z.x.%.%.:.,.K.F.,.-.,.g.I. XI.c.>.b  .$.$.;.>.>.:.g.P.:.S a.&Xp.Z Z a.p.p.p.F ^ H.Q.7X:.%.g.S >.a.S S -.f.f.f.^ ^ A H.,.S -.g.I.I.k.c.>.#.#.#.v.-.$.",
"..;.>.>.c.I.K.,.,.,.>.<.c.K.I.I.>.k.c.n.I.c.>.#.S g.H.^ c ! U.1XQ.F p.:.S :.g.(.g.f.,.f.g.g.,.! :.g.K.L.I.K.<.>.$.v ..>.>.-.-.f.!.p.p.0 %.h.B F 0 j.p.7X7X0 F cXP.>.&.e V g.-.S f f ! A ) A A k ,.U.S S P.a.:.a.a.b.S a.o.>.v.x ..;.;.$.>.L.L.g.:.,.<.<.<.g.I. Xk.k.k.c.v.c.g.>.-.! f.f.A A H.,X3XD.! ^ S Z d.d.Q.%.a.,.,.U.F.,.-.:.g.P.Y.I.c.>.b b ..;.>.,.,.<.g.j.F e V Q.%.Z r.C p.Q.j.p.H.Q.cXp.x x 6 S U.S w z S S S A A m Q U.,.A S >.I.b.>.c.k.x k.#.c.-.w ",
"..;.;.;.<.K.F.-.-.-.,.<.g.K.L.I.>.g.g.I.(.U.,.S S g.U.) c ! /.qX_.:.p.F B F f.(.j.g.f.g.H.F.f.^ ,.f.g.g.g.g.<.>.;.#.#.a.g.,.f.P.h.8 A 0 j.h.C j.rXF ^.Q.s.j.C Q.j.c.V x S :.,.f S A f.A 0.A ~ k F.U.S S g.:.S &.:.a.e !.c.#.g.b ..;.;.-.<.I.I.<.S :.<.<.>.<.L. Xc.g.g.g.L.P.g.:.,.S ,.H.! A H.qXqXH.f.^ 0 u p.z..Xp.g.,.,.U.F.,.:.:.:.f.g.K.c.<.-.#.-.g.g.-.-.,.P.f.A B C d.C r.V.&Xp.9.7X/.A :.rXp.f.F S H.g.-.S ^ ,.) ! A m k Q U.,.z A -.g.>.&.;.a.&. Xv :.-.x ",
";.-.;.;.,.,.,.,.! -.,.,.F.K.K.U.,.f.F.H.H.H.D.f.A A k 7 f G.>X5X^.j.F B B F p.f.H.g.f.! ~ Q ~ ~ H.f.-.f.P.P.<.S >.L.g.S S b./.H.D A D ^ Q.F p.Q.C qXQ.5XA >X/.Q.F.S S ,.f.S ! H.,.^ A A ! ^ ! A ,.U.,.f ! g.f.:.F a.a.F S %.S l ....;.;.1.1.<.<.<.-.-.<.g.<.K.(.,.,.f.D.H.H.U./.! ! ! k d A W.qXqX/.h.f.p.F A F P.j.f.) ^ ^ ^ ^ f.^ D :.g.j.:.V %.g.P.,.S g.(.H.f.A S F p.Q.p.s.F R.~._.R.0.H.H./.) d F.A g.! ! f.f.) A f f A ^ Q ,X,X:.! :.:.a.%.p.a.%.-.:.-.v S ",
"b b v v ! ! ^ ^ ! ! ! ^ ,.,.<.,.! ~ ^ ) ) ) ^ ! c A k d A E.eXhX7XQ.p.B B F f.j.) ! A A m m m m f f A ^ f.f.S l S ,.a.%.:.h.h.^ ! :.! 8 F F 7.C Q.~.Q.s.0.D E.f.g.! ! ,.F.f.! A ^ ! A A A A A c ,.U.F.z f S F :.V %.:.F S S z 8 ........-.! ! ! -.S S -.,.-.,.K.) ) ^ ^ ^ ^ ^ ^ A A k f m f.>XhXxX).9.F A C F f.:.! S A c k m m ! A A D :.-.S e V F f.p.F f.j.D f.! S 0 B p.7.Z D M.~.Q.f.0.H.0.f.A A H.f.,.A A ^ ~ ! ~ ^ ^ ~ A c (.,X! f l B :.F B V F F z 0 l z ",
"l l l z f f f f d d s d f f f f s s s f f f d s d f d f ^ /.jXNXrX(.%.e 8 0 B S z f f d d d d d 7 7 9 8 f f f s = 6 0 0 0 0 7 5 8 S A 8 p.j.p.0 Q.Z D 5 A 7 H.A s z S S c z z z A A A f d 0 f A ,XjX3Xg.S %.p.j.6 e B B z z 8 = c b c z s s s 9 f 8 9 f f 0 f z c k f f d 8 s 9 d 9 7 9 D E.qXhXxX).F 0 8 8 f S z z f s s s d d n f 0 0 0 0 e 0 5 = 6 0 8 0 0   7 f S f B j.p.Z F s.9.B 5 B H.~ d 0 z z ! A A A A f f n A A m d ,.>X1Xg.S S :.j.F V V S V 0 8 0 0 ",
",.,.! S A n f d n n n f f f f f f z z z z z z z S S S ^ j.>XhXMXNXrXQ.p.F S B B z f f f f f f f A A f d 9 8 s z 0 8 8 0 8 6 5 7 = 5 = 8 %.F u y C u 8 2 f 9./.f A F ! z 6 = 8 f f z z f f A j.).wXkXwX/.j.g.a.%.V Z Z F %.%.%.F -.-.! S A A f f A n n n f 0 0 f z z z z z z z z A f f A f._.jXcXmXrX^.j.p.F A B f f f d d s s d d f B B z z l z z 8 = 5 8 8 0 7 O = z 6 0 F F C 7.F 0 q 2 A E.! z :.S 5 0 0 0 0 d f f f f n ^ h.wXkXkX1X(.(.Q.d.%.r.%.V B F %.S ^ ",
":.:.^ D A n n n D D D D D A A B B B B B B B S S F S S F f.P._.7XrX7X^.Q.P.f.^ S F D ! ^ ^ ! ~ ~ ^ f.H.H.H.g.,.,.S S V V B e 0 0 B 0   5 8 5 5 Z q 8 5 n B h.h.9 l 6 = 6 z B B V z S :.p.j.Q.qXcXhXkXkXqX.X!.b.r.Z V V Z Z %.a.j.! ! ! D D D n n D D D D C C C n B B B B B B B B B B S S :.j.(.1XrXqX1X^.Q.P.f.D D D ! ! ! ! ! A n D h.R.P.j.a.:.:.S l l B B f f A 0 0     6 q C C 8 5 n A ^ f.f 5 B 8 5 8 B f F B D D F p.j._.qXkXkXkXqX.X!.d.Z %.r.Z u u %.a.p.9.",
"F D F F 9.9.q.q.N.N.N.h.h.h.h.h.p.p.:.:.%.p.a.a.a.:.%.p.a.a.g.P.b.b.P.!.(./.H.f.j.j.H.H.j.f.f.f.h.H./.>XqXwXqX3X.X1X7X1X_.(.P.j.S ,.S F F %.F d.p.r.Z s.Q.p.f.F B e x :.b.P.b.j.a.j.Q.^.(.Q.Q.Q.P.P.(.(.j.p.r.Z V u e u V V Z p.^ ^ ^ 9.9.9.9.q.h.N.N.N.h.N.s.s.a.a.a.p.:.%.%.%.:.:.:.:.:.p.g.b.P.Q.H.j.P.Q.Q.j.j.j.H.H.H.g.f.f.H.H.R./.>X7X7XwX1X8X1X_.1X>XP.H.g.S F V S %.%.p.p.p.C p.j.f.H.p.V B B a.j.h.p.P.H.j.j.R.)._.^./.H.P.(.(.b.j.d.%.r.V i Z Z Z %.p.9.",
"a.j.b.Q.^.@X5X9X9X9X9X9X9X9X7X7X8X*XXX.XXXXX8XwXXX!.!.|. XI.I. Xb.P.!._.7X7X>X^.Q.Q././.Q.H.f.f.f.0.G.).qXhXwX3X1XwX8X(.Q.(.Q.f.F U.U.1XwXiX^.Q.nXMX0X1X7XH._.rXuXiXuXrXuXiXwX^..X_.^.^.Q.Q.j.h.(.b.P.!.b.C.!.z.V.z.z.C.C.d.t.a.j.H.Q.Q.).).@X@X@X9XeX9X6X9X9X_.&XXXXXXXXXXXXXXXwXXX X!. X|.!.I.Q.!.Q.P./.7X9X^./.)._.(./.P.j.j.H.h.s.h._.qXkXkX(.uXwX(.(._.P.j.g.f.!.(.7XiX.XQ.0XMX0X^._.Q.>XrXvX8XuXrXcX8XqX^.7X_.^.^._.^.Q.P.g.:.a.b.z.C.|.C.d.t.z.!.C.d.%.%.Q.",
"&.a.a.j.b.Q.~.~.~.~.~.^.^.^.^.^.*X.X|.|.|.|.&X8X|.b.b.!.I.c.l.n.L.b.b.Q./.^.Q.R.Q./.)./.Q.j.f.p.f m ^ E.7X1XP.-.1XwX_.a.%.j.P.p.U._.Q.wXiXfXQ.z.vXHX7XV.p.j./.NXiX8X^.!.iXGXVXXXwX.XQ.Q.&XrXvXnXwXb.p.z.^.0XyX|.*X%X*XgX0XC.a.t.%.:.p.h.V.~.).#XM.~.#X~.~.+X^.V.C.!.!.|..X*X8X8X8X|.n.n.}.}.c.&.I.(.(.Q.Q._.^.j._._._._.(.Q.j.f.n n D h.>XqX1XQ.I.uX3Xg.g.j.g.g.P.Q..X(.wXnX&Xz.Q.GXMX_.P.p.j.1X8XXXiXb.rXMXHX8XXX7X7X&X_.7XrXNXMX.XC.Q.!.*X0X^.S.*XgXfXiX*Xx.Z j.",
"o.k.&.+.a.z.a.d.d.d.a.a.z.x.x.z.t.&.t.+.x.+.%.iXC.a.a.o.o.3.l.[.>.p.P.P.Q.Q.f.f.D h.j.j.j.b.a.F M n D /.7X1X:.H.I.S x P.1XP.b._.!.(.(.(.8XnXvX8X0XiX^.p.B 0 F _.8XiXXXXX8XiXfX.X8XQ.b.C.Q.Q.&XcXP.a.a.%.z.z.+.z.z.A.%X*X*X*Xx.V b.a.a.a.r.a.M.d.d.V.d.r.r.d.V.z.&.i z.+.V a.t.&X*Xx.&.V o.3.$.$.(.j.j.f.H./.h.s.f.h.j.h.p.b.P.p.9.9 n h.)._.(.g.(.>.#.g.(.(.P.g.(.(. X|.b.VXVXz.&XiXiXa.B z B Q.|.iX8X8X8X|.0XvX7X.XQ.z.V.^.7XrXuXa.a.a.t.z.a.u.A.z.].yXyXyX|.r.a.",
"O.k.&.o.&.k.z.x.8X^.z.a.a.z.n.n.t.@.t.+.!.d.%.|.d.%.&.o.$.l.5.[.>.F g.P.Q.j.^ h.A p.p.p.a.a.:.V n d M E.>X>X! g.:.-.c.1XwX.XQ.I.g.!.I.a.b.8XyX.X*X&XQ.a.F 0 S _.|..Xb.z.!.XXiX8X8X^.Q.Q.C.j.z.!.P.>.a.@.t.%.t i +.t.B.B.x.z.%.t k.&.>.a.@.r.d.a.-X0X&Xa.r.S.C.z.t.| x.t.t.S.t.C.x.a.a.o.o.*.=.v.>.o.f.j.j.h.s.Q.h.s.h.a.F %.>.V D 9 9 f./.>XQ.g.a.#.-.U.wXwX1X!.g.I. X!.V x.*X8X.X&X&Xd.F C B P.b.*Xb.%.k.!.tX0X&X.X^.Q.b.z.z.b..X:.a.a.t.t.p t y.| u.C.C.S.d.u a.",
"O.l.k.o.o.&.x.!.yXXXC.z.x.n.n.n.i.u.u.+.|.C.t.z.%.V &.#.$.v.5.[.a.S ,.P.H.s.D h.n F F F %.&.#.x n d m J.)._.S f.:.b.!.I.(.1X2X.X&.c.b.k.k.n.C.z.!.!.b.j.p.z V (.b.I.a.a.b.|.iXrX.X!.Q.Q.b.p.r.a.%.x %.a.a.t.i p +.u.z.z.a.t.+.i &.$.k.k.o.%.k.z.|.&X|.z.t.z.x.t.l.@.x.t.z.|.d.z.t.%.>.&.$.5.5.v.c.v %.g.b.p.C 9.s.D F r.V V V B 0 9 2 f./.7Xf.f.#.g.L.P.I.1XuXlXo.>.b..Xb.a.a.!.|.!.!.d.a.%.B g.b..Xc.&.n.2XkXiX X^.!.!.b.a.%.F j.V %.a.a.t.i p i | a.S.x.z.%.i a.",
"O.l.l.&.o.&.x.C.C.C.C.!.oXoX}.n.x.x.z.| V.C.d.d.F V &.&.;.5.2.5.<.S p.j.j.s.C h.0 C F V V @.o.x C N m J.)./.S g.g.L.c.&.>.(.8X1Xv.>.k.!.|.k.t.z.z.C.n.b.a.S S b.:.a.%.c.P.!.7X.Xb.b.b.j.j.a.d.j.>.V >.I.x.z.a.+.t.z.S.V.a.t.%.&.$.$.l.k.o.@.k.x.C.x.!.*X*X'.n.'.'.x.z.t.z.^.V.V.r.V o.#.c.[.5.3.L.o.#.g.b.h.B C C 0 B %.F V @.%.n N 2 h./.7X:.,.:.P.(.g.:.c.1XuXI.c.o.x.!.!.a.C.z.z.!.b.a.p.F p.&.>.o.>.b.c.!.8Xb.b.I.Q.b.j.a.:.g.%.:.g.x.z.t.t.+.t.z.C.x.a.%.V %.",
"} *.n.c.&.a.b.b.r.a.b.^.XX|.n.k.u.x.C.+.B.C.d.d.%.%.a.>.2.5.=.2.>.:.g.f.f.j.9.h.n D Z Z o.&.&.o.D m m H.).).S g.,.:.#.&.g.I.I.g..Xa.&.n.!.k.t.z.%.C.!.d.a.a.:.p.S &.S >.a.>.b.b.P.b.j.a.a.j.b.P.(.a.a.b.k.a.z.t.@.t.z.k.&.o.o.@.#.&.n.n.&.&.b.C.a.a.x..X*X!.n.C.x.x.S.t.d.~.V.V.p.V &.&.c.[.2.2.$.o.g.g.f.j.9.h.Z y C p.%.+.&.a.7.q.9 h./.7XF -.:.g.g.:.>.L.K.>.b.I.&.c.}.!.t.n.+.z.*Xz.%.g.p.:.&.k.&.a.k.o.c..XI.P.b.b.b.b.b.b.L.c.g.n.!.k.&.t.i +.a.z.k.%.V x %.",
"r &.n.n.a.d.z.p.b.z.z.C.Q.b.a.%.+.t.A.z.A.~.d.7.p.%.g.>.2.4.2.2.>.:.g.p.p.j.s.h.C 7.r.%.&.k.k.>.^ M M J.)./.S g.:.S S :.c.b.>.V I.k.>.k.n.n.t.o.%.}.|.z.j.b.a.&.>.a.S &.%.S b.!.(.(.P.a.p.f.j.g.a.:.:.I.I.a.a.+.&.@.t.a.t.o.V o.@.&.x.I.a.a.Q.C.a.V.z.a.a.z.x.t.+.i.S.z.B.~.V.p.r.%.a.>.3.4.2.3.4.>.g.,.p.j.s.s.s.Z r.a.%.@.&.%.h.q.N h.E._.:.S -.:.:.#.:.g.g.>.#.k.&.n.|.|.%.+.+.x.8Xx.%.b.j.:.#.v.&.x b e >.I.1X XI.c.f.a.g.b.#.>.>.I. Xa.&.&.o.t.t.a.k.&.x x F ",
"o.&.b.b.a.j.Q.s.@X~.V.j.j.d.p.Z +.i z.d.^.^.d.Z p.p.g.>.3.v.5.L.4.#.a.p.p.s.7.h.C 7.r.%.&.k.l.k.^ m m G.E.Q.A f.g.g.>.>.g.g.>.S >.k.c.n.!.n.t.i a.|.|.x.b.b.>.:.c.g.:.a.>.#.U..X!.(.!.g.g.f.p.F V #.S b. Xb.k.t.t.%.&.z.b.%.V V #.#.a.b.g.j.Q.j.Q.&X.Xd.a.C.C.t.i t.y.y.m.^.V.Z p.F a.;.;.4.2.5. X>.-.#.a.j.7.9.s.7.p.a.%.t.k.%.R.M N 9.h.E.f.S ,.a.g.g.:.#.>.L.I.k.V &.k.C.&.&.a.x.*XC.a.!.b.&.b. X<.&.;.&.L. X2X XI.g.a.>.>.a.e #.o.b.!.a.a.x.t.k.t.t.n.c.V x :.",
">.%.a.a.p.z.!.p.&X^.C.j.j.d.p.+.t.r +.r.^.+Xj.Z p.%.g.>.4.L.L.{.k.V S p.p.D D h.C p.r.%.&.k.n.c.D m n f.H.H.z ,.g.P.I.b.c.c.>.o.v.k.x.!.n.k.a.z.b.|.^.!.!.b.%.a.o.:.#.g.g.#.c.!.g.Q.!.b.g.g.:.B L.P.V %.b.%.a.x.t.+.+.a.b.%.x e o.V :.c.a.b.b.a.z.Q.Q.z.z.z.a.+.+.&.i i d._.~.F p.S S o.<.L.4.4.I.o.#.-.:.^ 9.).D Z p.p.%.b.C.a.N.N 9 D f.j.j.F g.f.P.(.I.>.-.:.>.>.&.}.!.n.@.@.!.x.^.C.j.!.b.&.k.>.b ;.c.S &.L. X(.P.g.a.:.:.:.&.b.%.a.b.%.a.x.t.a.%.%.b.c.V e p.",
"&.&.@.#.&.k.n.}.&.r }.!.z.C.Z i k.a.a.j.V.Q.j.p.,.>.<.<.<.<.<.<.-.-.F ^ ^ 0.f.h.9.D S :.c.b.>.S A d 9 A /._.,.g.8X1Xg.S >.(.I.o.n.k.k.c.b.b.a.%.Q.7X.Xb.b.b.a.b.#.>.#.S :.:.:.j.P.a.f.b.:.0 0 F %.%.%.r.t.a.a.a.%.r.d.z.p.V V a.&.@.#.o.$.3.n.`.&.r k.oXx.t.d.+.o.&.&.>.b.!.P.:.f.g.g.g.g.<.<.1.g.-.F ,.p.^ 0.j.s.D B S a.b.c.p.A N 9 M H.>XH.A /.>X_.j.p.f.P.b.k.n.n.k.k.b.c.:.:._.7X!.Q.b.a.b.g.:.v S a.b.a.%.z.C.j.%.p.F x V r.r.r.a.a.a.d.d.%.r.a.d.a.%.F V a.",
"%.o.V o.#.&.v.n.&.} }.C.x.!.r.r.I.n.g.a.p.h.f.g.:.>.<.<.4.F.F.F.! F D D D ^ 0.p.f.^ F :.f.g.:.z f 7 f ) /.,X:.! F p.,.%.a.!.I.k.r O.c.n.g.a.g.j.j.(.(.b.j.z.z.z.l S S S ,.:.S -.!.f.p.f.%.8 6 B %.%.%.r.r.a.a.a.%.V p.b.p.e e p.%.o.V o.#.&.l.n.*.} k. Xx.z.C.a.n.n.c.a.a.j.j.f.! ! -.,.,.<.<.g.,.F S :.:.D ^ f.h.9.A D p.f.a.^ f d d m G.,XH.A p.f.f.D F p.j.b.&.&.k.x.b.g.,.:.j._.1X^.Q.z.a.a.S z z S p.a.%.u b.Q.a.%.%.V 0 e %.r.r.r.p.a.a.a.F %.p.a.p.%.V B p.",
"S S z v v o.;.>.k.&.!.!.Q._.R.Q.g.a.:.%.F s.P.(.g.<.<.>.;.-.! ! ! S A A A A D D f.p.F :.p.,.o.z 9 7 ~ f./.>Xf.f A D :.f.P.P.j.a.r &.}.I.:.z z A /._._.Q.p.a.a.:.c ! -.,.g.g.:.f.(.g.:.f.:.f 8 0 F F F F F %.:.:.F z S f.:.8 8 :.F S S v S o.>.>.c.&.b.^.Q.Q._.Q.b.k.>.>.:.a.P._.f.f.f.,.-.-.-.-.-.S S S S B A D j.p.D D :.p.-.S 7 d m ^ H./.H.! f F :.a.j.Q.j.>.&.&.>.n.c.S z f P.H.Q.^.Q.z.j.j.! S S ! g.g.p.S P.Q.f.%.-.A 8 f S F F F F F %.%.B S F ! F S z z ^ ",
"! ! A c z z c S S l F A A 9.D ^ e x B B n D f./.<.>.-.v z s s 8 8 6 5 5 5 5 5 7 B f 0 0 l l 8 = 1 2 D 9.0.E.^ 2 n 7 6 C 9.F 0 6 t r o.V B 0 7 5 D D p.p.D r.d.r.! ^ ! ! ^ ,.f.F.U.,.! ^ ^ A s s A B B B A A A A A f z ! A 8 s ! ^ ^ A A c c S S S l A D C D 9.D V e x V V B p./.f.f.-.! A c c z 0 8 5 5 5 5 5 5 D n 0 8 0 l e 8 O 7 n A 0.h.p.A 5 8 z F p.p.V 8 t t r V S e 8 7 ^ n F h.p.Z r.F ^ ! c A ! :.,.:.f.j.f.F ! A s z z z z z z z B B z z A A A B z d ! ",
") ) Q Q k k s s k s s 7 7 d 1 f 6 e B B n n D p.-.#.v v z z c A 0 8 7 7 7 8 0 f n f 0 0 z z z l A n q.0.0.E.h.n A 5 2 n C n 9 0 e t 6 6 0 0 0 5 n n D C 9 y Z 0 k s s s s k c c ) c k c Q c s s f f f f f f f d f f c z f f c A 0.) ) Q Y k k f k s s d 1 d d 9 8 6 e B z 8 f ^ D A B z f z z z s 0 0 6 6 7 0 0 A n 0 0 l z z z 9 A ) f.j.H.j.:.^ B 0 0 e x e 0 e r e 6 5 8 7 2 D 9 0 D n 0 y 8 k s a 7 s f f f A ! A k A k s k d d d s 8 s s 8 f f z c c z f f ~ ",
"w.[ ) _ Q Q c k Q Q m f m m N A B S p.R.W.W.)._.P.c.<.:.-.! ^ ^ S S A A D ^ p.s.D D S S S ! :.:.h.q.G.h.G.).H.h.H.s.s.s.7.C C s.r.t.%.%.F F p.h.W.).Q.s.D B B q f s c A k s s 7 k s s s k k s s f f f f d d s 8 f A A d f A A A D.w.[ ) Q Q c k Q Q Q m d m m d 0 B %.j.H.j.H.Q./.H.g.:.! ! ! ! S F S S A ^ p.^ ^ ^ D S S F -.:.^ f.H.H.P.).Q.j.P.p.F F F V V F t.a.p.V S p.f.9.W.h.j.j.9.C C D f k c c k d 9 7 8 z d s k k s k f f s d s 8 s 9 k f z c A A A A ~ ",
") ) ) ) ,.,.) ) Q ^ m m ~ ~ m ^ 9.f.E.6XxXmXmXmX7X1XY.K.g.g.f.j.:.:.p.p.f.H.Q./.f.p.:.:.-.-.>.a.f.0.f.f.h.h.^ f.R.H.j.j.s.D p.h.a.z.Q.Q.P.Q.).qX).6X6X).~.~.~.~.h.f.H.H.) ^ ^ A A Q ! Q c c A A A A A c f f f f A A z f B S D ! ) ) ) ) ) ) ) ) Q ^ ^ m m ~ ~ n A :.H._.rXNXmXNXcXrX>X/.H.g.g.g.-.g.g.:.p.H.Q.R.h.h.f.p.-.! :.:.f.f.f.:.f.P.j.:.p.p.a.j.j.:.%.a.a.a.j.b.Q._.5X6X5XeXeX_.~.M.M.~.h.H.H.H.f.^ D A B D A c ! A z Q A A A A A f f f A A A A A A S S ^ ",
"! ^ ,.f.F.H.U.H.) G.) 0.H.h.G.E.j.j.R.>XeXxXxXhX1X X(.L.L.U._.>X1X1X7XqXrXcXmXMXqXqX7X>X(.(. X1X_././._.7X_.f.(.j.j.j.Q.^..X7X7XC.Q.!.Q.h.9.9.9.E.eX6X).@X#X~.@X9X).).Q.f.f.j.s.f.H.H.f.) ! :.:.F D S A A B B B F B z B F S F :.! ! ) ,.f.F.F.H.^ H.H.f.f.H.G.0.) h.H./.qXmXmXhXrXqX>XQ.H.H.P.U.1XwXwX3XqXcXMXNXrXrXqX1X(.(.(.(.3X>X/.P.!.1X_.P.P.b.Q.^.(.Q._.iX.XQ.Q.Q.H.9.D D h.6X6XW.~.~.#X9X9X7X_.Q.j.h.h.j.p.j.p.p.f.,.! ,.-.! ! D S A A B V C B C V F F %.-.",
"K.U.K.<.g.U.U.j.j.P.!.p.j.h.P.p.f.^ n M G.6X6XQ.P.U.I.I. XwX7X_.>X_.7X7X7XcXcX>XQ._.(.(..X!.c.L.L.P.!.3XuXuX2X(..X8X.X^.8XwX8XiX8Xd.^.rX9XQ.9.9.h.).).W.).~.@XbX+X&XaX9XQ.V.V._.^.^.^.^.j.%.%.g.j.P.a.F %.V e V d.Z d.0X*XV.V.C.g.L.K.,.,.g.P.g.(.a.b.p.f.p.P.:.f.H.S 0 0.>X6X9X).j.j.Q.!.3XwX1X3X(.(.qXkXhXqXeX_./.>X_.(.(.P.U.P.U.U.U.1XwX8X(.Q.rXrX!.^.wX8XwXXX&Xj.dXxX5XR.D q.R.#X).R.M.@XsX9X~.aX9X&XM.V.~.|.~.C.V.Q.P.g.:.a.b.a.V F Z V V a.a.r..XyX|.|.C.a.",
">.k.>.#.o.&.>.%.e o.a.V @.%.k.a.f.^ n M G.6X5XH.p.g.<.>.c.(.!.H.p.p.j.H.j./.).h.D f.f.j.!.!.L.Y.c.v.I. X2X2X X X X!.b.v.!. X XXX.XC.7XaXrX5Xf.9.0.R.R.W.6X6X5X9XbXsXbX+X+XZ.^.&X^.^.^.Q.a.%.p.P.b.b.a.r.b.z.%.Z V.d.|.yX&XC.A.|.>.k.>.#.o.o.&.&.a.V %.a.&.%.k.b.j.H.D d ^ ).5X_.j.^ :.f.g.I.(.P.g.p.p.P./.Q.H.E.0.0.H.j.P.!.P.P.L.b.P.Q. X.X.X.X(.(.b.g.!.|.^..X&X.Xb.0XrXeXE.9.0.0.h.R.).@X9X-XAX0XdX=X+XA.A.%X^.^.Q.C.b.g.a.f.a.Q.a.%.d.V.t.Z a.d.d.&XyX|.%X|.&.",
"5.v.v.3.o.o.&.&.V t.C.k.x.k.}.|.f.) n m 0.)./.f.S #.#.#.>.c.j.p.S ! f.f.p.f.j.s.D f.p.f.P.b.g.v.>.4.v.L.v.I.I.}.I.n.n.I.n.I. XoXC.z.Q.Q.Q.Q.9.9.D h.R.).5X#X~.Z.AX+X%Xy.=X-X%XC..X^.Q.x.a.%.k.|.!.b.@.%.!.|.z.t.S.].=X=X].S.].|.l.v.v.l.&.o.@.a.k.+.&.C.k.t.l.XXj.f.! f A E.>XH.p.A S %.%.a.b.a.%.F ,.g.j.p.f.j.^ p.H.:.:.P.a.:.c.g.g.U.I.b.P..X(.b.a.b..XQ.z..XC.z.j.j.Q._.s.D 9.q.9.N.).#X~.M.bX%X+X$XA.:X%XB.].|.|.V.a.a.c.I.b.^.b.%.x.|.n.r.t.B.A.*X*X].%XoX`.",
"O.3.v.3.o.o.+.t.%.t.x.t.z.t.n.n.f.) m n 9.W.H.0.S ;.;.$.;.c.g.p.F p.j.j.f.f.h.h.f.H.f.f.g.g.:.g.;.4.c.4.;.3.v.}.n.k.n.c.@.a.|.XXa.a.a.V p.s.A 9.D h.W.).R.s.7.r.Z.y.m.y.%X%X^.V.&X!.x.x.x.k.c.I.2X!.o.V z.C.x.x.S.|.%XA.i.z.S.S.*.*.3.l.&.r o.a.k.&.o.x.t.t.&.n.P.f.! f f H.).f.p.S F :.#.>.v.k.-.-.g.j.H.^ f.H.0.h.Q.^ %.P.g.-.>.>.k.c.g.>.c.!.!.b.a.a.b.p.d.wXd.%.a.Z F Q.D n D 0.N.R.h.s.7.7.d.y.B.Z.y.=XA.i.%X%X].x.k.a.v.I.!.XXx.V &.n.n.t.i.C.|.%X].x.S.].@.",
"$.3.v.v.k.&.k.C.t.V +.+.k.u.k.&.g.) A n ~ G.h.^ #.>.3.;.&.k.g.a.S :.f.f.p.^ ^ f.p.f.:.:.g.p.:.g.;.3.k.>.&.;.c.I.I.&.o.x t o.C.!.+.t.a.%.p.p.n D 9.h.W.R.h.7.s.s.8.y.B.B.d.B.V..X*Xn.k.n. XI.c.3. XI.&.x @.&.@.t.n.}.C.u.t.z.x.u.&.$.3.v.k.&.&.x.z.a.i t.t.n.u.k.F.,.! f f H./.) p.F :.>.#.;.v.k.#.S f.p.j.A p.f.D s.j.D -./.P.g.#.>.k.;.o.:.c.b.b.c.Z e B V a.XXx.%.b.V F Q.A A D h.).~.h.8.7.s.p y.A.A.r.B.B.].*X|.n.k.k.c.v.v.v..XI.o.V #.@.&.k.C.*X|.x.u.t.i.u.",
"5.c.I. X!.b.!..Xd.Z %.t.}.C.}.n.,.^ A n ~ G.H.:.S ;.3.$.$.;.>.:.F :.p.f.f.^ D s.p.f.:.S F S v #.>.>.>.;.;.>.a.b.b.%.V F r.z.z.a.+.+.a.F S C 9 A h.f.h.N.N.M.~.V.A.B.B.d.d.Q.C..XXXb.>.L.{.I.4.;.c.I.c.;.#.x w V n.}.n.t.k.x.i.u.5.3.c.n.I.I.n.Q.z.a.V %.x.XXC.b.g.f.! f A H.P.:.:.S :.:.o.$.5.3.:.S f.:.j.A ^ 0.0.s.j.F S f.,.:.#.>.;.o.x >.k.a.>.a.%.V r.d.a.a.z.+.b.V F p.f f ^ h.R.W.R.N.M.V.V.d.A.B.y.S.A.].*X}.x.k.v.v.c.4.>.Y.Y.<.#.b t r k.n.oXn.&.&.@.&.&.",
";.$.;.c.c.a.p.j.h.F Z %.Q.k.x.b.,.^ A m ~ G.H.g.o.>.5.=.$.&.>.>.p.p.^ p.H.p.D p.j.j.:.S S V z S >.;.#.&.:.>.:.:.p.a.p.d.Q.Q.d.a.a.V %.%.B 8 7 D f.9.h.j.h.M.~.V.^.d.d.%.z.Q.!.I..XI.c.L.K.4.1.1.4.Y.L.4.<...b x 3.I.n.k.l.k.*.k.$.;.#.;.c.P.f.F f.F B V b.z.a.g.,.F.! f ! P.P.f.:.%.>.>.o.#.3.3.a.S g.! P.D p.^ R.h.j.D S S z V >.;.#.x o.&.>.a.%.b.a.a.!.Q.d.a.z.o.a.V :.B 5 5 9.9.h.h.N.M.V.V.&Xr.d.a.z.C.S.z.}.!.I.v.c.4.4.1.1.K.T.L.K...w x 3.k.}.l.&.k.&.&.&.",
"3.$.&.c.b.a.%.p.j.p.a.a.z.@.&.a.-.^ A A ^ H.H.g.#.k.v.5.;.2.3.k.:.F B F j.:.B D p.f.! S ,.,.:.c.:.#.S S :.>.%.S -.j.a.%.%.Z p..Xb.o.b.^.a.B f A D D j.H.D Z s.p.V u C.+.a.%.c.I. XI.L.c.;...;.4.Y. XL.4.>.$. .$.o.l.l.k.k.O.O.l.3.3.;.&.c.!.j.B ^.h.p.%.!.%.@.c.-.F.! s :.Q.P.g.a.:.g.k.#.$.v.c.>.z -.B H.A D B H.p.f.-.S -.S :.K.#.x o.#.&.;.a.>.c.a.%.%.r.a.!.!.t.b.a.j.B 9 9 0.9.s.s.7.r.p.d.Z q d.t.d.%.a.z.x.I.I.L.4.;.;.1.L.L.4.L.I.$.x $.&.3.`.*.&.n.u.k.l.",
"*.*.l.x.n.x.d.d.r.a.t.a.z.&.o.a.g.f.S B ^ R.H.:.-.>.>.$.$.4.5.4.o.S -.g.p.S S :.j.p.S S -.>.<.<.I.g.g.g.-.,.c.>.#.k.;.o.%.a.|.!.&.e %.g.f.A 9 A 0.E.j.p.h.d.Z u Z Z a.u 6 a.!.n..Xn.k.3.2.$.$.5.2.l.&.*.}.x.} t | @.@.u.i.k.i.u.*.&.&.&.k.z.a.t.z.r.%.a.z.t.&.a.S :.:.S F p.f.:.F :.g.a.;.;.>.4.;.v S g.j.,.S A p.:.S V V S -.:.!._.P.<.<.>.;.4.4.#.>.v.V u z.8X>.V V :.g.) f 9 0.) h.h._.Z u u r.u p Z 6 %..X|.I.b.k.;.#.;.;.3.$.5.3.l.}.x.o.| } @.i.x.i.u.u.k.l.",
"$.O.$.O.&.&.p.t.a.a.r.a.x.&.o.&.g.,.A z D h.f.F F :.;.#...2.4.;.>.:.g.b.g.-.:.f.g.p.F S :.g.k.k.Y.K.K.K.<.<.K.<.;.c.;.a.2XvXtXV &.&.P.U.H.f.s s A f.f.F F r.r.d.Z Z a.u e z.|.|.I.k.&.&.$. .$.2.3.l.*.k.oX'.u.@.@.t.u.i.i.x.u.u.u.*.&.&.k.z.j.a.z.a.r.a.a.&.&.@.,.f.,.S S p.p.p.%.:.:.#.....;.4.>.o.#.g.g.,.S S P.j.g.,.>.g.v.L.p.H.H.g.<.,.1.T...4.k.:.P.vXiXa.a.a.b.U./.H.A 1 d ! h.F p.Z r.d.d.Z r.r.u %.^.!.I.b.>.#.o.o.#.$.;.3.&.k.oX'.u.@.| @.i.x.x.x.u.u.l.",
"3.;.$.#.#.:.a.g.j.a.%.p.L.a.o.-.,.) A f A p.p.F F :.>.-.;.;.;...>.,.g.c.g.:.:.g.j.f.-.-.<.c.K.K.g.g.g.<.<.;.! -.<.I.>.c.2XvXiXa.%.p.j.S B ~ a O ~ f.0.A r.j.^.9Xd.p.f.B 6 %.j.c.c.;.$.$.$.....;.k.k.>.k. X|.n.z.t.t.a.d.z.d.a.a.#.#. .o.:.:.%.F b.j.f.:.>.a.;.S ,.,.! A B F p.p.:.:.,.:.#...;.;.g.>.<.K.U.g.f.:.f.p.:.-.,.>.g.K.g.Q.H.g.F.,.-.;.<.I.c.%.Q.fXfX.Xp.j.j.:.! ! k o 7 f.H.D 7.r.~.9Xj.r.p.F 0 C g.f.U.c.<.-.#.#.#.$.k.>.#.>.|..Xx.t.t.t.t.z.x.z.a.%.a.",
"1.>.;.-.-.-.,.p.f.! c ! F.g.S S ! A f f A p.p.p.F :.>.>.;.;.....>.<.g.g.f.:.f.g.f.:.F ! ,.g.g.g.,.P.F.g.F.<.S -.<.g.:.>.a.b.|..X%.a.g.B f D f 7 0.G.9.D 9.M.~.&X^.Q.Q.^ z ,.j.H.<.-.#.-.-.v ..1.,.-.S -.g.b.j.d.z.z.z.z.b.j.j.j.>.-.#.#.,.,.-.S ,.f.:.S ! >.,.c ! ! c f z D f.j.F p.g.g.<.;...v >.,.,.g.g.f.:.! :.:.! ! -.,.g.g.P.H.,.:.K.g.v l K.K.,.%.p.p.V.iXa.j.a.%.A A n d m h.j.D 9.d.~.&X^.Q.R.h.D D g.g.g.<.,.-...-.-.-.<.-.S F g.b.a.r.b.d.d.z.Q.Q.h.p.S ",
"l l l c z z s s k s o s ) ! s z k d d f D f.H.Q.^ :.-.-.#.v v b l z c z f f c A A z f z A S S S c -.! S :.S z c ! -.S -.:.%.b.j.e B F C A D d 9 ~ N.h.C C C Z p.p.A p.A 0 ! f.g.! v c S ! b b ! ! c z z B A F C D D A C C C A A v b c c Y S c f s k k s k ! Y s c d s d B D j./.p.p.,.,.,.-.b l l l z z f f f d A A c z c c S S A A f z f.,.c l v ,.-.S p.p.p.j.u B V F A f 9 9 A h.h.9.Z C C r.h.p.f.^ B z S S S S c c c b v v ! A A A B B S C F C B C D D A f A ",
", , l s s s - o - o O - c s - a s s d A 0.h./.5Xp.D A c z l l l ; s s 6 = 9 d d f 9 7 9 s f s 6 = 6 8 8 f s 8 s   s 6 8 8 0 e 5 0 5 8 8 0 n 9 n 9.).#Xs.C q q Z 7   f 9   9 f z ! c z v c l s c z s s d 9 0 f 9 5 5 5 2 2 2 5 9 s , - - , s - o o o o o a k s a s 7 7 f ~ f.E.>XH.p.S z z z l l 8 z z s 9 d d d d d d 9 8 8 8 6 5 0 d 8 z f s z * = 8 8 0 B 0 6 8 5 = 8 9 9 9 N D ).).R.C y q C 9 9 d 9 7 7 9 s z z f s s l l s z k A A 9 7 f 0 5 5 2 2 5 9 2 1 7 ",
"Y S ! A c c k f k k s k ! f 7 s m f m ^ f.H.).eXR.p.S A z s l v ! ,.,.S A ! f.0.A A k c c c f 8 z e z A c S ) ) ! H.H.H.h.p.d.F :.B B 0 n D D h.W.6X#Xh.7.C B C C f ^ ^ A D S F :.! S ! ! c l z z s c A d f B 8 C C n n B A D ^ ! ! c c ! S c f k s a s c c k z k s f ! f.H.).9X_.j.S l z b v v c -.,.S c A ! ~ ) ) ) ! S A c z 7 B B f z s f ! ! ) H.Q.j.h.s.p.p.B 9 9 n D 9.9.q.6X6XR.8.7.y n 9 n D D D D ^ f.^ ^ ! S A z l s f s c A d f B f B B C C A A D ^ ^ ",
",.:.! S A A ! ! f.f.f.f.f.A f ! ~ A ! f.G.R._.rX>XH.:.! S z v ,.! ,.,.A A ! 0.0.G.f.f.f.,.:.! A V e B S A ) H.D.E././.jXrXQ.h.p.C f C n C D D 9.#X#Xq.C q.s.C 0 B 0 h.Q.j.Q.Q.!.j.f.p.f.<.S S S c z ! -.B B F B C B u B B D F p.f.:.! ! ^ ^ ! A f.! A :.f.) ! ) ! A ! f.E.E.).9X7X/.f.-.-.-.-.S S ,.g.! A ! ) ^ f.f.f.f.! S A z 0 B z z ! ,.f././.).qX>X).5X~.C D D f 9 D q.9.M q.6XW.9.C M.C q n D s.h.j.H.Q.^.Q.Q.j.f.:.F B x z 8 z S S S %.B 0 B Z C B C Z p.^ ",
"! :.:.S B S ^ F f./.H.Q.H.R.0.E.G.f.G.G.E./.R.j.h.9.D ! ! S -.<.g.g._.H.g.H.0.h.0.0.f.p.:.! ! S x x V S A A f.E./.5X>X/./.h.D :.p.B F R.~.5Xq.N.#X@X8.N.@X#XN.Q.^.s.~.^.Q.V.a.&XC.Q.!.b.j.a.f.j.g.c.v.g.&.a.x.|.x.d.t.+.V V V %.F B :.:.S z f p.H.p.Q._.j.h.Q.E.H.D.f.H.h.h.h.R.j.h.H.,.g.S -.v ,.g.P.P.H.h.h.G.^ f.f.f.! A S S S x V S z S f.f.,XH./.5X_.Q.h.D F D 0 9.R.W.#XM.N.#Xq.#X6X~.9Xs._.s.d.7X~.p.M.s.V.j.j.Q.Q.j.a.j.c.L.c.a.@.@.x.!.n.z.d.r.t.+.e a.%.",
"Q.^.^.Q.Q..X7X&X^.7X_.p.~.Q.9XaX>XqX>X).>X9X9X~.5XQ.h.f.g.g.Y.3XzXwXNXkXrXrX5XqX>X>X_._._.(.(.(.I.I.!.P.j.p.^ ^ 0.E.).).>X/.Q._.p.^ R._.9XaX#X6X9X~.bXHXaX@XaXM.B.+X-X9XyXgX0X|.0X0X8X&X.X&XwXiXlXuXtXpXCXVXHXHXHXVXfXVXDXyX*X^.Q.V._.^.^.^.^.0X7X&X^.V.M.M.).qX).>X>X).eXrX9X~.5X^.P.f.<.g.L.Y.wXwXkXkXrXqXeXeX_.>X>X_.(.(.(.(.!.b.P.P.f.f.f.A f.D.>XqX/.f.h.j.p.j.H.).5X5X6X#X6XeX9XSXSX9X9X^.s.V.V.-XcXbXbX-XdX9X-X=X*X&X&X0XvXlXtXtXCXVXHXHXFXFXDXVXFXDX*X.Xd.",
"~._.Q.z.z.C.C.V.C.Q.&X^.0X@XsXbXcXMXrXcXmXcXAXaXrX&XQ.Q.P.P.(.2X.X1XwX7X>X>X^.5X9X7X_.^._..X1X8XtX8X1X(.P.f.D f A G.W.H.f.^ ! f.P.H._.Q.5XaXbXAX6X#XbXGXAX@X9Xs.y.|.%XgX%Xz.yXVXyXgXgXiX0XyXfXvXCXpXXXoXoX'.'.'.;XFXFXFXVXpX;Xt.C.~.&XV.z.Q.V.V.d.Q.V.~.9X@X#XbXxXNXNX9XGXGXMXdXcXrXQ.P.:.L.I. X X1X7X7X7X_._.5X7X_.^.(._.1X7X8XiX.X.X.XU.H.f.k A ^ /.>Xf.D f.H./.>XqX>X9XbXbXAXbX9X9XAXGXaX).V.r.&X.X-X9XV.&XDXnXgX0XgXgX=X0XfXVXCX4XoX|.oX'.].].CXFXVXVXCX'.z.!.",
"Q.^.z.r.a.d.t.r.z.V.Q.dX&X~.s.Q._.(.p.1X7XV.7X&X0X_.Q.b.g.&.#.>.g.b.Q.Q.V.Q.Q.^.Q.Q.j.j.j.b.!..X X}.n.a.p.p.~ d d ~ G.G.0.! :.H.P.Q._.j.@XrXAXbX#X~.M.~.9XM.~.d.^.S.B.*X=X|.yXfX|.*XiXfXgX0X8X8X}.`.l.*.O.| | @.@.:XCXCX;XoX|.| V.~..Xd.r.V.a.r.t.d.C.9X0XM.r.~.7X_./.p.rX~._.9XaX0X^.!.a.a.;.;.a.j.b.Q.V.V.Q.^._.Q.h.a.b.!.!.!.tXn.c.b.g.g.f.A k s ! G.f.) f.p.f.j.(.p.j.aXsXsXsXM.M.~.@X+Xh.j.!.Q.d.Q.*X^.%XfX&X%X%XgXgX=X=XyXXX{.`.*.O.@.@.u.u.].VXVXCX;XS.x.a.",
"d.V.p.Z b.C.b.z.%.a.a.Q.s.N.s.M.iX8Xb.0XiX~.0X0X9X^.V.d.%.V x V %.a.b.b.C.Q..X7XQ.V.j.a.d.x.!. Xk.v.k.>.a.j.) n 1 m G.H.) ! f.P.g.P.(.!.rX0X9XM.Z.y.r.^.s.j.^.V.r.t.z.t.S.*Xx.%.x.^.8XiXiXiXiXiX}.`.l.u.u.u.i.i.S.].].fXpXS.i.+.r.d.Q.r.a.|.!.a.b.r.z.~.j.r.s.s.0XrX0XV.rXV.^.dX-X&X.Xx.k.#.o.r &.a.b.z.C.Q.^.&X&X!.j.a.d.b.b.x. Xk.k.c.g.P.F.A A s k f.f.f.g.,.H.P._.P._.bX9X#X@Xm.M.s.N._.j.Q.j.b.b.b.C..X8Xt.C.C.^.0XyXyXyXfX*X}.'.u.u.x.u.`.t.t.].;X;X|.t.+.a.",
"p.j.%.V c.n.a.a.&.a.!.Z r.h._.j.iXiX|..X&X%X0X%X0X|.z.a.&.%.&.x.&.a.a.x.C.C.8X9XV.V.z.z.z.x.C.}.&.n.}.!.!./.f.f d m f.G.) ! g.g.F.P.P.(.rX&X^.7.7.y.C ^.@X_.j.a.b.x.XXx.x..Xb.b.a.b.!.!..X8XkXVX2Xn.&.o.&.t.| r i.'.oXoXx.t.i p %.p.j.F %.!.x.>.a.a.b.j.Z j.@XN.!.0XfXQ.-XA.&X0X%X^.|.a.k.&.3.&.&.a.z.z.x.C..X*X&X~.C.z.z.x.x.k.}.l.[. X(.!.H.! A s ! H.f.f.P.P.U.P.U.j.Q.9XZ.r.~.7.7.7.~.rXQ.f.g.c.P.!.>.a.!.%.z.d.z.Q.|.&X0XfXpXn.k.o.O.x.| | i.u.|.;X'.u.+.+.F ",
"j.!.p.S P.(.c.c.}.!.7Xb.h.p.Q.p..XXX|.S.C.*XyX-XyX%XB.z.t.&.k.n.u.x.z.S.C.V.*X*Xz.z.z.d.z.k.k.k.O.`.XX X!.Q.f.f 7 d 0.H.f.H.(.!.g.c.:.!.!.V.d.7.C r.C d.9XQ.%.S XXk.#.>.I.}.c.>.>.a.c.c.L.(.2XuXI.;.r r &.t.@.i | ].fXz.V t.i e a.a.j.:.a.!.v.>.I.I.!.Q.j.j.M.j.b..X&X~.^.%X=XyX=X%XC.z.u.&.l.l.k.x.x.z.z.V.^.&Xz.V.V.z.a.t.k.k.l.l.[. X!.I.P.-.f f ^ F.-.^ g.L.c.L.g.b.Q.Q.Z.d.m.C C y._.&Xj.%.Y.g.,.L.1X.X2X!.g.:.p.j.b.b.!.8X.X&.#.r o.x.| +.+.t.*X|.t.i e V ^ ",
"F a.V x b. Xb.I.b.:.a.7Xb.Q._.rX!.x.x.C.%XgXbXnX=X|.V.z.t.o.o.+.O.u.+.t.r.+.V.V.z.z.z.z.z.u.u.*.} v.}.c.>.f.:.A f d A ) A S S z z :.S ^.b.r.Z Z s.y j._.r.C !.S #. XI.I.L.L. X:.L.I.I.I.P.L.Y.(.k.;.o.o.@.&.t.t.+.t.*Xt.+.x.e e V V %.V a.!.n.c.c.a.:.P._.h.h.dX&XQ.V.^.|.=XgXDX0X=XC.S.&.k.&.*.&.t.t.%.+.+.t.d.y.d.V.z.z.u.k.n.O.O.3.v.>.k.K.g.s 6 A ) S S :.a.= e V j.b.p.d.7.C 8.d.^.V.Z p.Q.b 3X3XU.U.K.<.:.g.a.g.!.!.b.b.!.I.#.>.b o.k.o.t.+.t..X|.a.a.%.e A ",
"o.@.@.%.b.z.b.Q.Q.b.^.C..Xz.Q.VX8Xz.z.-X~.m.0XDX9X+XV.V.d.%.&.u.+.+.&.t.d.z.C.~.%.d.+.+.n.'.u.O.O.O.3.[.}.>.z 8 9 d A p.p.A C F %.V a.%.g.C F p.M.9.j.j.Q.Q.p.b.,.-.c ;.Y.g.S v -.U.I.!.!.I.(.c.K.k... .k.k.&.t.k.&.}.}.&.V e V r o.@.%.a.n.x.a.!.C.Q.Q.7Xd.V.0XyXoXC.&X-XM.Z.AX0X+XB.C.n.k.&.&.&.&.t.t.d.m.M.V.d.M.+.V z.n.k.*.}  .$.l.I.K.#.8 S f z :.p.C A p.o.v e a.a.h.Z p.s.s.j.C ^.^.a.(.Y.b 1.l <.c.<.; -.g.P.!..XP.^.P.;.v.c.#.o.k.k.O.n.&.k.!.n.o.e V A ",
"t r o.z.^.C.j.^.V.p.Q.d.C.t.z.iXiX!.^.|.M.m.~.9Xm.s.d.V.x.k.u.k.&.&.a.z.V.C.~.^.z.V.z.a.}.'.&.}  .O.5.oX2XI.-.z f f A p.p.F p.z.!.a.p.%.a.F p.s.9X9X@Xj.j._.Q.f./.K.K.g.L.L.z V :.b.g.g.g.a.x.&.I.L.$.#.k.k.&.&.k.&.C.}.&.V w e e e V t.b.C.C.x.!.d.a.z.!.d.d.^.yX*X!.^.+XM.m.@X~.s.r.d.C.n.k.*.&.&.t.d.d.M.Z.~.m.^.V.d.x.l.*.&.r $.l.[. XI.<.S l 6 0 F s.Z 7.j.XX(.%.b.B F B 9.~.aX9Xs.Q.7Xj.f.L.;.K.>.c.L.g.v :.a.g.g.Q.p.b.a.k.I.L.#.#.k.k.o.n.&.t.C.n.o.t e S ",
"r r V b.^.z.j._.^.s.^.Q.Q.a.Q.8XyX!..XC.z.V.s.d.C C r.x.n.k.*.*.&.t.z.C.C.~.C.V.V.V.a.%.x.n.k.k.l.&.$.;.>.#.S S f f A p.p.F p.j.&Xz.^.%.V.C M.~.M.N.s.~.^.V.V.d.L.#.g.S %.:.6 >.j.!.b.b.d.a.b.%.I.I.&.o.&.&.o.+.x.t.C.|.x.t.V e V e V a.b.z.b.!.7Xj.p.Q.Q.V.V.Q.tXXXC.C.^.Q.d.s.d.Z V a.}.}.l.&.O.%.t.a.d.M.V.Z.d.V.j.r.a.x.n.n.l.l.c.>.$.#.-.-.s 6 0 F s.D 7.d.d.^.b.wXr.j.8.V.j.@XM._.&X@Xd.a.g.:.:.o.V a.o.e b.b.b.d.C.p.z.a.v.I.v.@.o.&.&.i x.t.k.}.|.a.V e S ",
";.%.%.%.j.a.p.Q.5Xh._.^.Q.j.^.7XXXk.|.n.Q..Xs.s.Z Z a.b.n.*.O.o.o.%.a.z.V.j.d.d.r.r.Z u o.&.&.o.v.c.v. X(.<.S z 9 d D f.p.F C F d.t.z.8XbX9XN.C r.8.8.@X&XM.Q.z.b.%.a.a.a.V t b.b.C.b.C.Q.z.z.r.b.c.#.r @.O.o.+.t.+.S.!.x.z.+.u %.V S p.g.a.f.d.7XQ.j.&Xj.Q.Q.!.oX}.k.b.&X.Xd.p.d.%.%.x.n.l.$. .o.+.%.a.d.j.j.N.Z Z C u o.k.k.&.c.n.I.Y.I.g.-.S z f B 9.p.D D 7.Z r.%.*X0XbX~.m.8.s.C M.^.M.d.z.a.a.a.a.&.a.%.e b.b.b.z.^.d.V.a.a.c.>.o.V +.+.i u.t.t.C.|.z.+.B A ",
"o.a.%.V :.f.h.j.).s.).Q.j.h.Q.!.2X>.n.I..X7Xr.h.d.p.a.c.k.$. .o.o.%.a.j.j.h.p.r.j.Q.^.(.!.!.k.o.;.;.v. X1XK.! A s f ~ f.s.D C F r.&XV.bXu M.7.aX~.M.s.m.s.y.V.Z x.oXn.C.n.p i %.r.t.r.C.~.V.d.%.a.a.o.V @.%.+.t.t.+.V.V.a.t.i 6 F F F F :.h.g.p.Q.j.j._.s.j.Q.!.2XI.3.I.8X.Xa.p.a.a.k.n.v.$.X.O.#.%.p.a.h.j.j.h.s.j.Q.^.!.}.v.#.#.&.>.I. X(.g.! f f A 0.p.D D Z u B.9X-X~.m.Z.+XM.#Xs.8.M.s.~.d.+.x.oXC.z.t.%.i a.a.a.z.^.d.C.r.>.a.>.o.o.%.&.+.t.t.u.V.C.t.i 0 f ",
"6 F F B ^ j.h.s.E.s./.j.Q.Q.Q.!..Xc.b.I..X(.F p.f.:.:.a.>.$.$.;.:.p.f.h.h.p.s.7.F s.H.Q.j.b.c.o.>.;.;.c.g.! c s f k Q 0.f.0.s.Q.V.d.r.&X+X@X8.y sX~.M.@XM.s.M.y.S.yXx.t.t.i V.d.r.r.%.V.^.V.j.p.p.g.#.V %.%.%.d.C.V.|.V.r.r.B 6 z B B z F h.j.s.j.j.Q.Q.h.j.Q._.wX[.k.I.2X!.:.%.:.:.g.b.3.#.X.$.>.a.j.j.j.h.f.s.C s.Q.Q.a.a.c.>.;.S S -.g.g.! z - s m ^ f.s.9.9.^.V.m.s.~.~.N.y @X#X#X~.-XM.~.m.y.&X*Xz.y.u y.V.d.d.t.a.^.z.Q.p.a.>.>.&.&.%.t.r.C.S.Q.V.d.%.B 0 f ",
"6 S A z D p.f.9.h.0.E.f././.Q.(.U.P.c.j.Q.j.D F p.F F :.:.o...o.p.p.p.9.0.^ ^ D D F p.p.! j.!.b.a.>.g.U.K.! 7 O k k ~ 0.f.0.s.Q.d.Z d.r.+XC 8.y sX8.N.9X#XN.M.^..X;Xz.t.t.a.&X0XC.a.Z s.Q.h.j.f.:.,.S z S V V r.z.j.^.h.V F B 0 z f f f A ^ f.p.f.h.G.f.E.R./._.(.I.g.a.!.Q.:.F :.F %.:.-.x  .#.:.p.f.f.f.p.D C A D f.:.B :.Y.!.>.>.g.F.F.,.z - o s A ^ f.h.9.7.s.r.r.7.N.M.7.q Z.8.q.~.#XN.7.V.^.fX|.z.+.+.z.&X^.V.r.F j.a.Q.f.,.-.-.S S V V Z d.C.Q.j.%.C B A f ",
"S S z 8 z A D 0.D D 0.A H.H.f.H.:.U.f.^ j.j.0.A ^ D D :.S z w l ^ D D D A A A A B C ^ ^ A ^ f.F &.v l z c d 7 7 d f ~ h.f.D A D 6 B 7.~.s.7.y C q.2 9 9 2 y C Z ^.k.&.z.x.Z V Q.Q.p.8 B D D ^ ^ ! -.c s s 8 6 B 0 B p.B   0 f f ! f 0 z A A A D D ! D f H.h.H.H.,.g.:.S j.Q.j.p.f.D B S S b w z S S ! ^ D B 0 5 ^ D D S e S g.:.:.%.S c z f k k s k ~ 0.0.9.D C D Z B C 9.R.7.2 q.N 9 2 2 C n r.j.8X+.d.+.d.Z F 1Xj.B 8 S A f.^ ^ ! c z f 8 8 8 8 V F C 8 6 f A c ",
"s s 8 9 9 7 7 5 d d 9 f A A f 9 f f 0 0 f n D D n n n f f 0 0 0 5 n C f 9 0 0 7 7 0 7 5 7 B f 7 8 w = 6 = f s f A ~ f.H.E.f.C 9 7 5 f D f 9 2 O 8.2 N O n 9 0.0 V V V B x z 6 = 7 7   1 7 d d s a s s - s -   6 O O   7 7 9 a a d s s 9 9 9 7 7 f f d d 9 f n A f f f n n C A A n f 0 f B z 0 = 8 0 f f 0 0 0 f 0 0 7 5 8 0 w z 6 6 0 l s = - s ^ ! ~ 0.H.j.D n B 0 f n 9 9 n 9 9 M N 2 O n ^ D 8 F B 0 z 0 8     8 d 7 - 7 s s , h s s s - = =   O = 9 o 9 f 7 s ",
"z z z f f d d d d d f f m m f 0 n n 9 9 9 9 N n D D n n 0 0 f f ^ h.h.9.D A B f B B B f B D A f x x x z B f f d A A ~ f.h.p.F B S 9 0 n n M m 9 D N 1 N 2 n n B :.S z l f z f d A k d s j k k L h Y s s c s 7 s z z A A A A k k c f z f f d d d f f d f d f f n n n f f f f 9 9 n f f f B B z z A D p.p.D B f 0 A B z z z z B S x e B z A 8 f A A A ! 0.f.p.9.D B f f f 9 d N d d d 9 9 n D A d C s.B 7 d 0 f s A c f a s Q Q k h h s s s s s s 8 9 k ! A ! Q A A ",
"z l l f f f f f n M A D A B f f D D D D 9.q.h.h.h.9.^ D ^ f.H./.).6X6X/.h.f.p.D A A B f B D A 0 S V a.F p.A A f A n A D p.p.p.:.:.9 6 A D ~ ~ M ~ ~ d q.n D d ~ f.! A A A A c k A k s s j k j h , h , , s s - 8 A S ! ! ^ ! ! A z z l l f f f d A A A A A n n n C A D D 9.0.s.f.f.f.p.^ ^ p.f.H./._.7X7X/.j.^ D D A B B z z B V V B %.:.,.B S F f B ! ^ p.p.9.p.A ! A A A A M M n n M ~ ^ D A n A f.A f m f A k A A s a s c c s s , , s , s s 8 8 z A ! ,.) ! ! A ",
"S S S S S S D D ^ f.h.f.) ! ! ^ A n M C D 9.f.h.H.f.^ F D s.H.Q.6XeXeX_.Q.j.j.p.-.:.F S D p.^ B V V %.F %.A S A B B B A %.p.%.F j.S :.P.E.h.h.9.0.N.G.R.).H.^ D ^ ! ~ ^ ^ ~ m s A A c A Q c s a - s s - 8 f f 0 0 z B S ! ! ^ ! S S S S S S S S ) ) f.f.f.) ) D f n n C D D ^ p.j.j.j.p.D F p.j.7XrXxXrX7XQ.H.h.p.F ! F S S :.F t e F g.:.S z S A B S F F Z Z Z F :.:.^ 0.9.~ 9.h.h.h.h.E.H.f.) A f.~ ~ ) A A k s A ^ Q k k z s s - , s - s l 0 = f z A f.! k A -.",
"v.v.P.P.P.P.Q.Q.j.Q././.P.j.H.P.7X7X_.).Q.Q.Q.Q.7X_.P.p.F V S S W.#X5X~.H.b.j.a.b.b.b.h.j.Q.Q.a.!.|.|..X!._.1XrX7X1X1X8X8X8X&X|.wX.XuXNX9X_.5X@XR.9XeX9XcXaXR.D ^ ~ ~ ~ q.~ A f f.f.H.U./.H.-.A z v v l z %.p.%.Q.^.|.7X7XwXqXwXj.P.P.P.P.P.P.P.P.j.(.P._.H.Q.j.1X_._.^.Q.Q.P.b.Q.!.P.g.%.S %.p.Q.)._.).Q.j.j.j.Q.h.b.b.p.h.Q.j.C.!.!.rX(.1X!.7XkX7X_._.7X8X&X^.7X8XqXrXrXqXqX9XeX5X).).rXbX7XD A 0.~ ^ 0.A A A A f././.H.g.f.! S l z V e V p.%.a.!.^..XrXwX^..X(.",
"K.b.L.P.Q.!.(./.P.Q._._._.(.(.(.7X.X^.!.Q.P.I.I.wX2X XI.g.%.V x 7.h.R.h.f.j.b.g.c.b.j.f.b.Q.Q.j.C.oX}.XX!.1XwXNXkXrXrXiXiXyX*X|.yXiXVXnX7X&X0X9X~.bXbXbX0XnXQ.Z 9.q.M M M ~ D D h.H.Q._.1X(.j.%.V S %.V r t.n.t.|.|.%X&X&X&X^.^.b.P.P.P.Q.!.!.!.Q.P._.P.7XQ.>X(..X.X_.(.!.I.b.b. X X X!.v.>.#.S p.s.j.h.h.h.h.j.Q.p.j.Q.p.j.^.b.|.|.C.*XI..X.XkXVXkX1XXX0XiX0X&X&X|.0XgX0X0XaX&X@XsXbXaXbXbX&Xr.9.0.M D 9.M D 9.0.j.Q.)._._.Q.:.%.e V %.i %.x.d.z.S.^.&X8X-X^..X!.",
">.>.a.a.g.j.j.j.h.j.b.Q.(.^.(.!.g.a.a.a.a.k.c.x.k.c.n.I.v.>. .t B 7.s.s.p.a.b.k.@.%.%.%.a.V.V.a.n. XXXXX|.|.7XiXNXiXwX8X8X8X*X*XC.%XgXyX|.%X-XZ.Z.sXbXsXZ.+XB.7.9.~ M N M D C C s.p.s.j.C.x.a.t.V +.%.i i i.].i.B.S.S.A.A.S.S.V.a.a.a.a.g.j.j.b.b.a.!.a._.b.1X_.g.k.k.c.c.c.v.v.c.v.[.[.n.>.r 6 B C s.h.h.d.h.j.a.V p.h.Z p.Q.d.!.C.}.|..X!.XXiXMXiX8XXX*X8X8X*X%XS.=XfX%X=XdX+Xm.0XAXgX%XZ.B.m.7.q.n D 9.n D 9.D s.p.d.V.~.V.p.%.r o.@.i y.].B.i.i.S.A.A.A.|.C.a.",
";.>.>.a.g.j.b.b.p.:.:.g.!.(.!.b.x.k.a.a.>.>.k.k.k.n. XXX Xc.o.e n 7.s.s.p.f.c.k.%.%.%.%.a.!.Q.z.k.n.XX X|.b.!.|.iX7XQ.b.C.!.|.|.t.C.yX=X%XyX-Xy.Z.^.nXZ.y.p B.r.D M M M q.8.C n s.p.F r.a.z.z.t.t.u.x.t.+.].;X].y.i.i.B.S.A.A.C.&.>.>.a.g.c.b.b.a.%.j.F Q.a..X Xn.b.x.c.c.k.k.k.c.n.}.XX2X[.$.6 5 y 7.s.s.p.F %.a.V p.j.%.d.^.b.t.&.oX!.iXx.!.!.2X.X!.!.C.!..X*X|.u.&XgX^.-XsXZ.m.+XsX=Xm.8.y.M.C 8.N 9.0.n n D C 7.p.r.r.d.V.V.z.+.t.z.t.S.;X%Xi.i.B.A.B.A.|.C.k.",
"n.k.c.c.;.a.b.b.g.V o.>.I. XI.}.C.z.a.r.%.a.k.b.a.a.P.!.b.a.S z 9 M 9.9.p.f.b.b.:.k.n.@.x.x.n.V 3.*.*.k.n.!.!.I. X^.Q.j.b.^.^.j.z.z.&XV.&XC.r.s.V.^.^.V.m.p m.s.M N N N M M M n 7.9.p.r.%.z.}.;XoXn.t.O.t.z.z.z.i z.z.C.^.^.^.z.k.n.c.x.a.+.a.a.a.o.o.&.x.n.I. XI.I.n.c.p.%.p.h.j.j.b.!.n.k. .w 5 M 9.9.0.f.f.p.P.V x.k.+.x.n.z.V @.a.b.n.n.n.c.I.!.b.!.d.!.Q.^.V.d.-X^.&X^.d.s.V.M.@XM.@Xq m.s.q.N 2 2 m ~ ~ ~ d A p.z.t.+.i.;X;Xn.+.+.t.t.z.z.+.%.t.C.A.&XV.d.d.",
"I.k.c.c.>.a.b.b.b.S &.a.}.XX[. X!.C.d.r.r.p.a.d.a.j.P.Q.b.p.V 0 9 D 9.9.0.j.b.c.>.c.n.@.k.n.n.o.3.&.$.&.k.c.c.c. X!.b.j.b.!.!.Q.&X!.p.e u p.p.&X&X&XZ.d.V.y.Z.s.8.M N N M M M M D D F V Z a.|.yX&.o.o.o.+.&.+.V @.t.a.|..Xx.C.x.k.I.n.n.k.&.z.a.a.%.@.a.n.n.}.oX[.[.I.c.p.%.s.s.s.s.j.b.I.k.#.e 7 m q.9.0.f.f.>.I.#.x.k.o.k.x.k.a.>.%.&.>.k.n.I.n.}.c.b.j.!.V.^.7XQ.s.B y r.s.~.~.-X~.Z.m.M.Z.s.s.D 9 1 m ~ ~ ~ ~ ) p.r.+.| x.;Xn.&.i +.t.t.%.%.+.+.t.x.|.^.C.d.B.",
"I.k.b.b.a.j.b.j.b.F p.j.!..X!. X!.!.x.a.a.p.a.a.a.b.I.Q.b.:.x 8 d D 0.0.p.f.b.c.a.c.c.&.k.c.c.o.3.&.#.$.&.k.k.a.!.b.a.a.b.V.!.^.z..X&XrX0XdXV.^.9X-XZ.d.Z.Z.@XN.h.q.M N m M D D D ^ p.r.%.t.x.n.o.o.O.t.k.t.o.r %.t.t.!.|.z.x.z.b.|.n.!.x.a.z.z.d.r.%.d.!.!.}..X}.}.!.b.a.r.p.s.7.s.d.b.I.c.$.x 7 m 9.0.p.f.g.>.!.&.b.k.o.t.k.&.a.a.&.o.#.>.c.n.n.}.k.a.j.Q.j._.C.^.&XrX&X9XM.M.+X9X+XZ.r.-XZ.M.N.9.N N m ~ ~ R ~ 0.f.p.t.t.x.S.t.o.o.&.k.t.o.i +.+.z.k.|.S.C.a.B.",
"I.a.b.b.a.j.V.p.d.Z p.j.!.|.b.!.|.!.n.k.a.>.a.a.c.b.I.I.c.&.e 5 f D 0.0.p.f.j.c.k.c.k.&.>.c.k.o.v.3.$.$.>.k.k.k.!.a.%.a.j.j.Q..XQ.^.Q.Q.^.&X^.9X~.&X+Xm.M.+X+XN.W.0.A d d M ~ ~ D F p.d.z.k.u.u.u.k.n.n.n.k.&.+.o.z.k.x.x.x.C.t.x.!.b.C.b.d.V.j.d.r.%.d.Q.!.!.|.}.}.}.n.a.p.p.p.p.p.a.b.n.k.o.e 9 m 0.0.:.f.g.>.!.k.c.k.#.&.&.@.>.>.&.@.&.&.>.k.v.}.a.%.b.b.a.^.V.Q.z.V.Q.&X^.9X^.Z.sXM.M.+XV.^.R.0.D n m R R A Q ) p.%.a.n.S.i.l.u.u.n.n.k.+.o.+.+.k.z.C.x.x.a.t.",
"b.a.a.j.d.j.M.r.r.Z p.j.C.Q.d.b. X}.I.b.k.a.a.>.k.v.I.I.c.#.w ; n ^ f.p.:.f.c.g.c.c.>.;.;.k.>.#.c.3.&.$.>.k.k.a.b.a.>.a.g.a.b.^.C._.-X8XbX0X-X-Xs.Z.+XZ.Z.+XZ.s.E.f.A d d m ~ ^ A A F r.z.'.oXoXn.n.n.n.k.t.&.O.+.x.z.x.x.x.C.t.a.z.t.d.d.s.j.s.r.Z Z d.V.z.z.b.[.{. XI.c.a.a.a.a.g.b.b.v.3. .6 9 A 0.f.p.g.g.>.I.v.l.k.@.o.&.o.>.>.&.&.#.;.3.3.k.I.>.o.b.g.p.!.b..X&X&XvX0X0X0Xm.y.sXm.A.+Xm.M.R.h.D M m m T A ^ ) S V &.C.|.'.oX'.n.C.n.k.&.&.+.t.a.n.z.S.z.z.t.",
"x.r.r.d.d.j.d.Z 7.C p.j.b.b.a.x.}.}.I.n.v.c.k.k.>.c.v.I.k.#.b ; A ) f.f.p.f.g.g.v.c.;.;.#.>.&.#.&.$.$.&.>.k.>.;.>.a.a.a.a.p.g.P.j.Q.V.d.&XV.+X+Xr.d.V.Z.Z.=Xm.7.H.) m d d m ~ ^ A S F a.n.'.|.|.|.|.}.n.k.t.u.k.k.z.a.C.C.a.z.z.t.a.%.r.d.p.d.r.r.Z Z d.V.d.a.k.I.{. X}.I.c.g.g.g.g.c.b.v.;.r ; 8 Q 0.f.p.g.g.g.I.n.>.>.&.o.&.o.a.>.#.o.#.;.c.n.>.c.a.o.b.a.p.b.!..XC.a.&XV.^.-Xr.d.^.m.V.dXm.7.j.f.~ m f f m A A S S %.a.n.|.|.XX}.n.C.n.u.t.k.&.z.k.!.z.C.z.n.k.",
"k.%.%.a.a.j.d.C r.Z h.V.C.b.a.x.[.I.[.I.I.v.v.c.;.4.v.L.c.-.b 8 A 0.f.p.p.g.g.g.I.v.#.>.o.>.o.#.#.$.;.>.v.v.k.>.#.a.P.g.p.p.a.a.Z j.d.V.^.j.M.d.7.r.m.^.Z.-Xd.h.f.Q j s j A Q ~ ) ^ p.a.x.C.l.u.|.oXoX}.n.n.C.|.x.x.k.!.!.z.x.x.t.a.Z r.d.p.j.r.p.Z r.j.C.z.k.c.v.[.{. XI.b.L.L.>.>.k.v.v.3. .< 8 A 0.f.f.g.g.g.c.n.;.>.;.o.>.#.>.:.:.&.>.k.K.I.;.;.k.:.P.:.g.p.p.Q.p.p.Q.d.d.V.a.d.d.V.m.dXm.d.p.0.D f d d m Q A A :.g.b.x.n.'.}.C.C.}.'.x.x.n.t.x.C.C.x.x.x.C.x.",
"k.o.%.a.a.d.p.u r.%.b.Q.!.C.k.I.I.I.[.I.I.I.v.v.$.>.c.K.c.;.b w A 0.f.p.,.g.g.g.I.c.#.>.o.>.S #.#.-.>.L.(.Y.I.g.S g.P.g.,.p.,.%.Z Q.p.^.^.V.j.d.Z y.~.@Xm.~.s.@X^ Q h s j Q Q ~ f.D V V t.z.C.C.x.n.}.}.C.C.}..Xz.!.C.C.C.C.!.z.a.a.o.r.j.d.j.r.d.r.a.b.!.b.c.c.c.L.{. XI.I.I.I.:.;.>.v.v.4.X.w 8 A f.f.f.g.g.g.k.b.&.>.>.S >.&.S #.>.c.K.K.K.v.#.#.g.>.P.,.f.F V !.F a.C.z.d.V.z.r.d.^.V.+XM.+Xp.^ A f d d k Q f.^ ^ f.a.>.x..Xn.n.}.XXoX!.C.|.k.z.|.C.!.d.Q.!.x.",
">.>.>.>.>.a.p.a.%.a.b.!. X}.I.n.k.I.I.I.L.I.I.c.>.<.K.K.4.-.l ; A ^ f.f.^ :.c.(.Y.<.v v #.,.-.S S :.<.c.L.c.g.<.l S g.P.U.g.S l F p.Q.Q.^._.7X9Xs.+X@X7.C m.~.Q.f j h j L T k j ^ ^ ! %.%.t.t.t.n.n.n.n.n.C.n.C.b.b.b.C.Q.^.!.b.>.>.;.>.a.a.p.a.%.a.b.!. X!.I.I.c.L.L.I.I.L.K.c.>.>.<.c.K.4.x < s ~ f.H.f.f.g.I.c.g.-.S v V S #.:.,.,.>.<.c.c.K.v -.g.P.P.f.S B S %.f.Q._.&XwX8XV.~.^.V.r.r.M.&Xj.! 9 7 s A Q A A ! ! -.,.g.g.c.I.n.n.n.n.C.n.C.!.b.a.d.!..XQ.b.c.",
"3.>.>.a.a.a.a.a.%.>.c.b.I.I.v.c.o.>.v.v.v.v.>.v #.-.>.1.;.v l ; D 9.j.j.f.p.g.I.L.,.v z S -.! A S S ,.g.g.g.p.:.S S S ! S S S S F p.R.Q.~.)._.@Xj.).Q.7.8.M.~.h.k k j k T Q T k Q ! S F %.%.%.r.a.a.a.a.a.a.a.a.S S F p.j.Q.b.j.>.>.>.>.a.a.a.g.%.:.g.b.I.n.c.k.<.c.c.K.K.c.g.g.#.#.:.>.>.#.b 8 f ~ H.H.g.f.g.P.g.a.#.S z B S S S ! ,.g.g.g.<.>.S S -.:.:.! A A F :.f.P.(._..X&X^.Q.M.s.s.s.M.Q.! A 9 7 f m Q Q m A A ! -.,.>.a.a.a.a.a.a.a.a.a.:.S V %.j.Q.Q.j.b.",
"$.$.&.&.&.:.:.:.:.>.g.c.v.v.k.>.w S :.-.-.-.S s z c v v c l s 8 D 9.H.H.f.:.f.g.g.! z f A S A f c A ! :.:.-.! S ! A f s s f A D A ^ f.h.h.h.j.H.h.s.D y C 9.7.n A k k k Q Q T m m m m A A S Z Z S S S S S S S S 0 8 0 B F p.F F -.;.;.:.:.:.:.:.:.>.g.c.v.c.4.<.S ! -.-.-.-.! S z v v v z l 0 8 f D h.H.f.:.-.-.,.-.S z z z A A f A ! ,.,.-.-.S S S c f f f A A A D :.p.j.j.j.j.H.s.C C D 7.Z D d s 9 s d m m Q k k m A S S ! ! S S S S S S S S z 0 8 z F p.9.D ! ",
"b b b z z z z z f l z v v z z l 0 z z 0 0 z z 8 s s s s s s s s D 9.h.h.p.F S S ! c s 8 f k f s s f A A A A A f f f d d d d f f f A A A A A A D 9.n 9 9 n n y 9 m k f k Q T T m j k k m n z B B f f f f f f f f d 0 9 f n n f 9 z b b z z z c c f z z v b z l l 8 s f z z f s 8 8 f z f 8 - 8 f f D f.G.f.! S A S S B z f f f m d f A S S S c z S c d 9 7 d n M f B A A A D D D 0.A 9 9 n n y 9 7 d s f d d N m j d k k k c c A f f f f f f f f f d 9 9 f n f 9 s ",
"s s s 8 d d d d 9 9 9 s s 8 8 8 0 f f 9 9 f f s s s s s s k c A D 9.h.h.f.^ D A A f d s s k f d f f m m m m k f d s f f f f d d s k m k s d f m ^ M n n M n n n m f d k m T T T j j j k k f f f f f f f f f f f f d d f m n d 7 s s s s s s s s 7 7 s s s s 8 7 s s s s s d s 9 s s f s 9 9 s A D 9.h.G.h.0.! A A A f f f f n k k k k k k k c c c k f d d d N N m k k k f f f f ~ D M n m m n N f k m m m N d d N N N k k k k k f f f f f f f f f f d d f f f d f ",
"c k k m m m m m m m m A Q A ! A d A ~ A M D m d k k m m Q ! ~ ~ 0.h.N.N.j.h.f.0.A A A A A A T m ~ ~ ~ ~ m m m m m m m k k m m A A ! Q m j f m Q m m Q A m n M D M n n m R R R T T T T m m k k k m m m m m m m m d d d m ~ ~ T m k k c k m m m m m m m m Q Q Q A A A Q ~ ~ Q A A k m A A m A ~ ~ e.h.N.W.W.H.f.f.A A A A A A m m ~ ~ Q A A A A Q m m A m m m N m ~ Q Q m k k m m m m ~ M m m m R ~ Q Q ~ R m N N m m m m m k k k m m m m m m m m d d k m m m T ~ m ",
"Q ~ ~ ~ ~ R R R m N m m T ~ ~ ~ ~ 0.0.^ ^ 0.) Q ~ ~ ) 0.0.w.w.0.G.h.h.h.h.j.h.h.) 0.f.0.w.w.w.0.e.e.0.0.0.0.0.0.( ~ Q A A ~ ~ ) Q Q / Q k k Q ~ j m ~ Q R ~ ~ ~ ~ D A D ~ 0.( W W T T T T T T m Q Q Q Q ~ ~ ~ ~ m m m R ( q.~ T ~ ~ ~ ~ W W W W j m m T T Q _ _ q.q.0.f.f.0.0.) ~ ! ~ ) 0.D.w.0.G.e.h.G.H.H.J.G.) 0.0.0.q.q.q.q.e.w.w.D.f.0.) ) ~ ~ ~ ~ R R R R ( _ Q T T m T T N m R R R R R q.0.( Q ~ 0.0.0.R ~ ~ R R T T k k Q Q Q Q ~ ~ Q ~ m m T R R R ~ ( T ",
"_ _ ( ( ( ( ( ( R R W ( 0.w.D.D.D.J.G.q.0.G.J.D.0.w.D.D.J.J.J.D.G.h.0.0.G.G.G.G.G.J.J.E.<XJ.<X<X<XE.E.J.J.J.J.J.) q.) ) ) ) ) ) Q / Q P k k T ( Q ( w.0.w.D.J.D.0.) ~ q.w.e.e.w.( ( ( E E Q Q T _ _ _ _ _ ( _ ( ( ( ( ( ( ( T j ( ( ( ( ( ( ( ( W W W ( ] w.e.D.w.w.e.D.D.D.D.0.) ) ) D.J.<XJ.D.e.0.q.q.0.D.D.G.D.G.G.J.J.J.J.J.J.E.<X<X<XJ.G.D.w.w.( ( ( ( 0.w.( ( E E L L T T ( ( w.w.e.e.e.e.D.) T ~ w.J.e.w.0.0.( ( E T P L _ _ _ _ _ ( _ ( _ ( ( ( R T T T ( ",
"j j # j P K E g 3 4 4 g g g g g 3 3 g j j g 3 3 # j 3 j j 3 4 # 3 3 3 3 3 3 g a $ 4 g j j g g 3 3 k L j j k j # . . g k j $ . $ # # # # # # # # K K H G G 4 4 4 K g g K K 4 4 K 4 % % % % % % % g g 4 $ $ 4 g g $ $ g $ K $ g $ # j # j j g # 3 4 4 4 g g g g g g g g a g a g a $ a j h j g 3 # 3 3 3 3 3 : a a g g g g g g g g / 3 g / K j g @ $ g . 4 K # # $ $ $ $ $ $ $ 4 4 K K K G 4 4 4 4 K 4 K K 4 g K 4 $ $ $ $ $ $ $ $ g g g g g g g g E $ $ # 3 4 # g k ",
"/ / g g j j / P j j j j K K K K K K L E E L K j K E K E E K L K L L L L L L P P K L L P P P L K L P L j j K K K g P P K j K P L I I I I I I I I K K K G G G G G P / P H H P E P I I I I L L I K E P L L L P P P P L P K P K P P g { L j g E / P j j K K K K K K L L L K K K K K L L P / / P K K L L L L L L L L J L L L L L L L L K L E K g L / g / g 4 L L E L I I P I I I I I K K K G H G G G ` P I H H H P P P P P P P I I I P P P P P P P P P K P P L K K ] X ",
"/ ' K K j 4 P P j j j j K K K K L L T E T P L K L K g / / g K L H H K K K K K K L L P E / E P P P P K P P K j K g / K K j g / K L P P P P P P P H K K H H G H H H I I H H L I H I I I I L L L L L L K K K K L P L L E K E K L K g w.P K 3 K P P j j j j j j K K P P P P P P L L E K K / / K j P H H K K K K K K L L L P P P P P H K L E P K L ] $ E K g P P E L L K L I I I P I K K K H H H g g I I H H H H K L P P P P P I I I L L K K K K K K K g P E P L K / @ ",
"L / / / j @ g g 4 4 g g g g g g j j j j j g g g L g $ E E $ g L % % % % % % % % K K K K K K K K K g K / / K 4 g g P g / / # K g H H K H K H K H K K K H g g g g % % K U / K % % L H H H H H H H g g 4 % % 4 g g g g / P ] K g @ $ / L / j $ $ K 4 g g g g g g g K j j j j j j j T g g E E g 4 P % % % % % % % % H H K K K K K K g K g P { P 4 K # K K ] [ g 4 g g 4 g g g g g g K K K H g g g g & H H L ` L & % K K K K K H H H g g g g g g g g P 4 K L / P g j @ ",
"K / P L g . $ @ $ 4 4 4 g g g g g g 4 4 4 4 4 4 E K % E E $ g E g g g g g K K K g g g g g g K K g $ j E T g $ $ K / j ( / @ L j L L L L L L L L K K j j j g g g K g L ] ] L K K L L L L L L L L L L K K K K L L K K ` / ' K g @ % ] P / K 4 $ K $ 4 % % g g g g g g 4 4 4 4 4 4 / g g E E g g E g g H g g H H H > g g g g g g g K K g K ] K + $ g / P [ [ 4 $ g j K K K J K K K K K K j g g g g 4 P P P ] P g g L L K K K K K K K L K L L L K K ] L P E / P % 4 @ ",
"E / g 4 @ . $ $ g g g j j j j j K K g 4 4 4 g g K 4 # g g # 4 g K K K K K K K K L K K K K K L L L g 4 4 $ $ g j j / j g @ X K g K K J K J K J K h j h h g g g g g K K % % K L g K K K H g g g g E P P L L L P E L K L g K $ % $ $ [ K % . $ g 4 g g g j j j j j j g g g g g g g L % $ g g $ $ K H H K K K K K K K K K K K K K K L L K g % + # K 4 [ E K g $ % % j k K k J k K K h j j h g h g g K K g g g g g K K K K K K K K K L L L L P P P P E K E P g $ . 4 $ ",
"/ / $ $ $ @ g $ g g j j j j j j L K K g g g K K % % . $ $ . % $ > > > > g g g g P L J K K L L P P P g @ @ g K K j P j @ . . g $ j h h h h h h h h h h h g h g g % > $ . . $ g % > > % % % % % % P L K K K K L L L g K @ % + $ @ $ / $ + . $ @ . g g g g g j j j K K K K K g H H g $ @ $ # # $ 4 > > > > > g g g J J J L L L L L P K g g $ @ K / $ / L % $ . % > h h h h h h h k h h h h g h g g g $ $ @ . @ % % g g g g g g > > K J J K J J J J L g L g $ + . g . ",
"P P g j K j j @ $ $ $ $ : : : a K K g 4 % 4 g K g K % 4 % $ K g > > g g g g g g P L K g g K L P L P K $ $ J P j / K P P j $ $ h k k k k k k k k h h h h g g a g g $ $ g g $ % g J J K K K K K K P L L K K L L P P L P K L % > $ K / g L K g @ @ $ $ $ $ $ $ $ 4 j g g g g g g g K K g % % g g g g g g g g g g g K K K K K J J J / % % K g K P L > P L / P + % U J k k J J Y Y Y h h h h g g a g g $ g g $ % g $ H H K H g g g g L L L L L L L L ' K K g K J % L $ ",
"/ Y K g g > > > > g g g g g g g g g g g g g g g g g H H H H H H > J $ g J > J > g g H H J J J J P K h h J K j g g [ J J g h g h J s h h h c h h h h h h h s s g g g g g g g h J g g j J J J J J L L J J J J J J J J J H > > % $ > ' h h : g : : j g g : : g g j g g g g g g g g g g g g g g H H g > g g g g g g g g H H K K J J J J J J J J J J $ ' / L J > g J h s s s s s h h , , , , , , , : g g g g g g j j g g h J J J J J L L J J J J J J / J > J J g > % + ",
"/ Y K j g > > g g g g g g g g g g g g g g g g g g g H H H H H H > J % g H > J > g g H J J J J J P K j h J J j g g [ J J g h g h J s s h h k h h h h h h h s s g g g g g g g g h g g j j J J J J J J J H H H H H J J J g > > > > > ' h h : g : > h g g > > g g j g g g g g g g g g g g g g g H H g g g g g g H H g g H K K K J J J J J J J J J J $ ' / L J > g J h s s s s s h h s s s s a a a a g g g g g g g j g g h h J J J J J J J J H H g g U g > J J H > > + ",
"/ Y J j g : > > g g g g g g g g g g g g g g g g j g g g g g g g > J > g H > J g g H J J J J J J U K h h K K h g g [ J J g h g g k h a h h k h a h h h h h a a g g g g g g g g g g g g j g J J J g g g g g g > > > > > g g g g g g ] h J : g : g h g g > > g g j g g g g g g g g g g g g g g H H g g g g H g H H g H H K K K J J L J J J J J J J $ ' U L J > H g h h h h h h h h h h h h h h g g g g g g g g g g g g g h j J J J g g g g > > > > J > % J J J g J + ",
"/ Y J j g > > > g g g g g g g g g g g g g g g g g g g g g g g g g g g H H g J H H H J J J J J L U J h h K J h g g [ J J g g g g h h g a h k h a h h h h h a g g g g g g g g g g g g g g g j h h g g g g g g > > > > > > g J J K g ] J J > g : g h j g > > g j h g g g g g g g g g g g g g g H K g g g g H H H K H H K K K J J J L L J J J J J J % ' U J J > H g h h h h h h h h k k h h h h h h g g g g g g g g g g g g h h J J g H H g g g > > g % % J L J J P @ ",
"/ U J h g > > g g g g h g g h g H H H H H H H H H H H H H H H H H g J J J J J J J J J J J J J J U J h h J J h g > ' J J g g g g h g g g h h g : h h h h j g g g > > g g g g g g > > g g g h g h J J J J J J J J > > > > J J L L > [ J J > g > g h h g > > g h J g H H H H H H H H H H H H H H H g g H H K K K K K K K K J J L L L L L J J J J J > ` L J J g g > g g g g g g g g K K K h J h h h > > > > g g g g > > g g h g h h J J J J J J J J > $ > J J J J U @ ",
"/ U J h g g g g g g g g h h h h H H H H H H H H H H H H H H H H J > J J J J h J J J J J J J J L U J h h J J h g > ' J J > g > g h g > g j h g > h h h h j g g g > > > g g g g g > > g > > g g g J J J J J J J J > > > g J J L L g [ J J > g > g h h g > > g h J g H H H H H H H H H H H H H H H H H K K K K K K K K K K J J J L L L L J J J J J > / J J J J h > g g g g g g g g J J J J h h h h > > > > > > g g > > > g g g g h J J J J J J J J > $ > J J g J / $ ",
"/ U Y h g g g g g g g g h h h J H H H H H H H H H H H H H H H H J > L J J L g J J J J J J J L L U J h J J Y h g , ' h J > g > g J g > g j K g > K K j j g g g g , > > > g g g g > > > > g g > g J J J J g g g g > > g h J J J J g [ J J g g > > h h g g g g h J H H H H H H H H H H H H H H H H K K K K K K K J K K K J J L L L L L L L J J J J > / J H L J h > g g g g g g g g K j j j g g g g , > > > g g g g : > > > > g g h J J J J g h g g > > g J J > J U $ ",
"/ U J h g g g g g g g h h h h J H H H H H H H H H g g g g H H H J > P h J L g L J J J J J J L L U J J J L J J g > ' J J > g > g j g % > g K g % K K j g g g g g : : > > > g g g > : > g , g g > g g > > > > > > g g h h J J J J g [ J J g g g g J h h g g g h J H H H H H H H H g g g g g g H H K K K K K J J J K K K J L L L L L L L L J J J J > / J g L J h $ g g g g g g g g g g g g g g g g > > > > > g g g : : > > > g g g g > > > > > > > > > h L J > g U $ ",
"/ ' K g $ $ K : h h h j h g g g h h h h h h h h J J h h h h h g J j J j J j J j g j J j J J J J L L J L J L J J J ' J g J g J H g g g > > % % % g g g g g g H j g g g g g g g g : a : 3 a 3 a a a s s s g g g g h > h J g j L g g ] j K g g g g j j j j h h h h g g g g g g J J g g j j j g g g K g % g J K K g K j K j K J J J P P L J J L L P > ] L K J g J H g g g g g g > % % % g g g g g g j h h h h h h h : 3 : a : a : : g s s h g g g g h g g g g j J J o ",
"/ / K g $ $ K g h h h j g g g > h h h h h h h h h h h h h h h g g g j j j j g g j j j j j J K K L L L L L J J J J ' K g K g J H g > g > % % % % g g g g g g K K g g g g g g g g : : a 3 3 3 a a a s a a a a a a h : h J g j K g 4 ] j K g g g g j j g j h h h h h h g g h h h h h h h h h h h g J j g g j K j g j j j j j K J h P L L K K J L L > ] L H K g K H g g g g g g > > % g g g g g g g j h h h h h h h 3 3 3 3 3 3 a a a s s s g g g g h g g g g j h k X ",
"/ / K g $ $ K g h h j g g g > g h h h h g g g g h h h h h h h g g g g g g g g g j j j j j J J K L L L L J J K K K ] K > K g K g > > > % % % % % g g g g g g H H g g g g g g g g a a a a 3 a a a a s a s a a a a h : h J g j L g % ] K K g g g g g g g g g g g g g g g g h h h h h h h h h h h g J j g g j J j g j j j j K K K J P L J K K K J L > ] L g K > K g g g g g g g > > > g g g g g g g h h g h g g g g a 3 3 3 $ 3 a a a s s s a a g a h g g g g h K K X ",
"/ / K g $ $ K g j j g g g > > > h h h h g g g g h h h h h h g g g g g j g g g g j j j j j j J J K J J J K K K K K ] K % H g K g > > > % % % % % g g g g g g H H g g g g g g g g a a a a 3 3 a a a s s s a a a a h : g h > j K g % ] K K g g g g g g g g g g g g g g g g h h h h h h h h h h h g h j j j j j j j j j j j j K K K L L K K K K J L % ] L g K > H g g g g g g g > > > g g g g g g g h g g g g g g g a 3 3 3 : : : : a s s s a a a a h g g g g h K K o ",
"/ / K g $ 3 K g g g g g g > > > g g g g g g g g h h h h h g g g J J K K J K K K g g g j j j j J J K K K K K K g j / g % g g K g g g g % > > % % g g g g H H H H g g g g g g g g 3 3 3 3 a 3 3 a a h s s a a g g j : g h > g K g 4 ' j K g g g g g g g g > > > > g > g g h h h h h h h h h h h j g j j h j j j j j j j j j j K K L J K g g g K J % / K g j > j g g g g g > > % % g g g g g g g g g g g g g g g g a a $ $ $ $ a : a s s s a a g g g g g > > g K J X ",
"/ / K g $ $ K g g g g g > > : : g g g g g g g g h h h h h g g g J K K K K K K K g g g j j j j j K K K K g g g g j / g $ g g j g g g g % > > % % g g g g H H H K g g g g g g g g 3 3 3 3 a 3 3 a g h s s g a g g g : g h % g J g 4 ( j K g g g g g g g g > > > : g g > g g h h h h h h h h h h j g j K K j g j K g g j j j j j j K K g g g g j K % / K g j > g g g g g g > > % % g g g g g g H g g g g g g g g g a a $ $ 3 $ a a a s s s a a g g g g g > > g K J X ",
"/ / K g $ $ K g g g g g > : : : g g g g g g g g h h h h h g g g J J K K K K K K g g g g j j j j K K K j g g g g g / g $ g > g > g g g > > > % % g g g g H H K K g g g g g g g g > : : 3 a a a a a s s s g g g g g $ g J % g J > 3 ( j j g g g g > g g g : : : : g > > > g g g h h h h h h h h j g J L K j g j K g g g j j j j j J K g > > g g K % / K g g > g g g g g g > > % % g g g g H H H K g g g g g g g g g g g > 3 a g a a s s s g g g g g g > > > g K J X ",
"/ / K g $ 3 K a g g g > > : : : > > > g g g > > h h h h h g g g g g j j j j j j g g g g j j j j K j j j g g g g g / g $ g > g > g g g > > > % % g g g g H H K K g g g g g g g g > : : a a a : : a s s s g g g g g $ g J % g J > 4 ( j j 4 g g g > g g > : : : : > > > > g g g g h h h h h h h g g J P K g g j P g g g g j j j j K j g g > g g g % / J g g % g g g g g g > > % % g g g H H H K K g g g g g g g g g g g > 3 3 g g g s s s g g g g g g > > > g K K X ",
"/ / g g $ # g $ : : > > > > : : h h h h h h g g h h h h h h h j P P J K K K j j g g g g j j j j K K @ $ $ @ K K j ] g $ . @ $ g g g g g H K H K K K J L L J K g K J L L J g g > g g g a a a a a g h h h g g h h > j % > > $ g $ % [ g K 4 @ $ @ > > > > : : : > h g g g h h h h h h h h h h h j J K K K K K K K $ g > $ j j g K ' g @ g g $ j ] g ] K . . . j K > g g g g g g g g K J L L J K H g K J J J K g g > > > g g g > > : : , > h h J J $ g > g g $ + J . ",
"P / K P K 4 j $ : : > > > > : : h h h h h h g g h h h h h h h j h h j j g g g g g g g g g j j j g g $ P E a g h $ ] K P j j $ @ g g g g H K H K K K L L L J K g g K K L L K g g g g g g g g g a g h h h g h h h g g > / / > > % $ { K / L g g @ > > > > : : : > h g g g h h h h h h h h h h h j h j j j j g g g $ g > $ j j g K K $ g P / g g P g / K / / . @ K g g g g g g g H H K J L L J K g g g K J K K j g g g g g g g g g : , , > h J J J > g g L / K $ g @ ",
"P / K K j $ g $ : > > > > > : : g g g g g g g g h h h h g g g g g g g $ $ $ $ @ $ 3 g g g h j j a $ $ / / a a g @ / L / K j $ X g g g g g H K K K K J L L J K g > g K J J K K K g g g g g g g g g h h h g g h J H > > / ` % % g $ { K / K g g @ > > > > : : > > g g g g g g g g h h h h g g g g : g $ $ $ $ $ $ $ g $ $ j j $ j h $ g Q Q h 3 h a K k ) / . . j g g g g g g H H g K K L L J K H % > g J K K K K g g g g g g g g : , > h h h J J g g > J ] I % % > ",
"/ / $ $ # . g $ > > > > > : : : g g g g g g g g g g h g g g g g > g $ $ $ @ @ @ $ $ $ g g g j h h g @ j j $ h h a / g g X $ @ $ g g g g H K K K K K J L L J K g % % H H J L J K g g g g g g g g g h h h g g h h J > @ g H + % K 4 [ 4 g @ # $ $ : : > > > : > > g g g g g g g g g g g g g g g g : $ $ $ $ $ $ $ @ g $ $ g g $ j j $ @ a a $ $ k @ / K a $ . $ a > g g g g H H H g K K L L J K H $ % g K K L K J g g g g g g g g > , > h h h J J J g @ $ K > & K > ",
"/ / $ @ . . g g > > > > > > > > g g g g g g g g g g g g g > > g g g g g $ $ $ $ # $ $ 3 g g g g a j X . . @ k a k ] $ X * X $ j g g g H K K K K K K J L L J K g % % H H J L J K g g g g g g g g g h h h g g h h H J % > % $ H g g ] $ 4 # . $ $ : : > > > > > > > > > > g g g g g g g g > > > > g g g a 3 $ $ $ @ g $ @ g g $ j h @ . . . . $ j @ [ L . * @ h 3 g g g g H H K K g K J L L J K g $ % g K J J J J g g g g g g g g > h h h g g h h > g > % > @ & P $ ",
"/ / j g 3 @ g $ > > > > > > > > > > g g g g g g > > > > > > > : j j h g g > $ $ @ $ $ $ 3 g g g . h @ . . $ h . k { j g @ $ g K g g g H K K K J K K J L L J K g % > H H J H K H j j g g j j j j g h h h g g h h g L H J H H J > % { j K g $ a $ : : > > > > > > > > > > g g g g > > > > > > > : g j g g g g g g . $ @ @ g $ @ g $ X . . . . X $ $ ] Q a $ $ h g g g g g H H K K g K J L L J K g % > g K J K K H H H K K H H H g g h h h g g g g > J J J L % % P @ ",
"/ / g g $ @ g $ > > : > : , > > > > > > > > > > > > > > : : : : g j g g g $ $ $ @ @ @ $ $ 3 g g * a $ @ $ $ g . j [ j h $ a a j g g H K K K J J H K J L L J j g H H H H H K g > K K K K j j j h g h h h g g J J J J > J J % H H 4 { g K 4 $ g $ > > > > > > > > > > > > > > > > > > > > : : : : g g g g g g 3 $ . $ @ @ a $ @ g @ @ @ @ @ $ $ $ $ / Q k h $ a $ g g g g K K K K g K J L L J K g > g K K K H g > K K K K K K K J h h h h g g > > H J > J I H % I @ ",
"/ T @ . * * > g > > > : > > > > > > > > > g > g > > : : : : : : g g g a $ $ $ $ @ @ @ $ $ $ $ g X a @ a a $ g $ h ) a $ . @ $ g g g g K J K J J g K J L J J h g H H H H H H > % K K K K K K K J g g g g g g J H U > + > % . > P g ] $ @ . . % $ > > > > > > > > > g > > > g > g > > : : : : : : g g g g $ $ $ $ . $ @ . g $ @ g a a a $ $ a g a . / L $ @ X $ @ g g g g j K J K g K J L L J J g g g K K K g > % K K K K K K K J J h h g g g > > P g + + > % % J @ ",
"L P % % $ + g % g g g g H g H g g J J K g g g j : $ : $ : $ : $ j g g $ $ $ $ $ g g g g g g j j @ @ $ $ g g g g g / j $ g $ j j g g g g g g g g h g h g h g h g > g g g H H H H K K K K K K K K g g g H H g g g g $ g K % g J g % ' $ g $ @ > % g g g g g g g g J J L J J j > $ : $ : $ : $ : $ g g g a $ $ # # @ $ g g $ $ g j $ $ $ $ $ 3 3 3 $ P K $ g g 3 g g g g g g g g g h g h g g g h g > % > > > H H g K K K K H K K K H g g g g g > > g % % g > $ g P $ ",
"L P % % $ @ g > g g g g H H H j g j K j g $ g j 3 3 3 $ $ $ $ $ j g g $ $ $ $ $ $ $ $ g g g g g @ $ $ $ g g g g g / j $ g $ j j g g g g a a a a h h h h h h h g > g g g H H H H K K K K K K K K g g g g g g g g g $ g K % g J g $ ' % g $ $ % % g g g g g g g g J K K K h g $ $ 3 3 3 $ $ $ $ $ g g g g $ $ # # @ $ g g $ $ g j $ $ $ % $ 3 3 3 $ P K $ g g 3 g g g g g a a a a h h h h h h h g > > > > H H H H K K K K H H K K H g g g g g g > g % % g > $ g P $ ",
"P P > > % $ g g g g g g H H K j > j j j g $ > g g 3 3 3 $ % % % j g g $ $ $ $ $ $ $ $ $ $ $ a g $ $ $ 3 g g g g g / j $ g $ j j g g g g g a a a g g g g g g g g > g g H H H H H H H H H H H H H g g g g g g g g g $ g K % g J g % [ % g $ $ g % g g g g g g g g j j h h j g $ @ g 3 3 3 $ % % % g g g g $ $ # # @ $ g g $ $ g j $ $ $ $ a a 3 g $ P K $ g g 3 g g g g g g a g a g g g g g g g g > > g H H H H H H H H H K K K H H g g g g g g > g % % g > $ g P $ ",
"P U g g % $ K g g g g g H H K j > g j g $ $ $ g g g g 3 g $ % % j g g $ $ $ $ 3 @ @ @ $ $ $ $ $ 3 3 3 g g g g g g / j $ g $ j j g g g g g g a a g g g g g g g g > g H H H H H H H H H H H H H H g g g g g g g g g $ g K % g J > % [ % H $ $ g > g g g g H g g g g g j j j g $ $ g g g 3 g $ % % g g g g 3 $ $ # @ $ g g $ $ g j $ $ $ g g g g g $ P K $ g g 3 h g g g g g g g a g g g g g g g g > g H H H H H H H H H H K K K H H g g g g g g > g % % g > $ g P $ ",
"U U g g > $ K g g g g g g g j j g j j j g $ > g g g g g > > > % j g g $ $ $ $ $ @ @ @ $ # $ $ $ g g g g > > 3 g g / j % g $ j j h h g g h g g g a a g g g g a g g g g H H H H H H H H H H H H H g g g g g g > g g $ g g % g K g > [ > g % $ g g g g g g g g g g g g j j j g g $ g g g g > > > $ g g g g a $ $ $ @ $ g g $ $ g j $ g g g g g g g $ P L a g g g g h h g g g g g g a a a a a a a g g g g g g g g g H H H K K K H H H g g g g g g > g % % g > $ g P # ",
"/ / g g g $ K j g g g g g g j g g j K j g g g j g g g g g > > > j g > $ $ $ $ $ $ $ $ $ $ $ 3 3 j g g g > $ $ $ g / j % g $ j j h h h h h h g g a a a a g g a g g g H H K K H H g g H H g H g g g g g g g g > > > $ % g % > K > g [ g K % % K g g g g g g j j g g g j j j j g g g g g g g > > > g g g g a $ $ $ @ $ g g $ $ g j g g g g g g g g $ P K : g g g j h h h h g g g g g a g g a a a g g g g g g g g g g g H H H H g g H g g g g g g > g % % g > $ g P # ",
"/ / g g g % J K g g g g g g g g j K P K j g j K g g g g g g > > j g > $ $ $ $ $ $ 3 $ a g g g g j j g g g $ $ $ g / K % g $ j j h h h h h h h h > > > > > > > g g H H H H K K K g g g g H H H H g g g g g g > % > $ > g % g K > g { g K > % K j g g g g g g K K g j j K K K j j g g g g g g > > g g g g $ $ $ $ @ $ g g $ $ g j g g g g g g g g $ P K $ g g 4 g h h h h g g g h > > > > > > > g g g g g g g g H g g g H H g g g g g g g g g g g g % % g > $ g P # ",
"/ / K g g % J K g g g g g g g j K P P P K j K K g g g g g g > > j g > $ $ $ $ $ g g g g g g g g j j j g g $ $ $ g / j $ g $ j j h h h h h h h h > > > > > > > g g H H K H H K K g g g g H H H H g g g g g g > > > $ % g % > K > g { g J g % K g g g g g g g K K j j K L L L K K g g g g g g > > g g g g $ $ $ $ @ $ g g $ $ g j a g g g g g g g $ P K $ g g g g h h h h h g g g > > > > > > > g g g g g g g K K g g g H H g g g g g g g g g g g g % % g > $ g P # ",
"P / g P h k K K j j g g g g g g j J P K j j j K j j j j j j j g g g g g g g g g $ $ $ $ $ g g a g g g g g g 3 g g / j g j g g $ g g g g g g g g > > > > > > > > g g g g g g g K g g g g g g K K g g g g g g > % g g g g g g g g > / g K j P K K j j j j g g g g j j K L P K j g j j j j j j j g $ 3 g g g g g g $ $ $ $ $ a 3 3 g g g g g g 3 3 $ P P h j h $ g > > > > > > > > g g > > > > > > > g g g g g K K K g g > > g K K g g g g > > % % g g g g H K H K & ",
"P / g P h k K K j j j g g g g g j K J K j g j K j j j j j j g g g g g g g g g g $ $ $ $ g g g g g g g g g g g g g / j g j g g $ g g g g g g g g > > > > > > > > g g g g g g g K g g g g g g K j g g g g g g > > g g g g g g g g g / g j j P K j j j j j j g g g g j J K K j g g j j j j j j g g g g g g g g g g $ $ $ $ g g 3 3 g g g g g g g 3 $ P P h j h $ g > > > > > > > > g g > > > > > > g g g g g g K K K g g > > g K K g g g g > > % % g g g g H K H K & ",
"L / g L h j K K j h h h g g g g g j J j g > g j j j j j j j j j g g g g g g g g $ $ $ 4 g g g g g g g g g g g g g / j a j g g $ g g g g g g g g > > > > > > > > g g g g g j j K g g g g g g j j g g g g g g > > g g g g g g g g g / g k j L k j h j j j j g h g g g j j j g g g j j j j j j j j g g g g g g g g $ $ $ g 4 g g g g g g g g g g g $ P P h j h $ g > > g g > g > > g g > > > > > > g > g g g j K K K g g > > g K J g g g g g g % % g g g g H H K K & ",
"L / g L h j K K j j j j j j j g g g j j g $ g j j j j j j j j j g g g g g g g g 3 3 4 g g g g g g g g g g g g g g / j a j g g $ g g g g g g g g > > > > > > > > g g g g g j j K g g g g g g j j g g g g g g > > g g g g g g g g g / h k j L k k K h h j j j j h g g g g g g g $ g j j j j j j j g g g g g g g g g g g g g g g g g g g g g g g g $ P P g j h $ g > > g g g g > > g g > > > > > > g g g g g j K K K g g > g g K J g g g g g g % % g g g g H K K K & ",
"L / h L h k K K j j j j j j j j : g j g $ $ g g g g j j j j j j g g g g g g g g g g g g g g g g g g g g g g g g g / j g j g j $ g g g g g g g g > > > > > > > > g g g g j j j j g g g g j j j j g g g g > > % % g g g g g g K j g / h k k L K k K K k k h j j j g g g g $ $ a g g g j j j j j j g g g g g j j j g g g g g g g g j g g g g g g g $ P P g j g $ g g g g g g g g g > > > > > > > : g g g g g j j j j g g g g g j J g g g g g g > > g g g H K K K K $ ",
"L / h L h k L L h h h j j j j j g j j j g $ g j g g j j j j g g j j j j j j j j g g g g g g j j g g g g g g g g g / j > j g j $ g g g g g g g g > > > > > > > > g g g g j j j j g g g g j j j j g g g g > > % % g g g g H H K K g / h k j P K k K K K k k h j j j g g $ $ g g g g g j j j j g g g g g j j j j j g g g g g g g g j g g g g g g g $ P P g j g $ g g g g g g g g g > > > > > > > : > g g g g j j j j g g > g g j J g g g g g g > > g g g H K K K J $ ",
"L / h P h k L L k k k h j j j j g j K j g g g j g g g j j j j g j j j j j j j j g g g g g g j j j h g g g g g g g / j > j g j $ g g g g g g g g > > > > > > > > g g g g g j g j g g g g g g j j g g g g > > % % H H H g H H K K g ) h k j P K k K K K k k k j j K j g a g g j j g j j j j j j g j j j j j j j j g g g g h g g g j j g g g g g g $ P P j j g : g J J J J J J J J g g > > > > > > > g g g g j j j j j g > g g j K g g g g > > > > g g H K K K J J $ ",
"L / h T h k L L k k k k j j j j j K K K g g j K g g H g j g g H K j K j K j j j g g g g g g j j j j g g g g g g g / g > K g g % g g g g g g g g > > > > > > > > g g > g g j g j g g g g g g h j g g g g > > % % H H H K H H K K g ) h K k P K k J K J K k k k j K J g g g g j K g g g g H H H H j j j j H j K j g g g g g h j j j j g g g g g g $ P P j K g > > H H J H J H J H g g > > > > > > > g g g g j h j h g g > > g j K g g g g g > % % g g H K K K J J @ ",
"/ / / / / P j g / / P P K j g g K K j g > g g K K K K H g g g g K g g > g g J L L J K g g j J L g g g / / g g % $ / g P J > $ > g g g g H H H H g g > > > % > > > > g g g g g h P h g g h L P J % H J K g > g H K > H [ / g K % @ / P / / / K j P / / P P h g g K K j j g g g g K K H K H g g g K j g g g g K J L J K g g j K J g g J / / L g g $ K K P P + $ J g g g g g H H H g g > > > % > > g g g g g g h h J J h h h K J P $ K P L % $ g L K % K ] / % $ J $ ",
"/ P j $ $ g j K / / P P K j g g K K j g > g g K K K K H H H H H K g g > g H J L J K g g g g K J $ g % g > $ > @ K [ g % + > K L g g g g H H H H g g g g g g g > g g g g h h h h P h g g J P P J H K J K g g K L H $ $ J > + g $ % / > > @ g j K P P P P L K g g K K j j g g g g K K H H H H H H K H g g g H K J L K H g g g H K g % > J L g % g $ / L g > $ g J g g H H g g H H H H g g g > > > g g h h h h h h J J h h h h J L > J P L g % g P J % % J g + $ L $ ",
"/ K $ . X $ J P / / P K K j j g K J j g > g g K K K K H H H H H K g g > g H J L K g g > > g g K $ K $ + + $ g @ K { K + * g L L g g g g H H K H K K K H g g g g J h h h J J J J P h g g h J J J J L L K g g L U L % + % + . H g % / $ @ . $ g L P P P P L J j g K K j j g g g g K K H H H H H H K H g g g H K J K K g > > > g H g % $ % % $ % g @ [ P @ + % L H H H H g g g g g K K K H H H g g J h h h J J J J J J h h h h J L g L U P K g K P P g % % $ . % / $ ",
"K K k j k K P P P P L K J j j h K J j g > g g K K K K H H H H H K g g > g K J L H g > % % > g H g L > > > > L > % [ K g $ g g g g g g g H H K K L J J K K K K g J J J J J J P P J h > g h J J J U P L K g g P ] P J % g $ $ P J $ / j K j K j K K L P P L J j g K K j j g g g g K K H H H H H H K H g g g H K J K g > % % > g g g $ $ % % $ % H + [ P $ @ > L g H H g g g g g g L J J K K K K j J J J J J J P J J J h h h h J J J L U P J K L P ` L g g % $ K ' $ ",
"K K P / / / P P L L K K K k j j K K j g > g g K K K K H H H H H K g g g g K J L H g > % % g g H K L g P P g K K $ / K P K g % > g g g g g g H H L J J K K K H g J J J J J P P P J h > > h J J K U P L K g H P ] L L J P K K / j $ / P / P P J j k K K L K K j j K j j j g g g g K K H H K H H H K H g g g H K J K g > % % > g H g % > J J g % g . / P g g % g > H H g g g H g g L J J K K K H g J J J J J P L P J h h h h h J J J L P P L L L P P L J J K > K / # ",
"K J K K K K K K K K K K K K h h K J j g > g g K K K K H H H H H K g g g g K J L K H g > g g K K H g % P L % g g g / > L g % % J g g g g g g H H K K K H H H g g J h J J J J J J J h > > h J J J P P L K g g L / g J J P K K P $ $ / j K j K j J j k K L K K j j j j j j g g g g K K H H K H H H K H g g g g K J J K g > g g g K K g K L L H g K + P L L L $ % g g H g g H H g H K K K K g g g g J h J J J J J J J h h g h h J J L L L L L L L L g H J J g > g K + ",
"/ P j g g g j K K K k k K K K K K K j g > g g K K K K H H H H H K g g g g H J L L J K g H K J L H K % g > $ H g g ' g g $ % g L g g g g g g H K g g g g g g g > h h h h h J J J J h > > h J J J J L L L K g J P > K K L g H P @ $ / g g $ j j K j j K K K K K j j j j j g g g g K K H H K H H H K H g g g H K L L J K g g K K L L K g K K g H L $ P J K K $ > K g g g g H H H H g g g g g > > > h h h h h J J J J h g g g h J J J J K K J J J K g K L K g g g K + ",
"/ / J j j j j h K k k K K K K K K K j g > g g K K K K H H H H H K g g > g H K L L L J K K J L L L P > $ @ % P K % [ K > @ H K g g g g g g g H H g g g > > % % % g g h h h h h h J h > > h J J J g K L L K g K J K L L J g K / % $ / j j g j k K j j k J K K K h j j j j g g g g K K H H H H H H K H g g g H K L P L J K K K L L / K % % % % K U % / J % % $ g L g g g g H H H H g g g g > % % % g g h h h h h h J h g g g h J J J K H K K J K K L P P L K K L P + ",
"/ / h j g : K J j j h K K P P P K K j g > > g g K g > g K J H g g g H K J L L L L J K H K J L L J J K K g g % % > ` g g g H % % % % > g g g g g K K H H g g g g J h h h h h h h > > > > , , , > g g H g % % g J > g H K J K g g g ] j j > j j K j j j K K P P Y J K j g g g > % > > > g g g H H g g K K L L I P K L L L K H J L L J K K H g > % $ L L g H g % > % % > > g g g g H H g g g g g g J h h h h h h h g g > > > > > g > g K g % % > g g g K K K K J J + ",
"/ / h j g : K J h k K K K K J J K K j g > > > g J g > g J I H H g g H K J L L L K K H g g K J J J K K K g g % % > ` g g > H % % % > > > g g g g K K H H g g g g J h h h h h h h > > > > , , , : g K H g % % g J > g H K J K g g g ] j j > j j K j h K K K J P P J K j j g > > > L J J J I I I I > > g g K K K J g K L K g g H J L J K K H g g g $ L L g K g % g % % > > g g g g H H g g g g g g J h h h h h h h h g g g > > > : > g K H % % > H g g K K K K J J # ",
"/ / j j g 4 K J K K K K K K j h K K j g > > g g J K g K I P L K g H H K K J L L K H g > g g K K J J K K g g % % > ] g g g H % % > > g g g g g g K H H H g g g g h h h h h h h h > > > > > > > g g K H g % % g J > g H K J K g g g ] j j > j j K K K K K K K K K J J j j g g > > K K K K H H H J J J J L L L P P > g K K > > g K J J J K H g g > $ L L g K g % g % % > > g g g g H H g g g g g g h h h h h h h h h h g g > : : : > g K H > % g K g g K K K K J J $ ",
"/ / j j g 4 K J P P K K K j j j L K j g g > g g L K g K I P L K H H K K K K K K J K H g g K J L L J K K g g % % > ] g g g K % % > > g g g g g g H H H H g g g g g g g h h h h h > > > > > > > g g H K g % % g J > g H K J K g g g ] j j > j j K P K K K K h j j J J j j g g > > g g g H K K H H > > > g > g g g g K L J g g H J L J J K H g g > $ I I g H g % g % % > > g g g g H K g g g g g g h h h h g g g g h h h g > : : : > g K g > % g K H H K K K K J J % ",
"/ / j j g g K K P P K K j j j j L K j g g g g g L K g H L P L K K K K K H H H H L L L K J L P P L J J K g g > % > ] g g g K > % > > g g g g g g H H g g g g g g g g g g g g g g g g > > > > g g g K K g % % H L g g H K J K g g > ' j j > j j K K K K K K j j j K K j j g g g g L L L L I I P P L L L L L L L L K L P P J K L P L L J K K H g g $ P L g H g % g > > g g g g g g K K H H g g g g g g g g g g g g h h h g g > > : > g K H g % g K g g K K K K J J % ",
"/ / j j g g K K K K J J j j j j P K j g g g g g K g > g H L K g J K K K K g g g P P L L L L P / L L J K g g > % > ] g g g K > % % % g g g g g g H H g g g g g g g g > > > > g g g g g g > > g g g K K g % % K L g g H K J K g g > ' j j > j j K J J J J K K K K K K J j j g g g g K H H H H H H g g g g > % % % L P U P L J L U L L L K K H g g $ P L g H g % g > > g g g g g g K K H H g g g g > > > g > g g > g g g g g g g g > g K H > > g K g g K K K K J J & ",
"/ / h j g a K K j j j j h K K K P K j g g g g j g > % % H K g % J J K K g g g > P L J J J L P P L L L K H g g g > ] > g > H > % % % > > g g g g K K g g g g g g g g > > > g g g g g g g > > g g H K K g > > K L g g K K J K H g > ' j j g j j K g j j j J K K K K K K j j g g g $ % % % % % % % L L L J K K g g J P P P L K L P L L L J K K g g $ P L g H H % g > > g g g g g g K H H H g g g g > > g g g g > g : : > > h h J K > g K K > > g K g g H H K K J J # ",
"/ / h j g a K K g g g K J K L L P K j g g g g j > % $ % g g g $ J J K K g g > > L K K g K K L L L L L K H g g g % ] > g > g % % % % > > g g g g H H g g g g g g g g > > > g > g g g g g g g g g K K K g > > K L g g K K J K H g > ' j j > g K L g g g K J L L L L K K K g g g g g g g g H g H g J J K K g g > % K J L L K g K L L L J J K j g g $ L L g K g % g % > > g > g > g H g H g g g g g > > > g > g > > $ $ > g h K L P > g K K g > g K g g H H K K J J + ",
"/ / $ g @ % J L L L L L L L L L J j j j g g g g g g g g g g g g g j g j K j K j L K L K L K J K L K g U P $ g g $ / g P j $ + $ g g g g g g g g g g g g > > g > g g g g g g g g g g g g > > > % H g > % % % > g g g $ K K $ g g g ' $ K g $ g L P P P P P P P P J K K K H g g g H g g g H H H H j j j j K j K j L K J K J J J K L j J / P j % g @ P K j j . $ g g g > g g g g g g g > g > g > g g g g g H g g g g g g g > > > % % K % % H g $ g g J H H K $ @ J # ",
"/ / > j $ g J L L L L L I I I L J j j j j g g g g g j g g g g g j j j j j j j j j j j j j j j j g K g g g $ j $ j { K K g j j j a a a a g g g h g g g g > > g g g g g g g g H H g g g g g % % % g g > % % % > g g L % g g % L H % [ g K > > J H P P P P P P P P J K J K H g g g g H g g H H H g j j j j j j j K j j j j j j g g L g $ j j g g j $ ' U j j g j K g g g g g g g h g g g g g g g g g g g g H H H H g g g g g > > % % H % % H g $ g K J g g K % % P # ",
"/ / h P g g J J L L L L L L I L J K h j j g g g g g g g g g g g g g g j j j j j g g g g g g g g @ K $ $ $ g K $ g { K $ . g j g a a a g g h h h h h g g g > > > g g g g g H H H g g g g g > % % g g > % % % g g g P g % > g P g $ D.L L g J P > L L I I I I I I J J J K H g g g g g g g g g g g g g g j j j j j g g g g g g g g L $ . @ g g g j . / P $ $ $ j g g g g g g g g g g g g g g g g g g g g g H K K K g g g g g > > % % K % % g > $ g K J g g J g g ] $ ",
"/ / j / K J J K L L L L L L I L K K j j j j g g g g g g g g g g g g g g g j j j g g j j g g g g . g % j j g K $ $ ] j $ . $ $ $ a a g g h h h h h h g g g g > > g H g g H H H K g g g g g > % % g g > % % % > g g L K K J K L g $ { L U L J I g H H H H H H I H J J J K H g g g g g g g g g g g g g g g g j g g g g g g g g g g K @ . $ j j j j * / L g g @ 3 @ > g g g g g g g g g g g g g g g g g g g H K H K g g g g g > > % % K % % H > $ g % H K L P K g ` & ",
"P / j / K K J K L L L L L I I L J K J j j j g g g g g g g g g g g g g g g g g g j j J j j j j j . $ g / / j j $ g ' K / J j $ g g g g h h h h h h h g g g g g g H H H K H K K K g g g g g > > % g g > % % % g g > H g / / H K > % [ K / P g K H H H H H H H H H J J J K K H g g g g g g g g g g g g g g g j j j j j j j j j j j j $ $ K P K j j . / / / / g % g g g g h h h h h g g g g h h h g g g g H K K K K g g g g g > % % % K > % g > $ g @ g J U ] J g P & ",
"/ / g K g g K K L L L L L L L L L K J j j j j g g g g g g g g g g g g g g g g g J K K K j j j j $ g g / / g g $ $ / j / K > @ > g g g h h h h h h h h h g g g g H K H H K K K K g g g g g > > % g g > % % % g g % > % U / % g % > ] g / L % g K L J L L I I I L L J J K K K g g g g g g g g g g > g g g g g g g K J K K j j j j g g j P P j g j . K L / / $ @ : g g h h h h h h g g g g h h h g g H H H K K K K g g g g g > % % % K > % g > $ g @ g K P / H % J & ",
"/ / $ j $ % K J L L L L I I I L L K K J j j g j g g g g g g g g g g g g g g g g j j j j g g g g g j g j j $ g $ $ / g j $ $ @ $ g g g g h h h h J J h h g H H H H H H K K K K K g g g g g > > % g g > % % % g g > H $ g g $ K g % ] g j > % g g P P P P P P P P L L L J K K g g g g > > > > g g > g g g g g g g j j j j g g g g g g K P g @ $ K . P j g % . @ $ g h h h h h h h h h h h h h h h H H H K K K K K g g g g g % % % % H > % g > $ g g K g g K % $ L # ",
"/ / @ g + $ j J L L L L I I I L L K K K j j g g g g g g g g g g 3 g g g g g g g g g g g $ $ $ $ j P $ @ . @ j @ j D.K g @ j j j g g g h h h h h J J h h J g H H H H H K K K K K g g g g g > > % g g > % % % g g g L $ . . $ L g @ [ g $ @ % J > P P P P P P P P L L L J K K g g g g > > > g g g % > g g g g g g g g g g g > > > g j K j . * @ P $ ] P $ @ $ K K g g h h h h h h h h h h h h h h H H H K K K K K g g g g g % % % % H > % g g $ g L L % @ $ + $ P + ",
"/ / K j g g K L L L J J J J H K J k k K K K J J K j g $ $ $ g g $ $ g g g g g g g g g g g g g g j j j j g g g g g / g j g j g $ h h h h h g g g h h g h J J J J g H K J K H g > % % % % % % % % g g g % > g H K K K H K K K K K g / K j j g K g J J J J J J J J J J J J K J J J H K > % % > g K g $ g $ $ j $ g g g g g g g g g g g g h h g j j # P P g g g 3 j h h h h h h g g h h h h h h h g g H K J J H g > > > > % % % % % g g g g g g g g L K K g g K L L @ ",
"/ / K j g g K L L L J J J H H K K j j j j j j j j j g $ $ $ g g 3 $ g g g g g g g g g g g g g g j j j j g g g g g / g j g j g $ h h h h g g g g h g g g J J J J g H K J K H g > % % % % % % % % g g g % > g H K K K H K K K K K g / K h j g K j J J J J J J J J K K K K K K K K K K g % % > g j g $ g $ $ j $ g g g g g g g g g g g g g h g g j # T P g g g a k h h h h h h g g h h h h h h h g g g K J K H g > > > > % % % % % g g g g g g g g J K K g g K J L $ ",
"/ P K j > g K K J J J K H H H K g g g g g g g g j j g a $ 3 g g 3 $ g g g g g g g g g g g g g g g g g g g g g g g / g j g j g $ h h h h g g g g g g g g g g J J g H K J K g > % % % % % > > > > g g > % > g H K H K K H K K K K g / K h j g j j K K K K K K K K g g g g g g g g K H g > > g g g g $ g $ $ j $ g g g g g g g g g g g g g g g g g # T T g g g g k h h h h h g g g h h h g g g g g g g K K K K g > g > > > % % % % g g g g g g g g J K H g g K J L $ ",
"/ P J g > g j J K K K K H H K K g g g g g g g g j g g g g g g g 3 $ g g g g g g g g g g g g g g g g g g g g g g g / g j g j g $ h h h g g a > > > > > g g g J H g g K K K g g % % % % % > > > > g g > % > g H K H H g K H K K K $ / K h j g j j K K K K K K K K g g g g g g g g H H g g g g g g g $ g $ $ j $ g g g g g g g g g g g g g g g g g @ T T g g g a k g g h g g g g g g g g g g g g g g H K K K H g > g g g > > % % % g g g g g g g g J K g g g H J L @ ",
"/ P j g > > j K K K K K K K K H g g g g g g g g j j g g g g g g 3 3 g g g g g g g g g g g g g g g g g g g g g g g / g j g j g $ g g g a g a > > > > > > g g g g g g K K K g > % g g g g g g g g g g g % > g H K g H g g H H H K $ / k g h a j g j j K j j j K K g g g g g g g g g g K K K H g g g $ g $ $ j $ g g g g g g g g g g g g g g g g g @ P P g g a g K g g g > g > > > g g g g > g g g > g H K K g > % g g g g > > > % g g g g g g g g J K g g g K J L @ ",
"/ L j g % > g K K H H H H H H g g g g g g g g g g j j j j g g $ 3 3 g g g g g g g g g g g g g g g g g g g g g g g / g j g j g $ g g g g a : : : > > > > > g g g > g K K H g > % g g g g > g > g H g g % > g H K g g g g g H H g $ / k g h a g g j j j j j j K K g g g g g g g g g g K K K H g > g $ g $ $ j $ g g g g g g g g g g g g g g g g g @ P P g g a g K > > > > > > > > > > > > > > > g > g H K K g > % g g g g g > > % g g g g g g g g K K g g g K K K $ ",
"Q L j g % > g K H H g g H H H g K j j j j j j j g g j J j j 3 $ 3 $ g g g g g g g g g g g g g g g g g g g g g g g / g j g j g $ g g g a : : : : > > > > > > > > > g K K H g > % g g > > > > g g H g g % > g K K g g g g g g H g $ Q k a h a g g g g g g g g g g K K K K K K K K g g K J K K g > g $ g $ $ j $ g g g g g g g g g 3 g g g g g g g @ P P g g a g K > > > > , , > : > > , , > > > > > g H K K g % % g g g g g g > > g g g g g g g g K H g g g g K K $ ",
"/ K j g $ $ g j g g g g g g g g J K J K J K J J g g h J J h > $ % $ g g g g g g g g g g g g g g g g g g g g > g > / g j g j > $ g g > > > : : > > > > > > > > > > g H K H g > % > > > > > > g g g g g % > g K K g g g g g g g j $ Q j a h $ g g g g g g g g g g J K J K J J J J g g J J J K > % g $ g $ % j $ g g g g g g g g g % 3 g g g g g g $ P P g > a > K g g > > > : > : > > > > > > > > > g g K H g > % g g g g g g g > g g g g g g g g J g g g g g J K $ ",
"/ L j 3 $ $ g g g g g j h h h h h h h h h h h j h j g g g g g g g g g g g g g g g g g g g g H j g g g g > > % % g [ $ > % % g $ > > > % % $ $ $ % % > % > > > > > > > > g g g g > g > > > > : : g g g g g g g g h h g : : : g g $ _ j j 3 3 $ % g g g g g h h h h h h h h h h h g g g g g g > > g g g g g g g g H g g j K g K K g g g g g g g g > U P > g g % g % % > % > $ % $ $ $ % % > % > > > > > > > g > g > g > > > > : : g g g g g g g g h > g g > $ > L @ ",
"/ L j 3 $ $ a g g g g h h h h h h h h h h h h h h h g g g g g g > g g g g g g g g g g g g g K K g g g g > > % % g [ $ > % % g $ > > % % % % $ $ % % % % > > g g > > > > > > g g > > , , , , : : a g g g g g g g h h a , : : a a $ _ j h $ 3 $ % g g g g g h s h h h h h h h h h g g g g g g > g > g g g g g g g H H g H K H K K g g g g g g g g > U P > g g % g % % % % % % % % $ $ % % % % > > > > > > > > > > > > a a , , : : g g g g g g g > h , > h > $ > L X ",
"/ L j 3 $ $ a g g g g h h h h h h h h h h h h h h h g g g g g g > g g g g g g g g g g g g g H H g g g g g g % % g [ % g % % g $ > % % % % % $ $ % % % % > > g g > > > > > > > > g g a , : : : : a a a g g g g g h g a : : : a s $ _ h h $ 4 $ % g g g g g h h h h h h h h h h h g g g g g g g g > g > g g g g g g g H H H H H H g g g g g g g g % P P > g > % g % % % % % % % % % $ % % % % > > > > > > > > > > > > a a , , , : g g g g g g g g g , > h > $ > L . ",
"/ L h 3 $ $ a g g g g h h h h h h h h h h h h h h h g g g g g g > g g g g g g g g g g g g g H H g g g g g g % % g [ % g % % g $ > > % % % % $ $ % % % % > > g g > > > > > > > > g g g , a a : : a a a a g g g g g a : : : : g h $ _ h h $ 4 $ % g g g g h h h h h h h h h h h h g g g g g g g g > g g g g g g g g g g H g g H H g g g g g g g g % P L % > > $ > % % % % % % % % % % % % % % > > > > > > > > > > > > g a a a : : g g g g g g g g g : > g : @ : J # ",
"/ L j 3 $ $ a g g g g h h h h h h h h h h h h h J J h h g g g g > > g g g g g g g g g g H H H H g g g g g g > > g [ $ g % % g % > > % % % % % % % % % % > > g g > > > > g g > > g g g g a a a a : : a a a g g g : : : $ : : g h $ _ h h $ 4 % % g g g h h h h h h h h h h k k k h h g g h g g g > > g g g g g g g g g g g g g g g g g g g g g g % P L % > > % > % % % % % % % % $ $ % % % % > > > > > > > > > > g g g a a a a a > > > > > > > > g : : g : @ : J $ ",
"/ L j 3 $ $ a g g g g h h h h h h h h h h h h h J J h h g g g g > % > > > g g g g g g g H H H K g g g g g g > > g [ $ g % % g $ > > % % % % $ % % % % % % > g g > > > > g g g g g g g g g a a a : : : : a , g g : $ $ $ : : g h $ _ h h $ 4 % % g g g h h h h s h h h h h k k k h h h h h h g g > > > > g g g g g g g g g g g g g g g g g g g g % P L % % % $ % % % % % % % % % $ $ % % % % % > > > > > > > > > g g g g a a a a > > > > > > > > > : : > : @ : J $ ",
"/ L j 3 $ 3 a g g g g h h h h h h h h h h h h h J J h h g g g g > % % % > > g g g g g g H H K K g g g g > > > > g [ $ > % % g $ > > % % % % $ $ % % % % % % > > > > > > g g g g g g g g g g g a : : : : a a a a $ $ o o : , h h 3 _ h h $ 4 % % g g h h h h s s h h h h h k k k h h h h h h g g > % > > g g g g g g g g g g g g g g g g g g g g % P L % % % $ % % % % % % % % % $ $ % % % % > > > > > > > > > > g g g g a a g a > , , : > > > > > $ : > $ X : J $ ",
"/ L h 3 $ 3 a g g g g h h h h h h h h h h h h h J J h h g g g g > % % % % > g > g g g g H H K K g g g g g > % % g [ $ > % % g % > > % % % % $ $ % % % % % % > > > > > > g g g g h g g g g g g g : : : : : a a a $ o o o $ , h h 3 _ h h $ 4 % % g j h h h h s s h h h h h k k k h h h h h h g g > % > > % g g g g g g g g g g g g g g g g g g g % P L % % % $ % % % % % % % % % $ $ % % % % > > > > > > > > > > g g g g a a g g : : , : > > > > > $ : > $ X : h o ",
"h Q P T j # 3 $ h h g g g a a g h h h h h h h h J J h h g g g g > > g g g g g g K K H H H H H H % $ g g % % g $ % ] g L $ @ % . > % % % % % $ $ $ $ $ % % % g g > > > > > > > > g g a , , : : : : : : : : : a a a : X a g X a h $ _ a Q L $ $ % g g g g g a a a h s h h h h h h h h h h g g g g > > > > g g g g K K g g g g g g K > % g g % g L % U L K g . + % % % % % $ $ $ $ $ % % % g g K K > > > > > > > > g g g a : : : : : $ : : , , > > @ : : > h $ @ h $ ",
"T ( Q / k 3 k j h h g g g g g g h h h h h h h h J J h h J g g g > g g g g g g g K K K H g H H H + $ L ] P L g . % ' L ] H % g + > > % % % % % $ $ $ $ % % > g g > > > > > > > > g g a , : : : : : : : : : : a a X : a _ _ g a o $ ) k w./ j g % g g g g g a a a h s h h h h h h h h h h h g g g > > > > g g g g K K g g g g g g @ $ K ` / K % $ + U / [ ] % + + % % % % % % $ $ $ $ % % > g g g > > > > > > > > g g g a : : : : : $ : : , , > > X > h P U g @ h o ",
"T / k j 3 X h h h h g g g g g g g h h h h h h h J J h h J J H H > g g g g g g g K K H H g g g g g % K L g g K % g [ K U > % K $ g g % % % % % % % % % % % g g g > > > > > > > > h g a , : : : : : : : : : : a a : g : J Y a h a a ) a L j $ g g g g g g g a a a a s h h h h h h h h h h h h g g > g g g g g g g H H g g g g g g % $ > L L > % > > ` P P L $ % g g > > % % % % % $ $ % % % > > > > > > > > > > > h g g a : : : : : : : : > > > > : g g h J > : J o ",
"/ / a $ X . h h h h g g g g g g g g g h h h h h J J h h J J J H > g g g g g g g K K g g g g g g L % $ + * @ K K J ' % % * + J g g g g g > % % % % > % % g g g g > > > > > > > > h h g a a : : : : : : : : : a a g g X o $ X h k h [ 3 3 @ # g K g g g g g a a a a a a h h h h h h h h h h h h j g g g g g g g g H H g g g g g g K $ + + @ @ % L J ] g $ + * g U g g g g > % % % % % % % % % % % > > > > > > > > h h g g a : : : : : : : > > > > : > : : > @ $ J $ ",
"[ ] j g 3 3 L K h h g g g g g g g g g g h h h h J J J J J J J H g g g g g H H K g g g g g g g g g $ % % + $ g % L [ $ % * + L J g g g g g > > > g g g g g g g > g g g g > g g > h g g g a : : : : : : : : : a a $ g $ : : : h : h D.k L g g K g h h g g g a a a a a h h h h h h h h h h h h J j g g g g g g g g K K H H g g g g g $ % g g % % g > / H g % . % L g g g g g g g > > > > % % % % % g g > > > > g g h h g g , : : : : : : : > > > > X : : g J : X h a ",
"[ / a 3 3 $ k h h h g g g g g g g g g g h h h h J J J J J J J J g g g H H K K K g g g g g g g g g % g K % g K % H [ H L % g P K K K H g g g g g K K H g g g g g g g g g g g > g h h g g a : : : : : : : : : a a $ h a h h h J a a D.h j $ g K g h h j h g g a a a a a h h h h h h h h h h h J J g g g g g g g g K K H H g g g g K g g L L H g J % / P L L % g P K K K K g g g g K g g g g g > > g g g g > > g g h h g g a : : : : : : : > > > > > h g g J : : Y o ",
"/ T # # $ # g $ h h g g g g g g g g g g g h h h J J J J J J J J H H H H K K K K g g g g g g g g J % > g $ > K g g ' g P g g P K K K K H g g g g J J K K g g > > > g g g g g g g h h g g g a : : : : : : : : a a a Y : $ : g Y h $ w.3 o . @ K % J J h h g g a a a a a h h h h h h h h h h h J J H H H H g g g g K H H H g g g g L g % g g % g P g / L K K % J / J K K K K g g g L J J K K g g g g g g g > > > g h h g g g a , : : : : : > > > > h J : $ > : > ' o ",
") / a g j g K $ j j g g g g a a a g g g g g g g J J J J J J J J H g H K K K K K g g g g g > g > % @ % > @ $ > $ > / % g + $ P K K K J g H g g g L K J K g g > > g g g g g g g g h h g g g g > : : $ : : : : a a : h $ X X : J : @ D.L L g j K $ J h h h h h g s a a a a h g g h h h J h h h J J H H H H g g g g H H H H g g g g g @ + $ $ + $ g $ P K g g @ g L J J J K J g g g P L L J J K g g g g g g g g g g J h g g g g , : : $ : : > > > g $ > : : g $ @ J a ",
"P / K > g g $ g g g g g g a a a : $ : a g j j j j j J K J J J J K K K j K j J K K K K j K j g j % > g j g g > $ g ] K K K Q L K J h J h J h J h g g g g h h J J H H H H g g g g > g g g g > g g $ $ : g g g g g : K : $ > g Y j % ] K K g g g g g g g a a a a a $ $ : a g g g j g g g j h K J J K K K K K K K K J J J K K K K K g g g g g j g j > / L j K j L K h h h h h j h j g g g j h j h h g g H H g g g g > % > % > > > > > > > > : 3 : 3 g $ J g : g g L o ",
"P / K > j g % g g g g g g a a a $ $ : g g j j j j j j j K K J J J J K j j j K K K K j j j j j j $ > g j j g > $ g ] j K K Q L K h h h h h h h h g g g g h h h h H H H H g g g g g g g g g g g g $ $ $ g g g g g $ K a $ > g P j % ] K K g g g g g g a a a a g g $ $ $ g g g j j g g j j j K J J K K K K K K K K J J K K K K K K g g g g j j j j $ / K j K j P P h h h h h h h h g g g h h h h h g H H H g g g g % % % % > > > > > > > > 3 3 3 3 g $ K g $ h g L # ",
"P / k g j g $ g g g g g g a a g $ $ a g g g j j j j j j j j j J J J j j j j j j j j j j j j j j $ g g j j g g $ g ] j K K Q L K h h h h h h h h g g g g h h J h g g g H g g g g g g g g g g g g % $ 3 3 g g g g $ K a $ > g P j g ] K K g g g g g g g g g g g g 3 3 g g g g g g g g g j j K j J K K K K K K K K J K K K K K K K g g g g j j j j @ / J j K K Y Y h h h h h h h h g g g h h h h h g g H H g g g g > g g g g g > > g g g g g g g g g g K g $ j g P # ",
"Q Q k g j g % g g g g g g g g g g g g g g g g g j j j j j j j j J J J j j j j j j j j j j j g j $ g g j j g g $ g / j K K Q J K h h h h h h h h g g g g h h J J H H H H H H H H g g g g g g g g % $ 3 g g g g g g K g $ g g P j : ' j j a g g g g g g g g g g g g g g g g g g g g g g j j j j j K K K K K K K K K K K K K K H g g g g g j j j j @ P j j K K / / h h h h h h h h g g g h h h h h g H K K K K H H g g g g g g g g g g g g g g g g g g K g $ j h P # ",
"T Q k a j g $ g g g g g g g g g g g g g g g g a j g g j j j j j j j j j K j h h j j j j g g g g > g g j j j g > g / j K K Y J K h h h h h h h h g g h h h h h J H H H H H H H H g g g g g g g g > g g g g g g g g K g a g j P j : ' h h a g g g g g g g g g H g g g g g g 3 3 $ g g g j j j j j K K K K K K K K K K K K g g g g g g g g j j j j @ P j j K K / / h h h h h h h h h g h h h h h h g H H K H H H H g g g g g g g g g g g g g g g g g g K g $ j j Q # ",
"A ! j a h g % K g g g g H g g g j j g g g % $ $ g g g j j j j j j j j j K j h h j j j g j g g g > g j j j j g : g / j K K Y J K h h h h h h h h g g h h h h h h H H H H H H H H H H H H H H H g > a g g g g g g g K g g g j P j a ) j j a a a g g g g g H H H H j h g g g $ $ $ g g g j j j j j K K K K K K K K K K K K g g g g g g g g j j j j @ / K j K K Y Y h h h h h h h h h h h h h h h h g H K K H H H H g g H H H g g g g g g g g g g g g g K g g j j Q # ",
"A ! k a h g % H > G G G H H H g j j h g g $ $ $ g g g j j j j j j j K K K j h h g g g g j g g g g g j j j j g g g / j K K Y K K h h h h h h h h g g h h h h h h J K K K K K K K K K K K K K K K > g g g g g g g g K g g g j T j a ) j j a a a g g g g H H H H H j j j g g $ $ $ g g g g j j j j K K K K K K K K K K K K H g g g g g g g j g j j $ / K j K j P L h h h h h h h h g g h h h h h h J K K K K K K K K H K K H H K j g g g g g g g g g g K g g j j Q # ",
"A ! k a h g $ H > G G G H H H H j j h g % $ $ $ g g g g j j j j j K K K K K h h g g g g g g g g g g j j j j g g g / j K K P K K h h h h h h h h g g h h h h h h J K K K K K K K K K K K K K K K g g g g g g g j g K g g g j / j a ^ d j a a a g g g H H H H H H K j j g > $ $ $ g g g g j j j j K K K K K K K K K K K K g g g g g g g g g g j j > / L j K j K K h h h h h h h h g h h h h h h h J K K K K K K K K K K K H K K j g g g g g g g g j g K g > j j Q # ",
"k m k j a $ g K H H H H H H H H g g g g $ $ $ $ K g j j g $ g Q K j g j K L K j g g g g g > % % j > $ * @ g K $ h { / g j K / P h J J J J h h g h h h h g g g g J K % J J $ g g K H g g g K J L K j j j j j j j g j $ g g g P k k ) o o o h h h g g H H H H I H > g > g $ $ $ $ j g g $ g j K P L j g g j K K K g g g g g a $ $ g @ g $ . . K K @ ] / g g K / / k k J h h h h h h h h h g g g g > J g g L g $ > g K K g > > K L K j g g > g g j j $ j > > K j L @ ",
"k m k j a a g K H H H H H H H H g g g g g > > $ j K K j g g j K J j g j K L K j g g g g g > > > @ . # . j g g . $ / P g j j K j h J J J J h h g h h h h h g g g J P g g g % J g K H g g g K J L g j j j j j j j $ K K P P P / h 3 ) d j h L g @ g g g H H H H H g g g g g g > $ j g g g j j K K L j g g j K K K g g g g g a a a . . $ g $ $ $ @ * P P K K j K j k k J h h h h h h h h h h h g g g L H > J g % K H K K g > > K L K j g g g g g j g j P L / / j J # ",
"k m Q L k g g K H H H H H g H g j j j j g g g g > P / K g K K j J j g g K K K j j g g g g g g g g @ $ @ j $ g $ g / j g j g j K h J J J J h h g h h h h h h g g J / K g > g P g K H g g g K J L g g g g g g g g $ K g g g j P h a ) k h h k j $ g g g g H H H H K j j j h g g g g j j K K K K K J j a a j K k j h g g g g g a a $ $ @ $ g g $ $ . P K K K > j K k k k h k k h h h h h h h h g g J P K g L K g J g K K g > > K L K j g g g g g j g j j $ K K $ L $ ",
"k Q Q T K j j K H H H g g g g j K J K j j j j g g K / P K K K j j j g g K K K j j j j g h g g g P g j j P g j K g / K / / j j K h J J J J h h g h h h h h h h j H P J L J K L g K H g g g K J L > g g g g g g g j j @ $ $ @ j j h ) k L h j g j g g g g g g K H J J J j j j j g j h K P P L J j K j a g j k k j j j h g g g a a K K g $ P P g j $ / P / P g j / k k k h k k h h h h h h h h h j g L L J U L > H H K K H > > K L K j g g g g j j g K g . j j . P $ ",
"k L Q P j g g K H H g g g g h h K K j j j j j j g j P / P j j K j g g g K K K j K j j j j j j g j g P / ] g g $ @ P P ] ] K g g h J J J J h g g h h h h h h h j g K K / / g g % K K g g g K L L g g g g g g g g k g $ / / $ g j $ Q k ] Q g @ g g g g g g j j j K K K j j j j j j K K P P K j g K h a a h k k j h j j j h h h g g K j K ] / $ @ . P / ) ] g g j k k k h k h h h h h h h h h h j $ J L P ] L % % g K K g > > K L K j g g g g j j g P P g / Y @ k $ ",
"P P P j > % g K H g g g g g h h h j j j j g j g j g j P K $ g J j g g g K K K j K K K j j j j j g g K j j @ $ $ $ / j g j $ j j h J J J J h h g J h h h h h h h g g g / / % > % K K g g g K L L g g j j j j j j K g $ P K @ $ g g / K / j @ @ K g g g g h j j j K j j j j j g j j K K K k j j g K h a a h k k j k k h j j j h h g j g g j g $ @ . P K K J $ $ g k k k k k h h h h h h h h h h h $ K L L / L $ $ g K K g > > K L K h j g g h j j j K K $ K K X j # ",
"P P j % @ $ > J g g g g g a h h h j j g g g g g g g j g $ $ g K j g g g h K h g K K K K j j j j K K K . . . g g j / g . . $ K P h J J J J h h g J J h h h h h h H K % g g $ H > K H g g g K L L K j j j j j j j g K @ @ @ . g $ % [ K % . @ > L g g g g h g h h j j j g g g g g K J j g g g g g K h $ a h k h j K K k j j j j j K j g $ . . g g $ / K $ @ @ g j k k k k h h h h h h h h h h h h > J g > J g $ g g K K g > > K L L J j g g h j k K g g . @ $ @ g # ",
"U L j @ . . > L g g g g g g h h j g g g > g > g $ j j @ . $ j j h g g g j K j j K K K K j j j j g L / % $ @ g $ @ ( / g j K P g J J J L L J g g J J J J J J J J K P % + + $ L g K K g g g K J L K K K K K K K K $ / K g g j K . . [ P $ * $ g $ g g g g g g h h g g g g > g > > K j g $ $ $ g g K h $ $ h h j j K K K j j j j j K g L L @ @ g a @ [ / j g g J g K J J J J J J J J J J h h h h j K L % + % % % K g K K g > > J L K J j g g j K J J g P K j j $ $ . ",
"g 3 # @ # @ @ $ # # # + + + + + $ $ $ $ $ $ $ $ + + + + . . . X @ X X @ $ $ @ . $ $ 3 3 $ @ @ + $ # g $ # # # 3 $ a # 3 $ # % # $ $ $ $ $ $ $ @ $ $ L + $ $ $ $ + $ % % % % $ $ $ . $ $ X @ > X . X @ $ $ $ $ $ $ > % @ @ $ $ X 3 $ $ # # @ X X X X @ @ # # # # @ @ @ @ $ $ $ $ + + + + . @ @ @ X . . @ $ $ @ . @ @ $ 3 $ $ @ # $ $ $ $ $ # # # 3 g $ @ 4 $ + $ $ $ # + # # $ $ $ $ % % $ # $ % # $ % % 4 % % $ $ $ $ $ $ $ $ $ X @ . $ . % $ % @ % % @ @ $ $ X . "
};
