/* XPM */
static char *_6c0d4f8a0224af5fd67adf4d78fadedo7OJc4EmybrUiSKy[] = {
/* columns rows colors chars-per-pixel */
"256 256 231 2 ",
"   c #0F0F0C",
".  c #1B1A1A",
"X  c #21160F",
"o  c #231D1C",
"O  c #28211F",
"+  c #191C21",
"@  c #261E22",
"#  c #1E2227",
"$  c #252323",
"%  c #2B2425",
"&  c #282729",
"*  c #2D2B2B",
"=  c #362A2A",
"-  c #332C2C",
";  c #33312F",
":  c #3A302F",
">  c #2E2D31",
",  c #332D31",
"<  c #392E31",
"1  c #2B3331",
"2  c #343233",
"3  c #3A3534",
"4  c #3C3837",
"5  c #363539",
"6  c #3B3639",
"7  c #343A38",
"8  c #3D3A3A",
"9  c #443839",
"0  c #423D3C",
"q  c #43403F",
"w  c #4A403F",
"e  c #3E3D41",
"r  c #433E41",
"t  c #4A3F41",
"y  c #3F4142",
"u  c #454242",
"i  c #4A4544",
"p  c #4C4847",
"a  c #46464A",
"s  c #4B4649",
"d  c #4E4A4A",
"f  c #524546",
"g  c #524649",
"h  c #524D4D",
"j  c #594E4E",
"k  c #54504F",
"l  c #5A504F",
"z  c #4E4D51",
"x  c #544E51",
"c  c #594F51",
"v  c #4F5051",
"b  c #565251",
"n  c #5B5555",
"m  c #5C5857",
"M  c #565659",
"N  c #5C5659",
"B  c #5E5959",
"V  c #615555",
"C  c #625957",
"Z  c #615759",
"A  c #635C5C",
"S  c #695D5E",
"D  c #64605F",
"F  c #6A605F",
"G  c #5E5D61",
"H  c #645E61",
"J  c #695F61",
"K  c #705F65",
"L  c #5E6163",
"P  c #666162",
"I  c #6B6465",
"U  c #6C6966",
"Y  c #666669",
"T  c #6D6669",
"R  c #6E696A",
"E  c #716666",
"W  c #796567",
"Q  c #716867",
"!  c #716769",
"~  c #736B6C",
"^  c #796D6E",
"/  c #75716E",
"(  c #79706F",
")  c #756E71",
"_  c #796F71",
"`  c #6F7071",
"'  c #767172",
"]  c #7B7375",
"[  c #7C7976",
"{  c #767678",
"}  c #7E7679",
"|  c #7E797A",
" . c #817576",
".. c #887577",
"X. c #827877",
"o. c #817779",
"O. c #897679",
"+. c #837B7C",
"@. c #897D7E",
"#. c #71827C",
"$. c #85817E",
"%. c #8A807F",
"&. c #7E7D80",
"*. c #867E81",
"=. c #897F82",
"-. c #7C8280",
";. c #868182",
":. c #8B8384",
">. c #8D8986",
",. c #8E8589",
"<. c #83898A",
"1. c #8E898A",
"2. c #918586",
"3. c #928887",
"4. c #91878A",
"5. c #998589",
"6. c #948A8C",
"7. c #998D8E",
"8. c #95918E",
"9. c #9A908F",
"0. c #968D91",
"q. c #998E92",
"w. c #869290",
"e. c #969192",
"r. c #9C9294",
"t. c #9D9896",
"y. c #9E9599",
"u. c #9E999B",
"i. c #A19596",
"p. c #A29897",
"a. c #A1969A",
"s. c #AA9799",
"d. c #AA979A",
"f. c #A49A9C",
"g. c #A99D9E",
"h. c #A4A19F",
"j. c #AAA09F",
"k. c #9B9DA1",
"l. c #A69CA1",
"z. c #AA9EA2",
"x. c #AC9FA9",
"c. c #B19DA4",
"v. c #97AAA5",
"b. c #97B3AB",
"n. c #9CB4AD",
"m. c #9CB4B0",
"M. c #A6A1A2",
"N. c #ACA2A4",
"B. c #AEA9A6",
"V. c #AEA4A9",
"C. c #AEA9AA",
"Z. c #B2A4A5",
"A. c #B2A8A7",
"S. c #B2A6AB",
"D. c #B9A6A9",
"F. c #B4AAAC",
"G. c #BAACAD",
"H. c #B9B0AF",
"J. c #B4A7B0",
"K. c #B6ABB1",
"L. c #BAAEB3",
"P. c #BDAFB8",
"I. c #A7BCB6",
"U. c #A7BEB8",
"Y. c #A9BDB9",
"T. c #B6B1B2",
"R. c #BDB2B4",
"E. c #BDB3B9",
"W. c #BEB9B9",
"Q. c #C6B3B6",
"!. c #C2B4B5",
"~. c #C2B6BB",
"^. c #C6B7B8",
"/. c #C5BABC",
"(. c #CABCBD",
"). c #C9C0BF",
"_. c #C4B7C0",
"`. c #C8B7C1",
"'. c #C5BAC2",
"]. c #CABDC3",
"[. c #CDBFC9",
"{. c #D1BEC2",
"}. c #CDC2C4",
"|. c #CAC4C5",
" X c #CEC2CA",
".X c #D2C3C5",
"XX c #D2C5CB",
"oX c #D8C6C9",
"OX c #D5CACC",
"+X c #DACBCD",
"@X c #DAD0CF",
"#X c #D5C7D0",
"$X c #D9C7D3",
"%X c #D6CAD2",
"&X c #DACDD3",
"*X c #DDCFD9",
"=X c #DDD2D4",
"-X c #D9D4D6",
";X c #DDD1DA",
":X c #E1CED2",
">X c #E2D3D5",
",X c #E8D5D7",
"<X c #E2D4DC",
"1X c #E8D6DA",
"2X c #E5D9DC",
"3X c #EADBDD",
"4X c #EAE0DF",
"5X c #E5D6E0",
"6X c #E8D6E2",
"7X c #E6DAE2",
"8X c #EADCE4",
"9X c #EDDEE9",
"0X c #F1DEE3",
"qX c #F1DFEA",
"wX c #E3E5E2",
"eX c #EDE2E4",
"rX c #EEE2EA",
"tX c #F1E2E5",
"yX c #F2E4EC",
"uX c #F9E5E9",
"iX c #F4E9EC",
"pX c #FAEBEE",
"aX c #F5E6F1",
"sX c #F9E7F3",
"dX c #F5E9F3",
"fX c #FAEBF4",
"gX c #FEEEFA",
"hX c #F5F5F6",
"jX c #FEF2F5",
"kX c #FEF3FD",
"lX c #FEFEFE",
/* pixels */
"0.L.L.L.[. XK.c.'._.'.~.z.4.6.y.l.f.l.f.K.XXXXXXE.N.z.i.a.1.;.y.r.*.,.:.o.] T T T ~ A P ^ T u T l.r.o.~ ) ] +.} ) T H B P ~ 4.r.6.6.] ] 4.V.n.V.y.L.[.L. XyX<X*.+.R.[.l.:.:.e.0.f.[.;XY.6.,.0.~./.+.A A P p 3 m ,.e.*.} r.:.6.,.I A ] } m h T ^ h Z ' ^ I ) } ;.y.n.L.z.~ V.q.+.r.].5XrX5X~.XX~.;.+.B p T n b ~ ,.6.4.,.:.r.V.l.*.T P P A h h b n n b n A U I } 4.i.z.V.0.=.V.f.,.+.+.o.+.:.+.,.f.~.~.L.W.F.f.e.] U L.kXaX9X9XyXaX7X7X7X<X7X<X'.'.E.u.0.].9X XL.6.*.r.r.y.q.} ^ ' { T o.q.,.+.I ] V.].y.I B T ~ H :.0.6.z.L.u.f.",
"r.N.I.'. X#X].E.L. XyX;Xq.o.4.0.y.y.l.L.C.E.'.S.~.].N.y.K.S.:.] o.o.| { ) U T ~ o.;.' ] ] P 0 U q.,.o.] ~ ~ ] *.o.} A m n U ~ +.c.y.:.} o.f.W.F.l.V.'.W. X7X<X;.q.9XsX<X} q ~ a.'.Y.E.S.*.} E.5XE.} A P A 0 8 h U f.,.~ } *.~ N n n A ] ~ m Z ~ h d A n T ] } :.q.F.V.e.' K.r.} r. X X'.XX~.[.~.f.6.A i T ^ I o.L.z.q.r.,.0.~.&Xz.] { P P T A A A Z U _ ~ o.r.,.,.e.0.0.r.4.,.:.} } ,.f.4.T ~ ] ] =.i.F.F.z.y.6.,.P S.lXyX9XaXsX;X%X;X9X8X;X6XyXU.,.6.q.0.e.r.:._ _ o.6.,.o.=.) } 1.m ) r.] ] *.:.0.f.y.;.b i P { A I 6.F.f.1.f.",
"+.y.K.[. XXXa.6.~. XE.6.o.+.,.,.y.l.M.K.F.Y.~.Z.'.XXZ.n.T.Z.f.r.*.{ *.T T *.1.' ] 1.;.o.) U i U r.,.o.{ ~ ^ T ) +.*.} A n A ) +.f.r.*.6.R.b.q.e.L.<X5X#X9XkX7XN.d h +.u ~ N.6.z.S.~.*X&Xf.] E.<XE.*.P A P 8 - i B I V.S._ :.~ Z ' P m m n m P T i h P B I ~ o.=.r.V.F.r.] ;X~.f.K.[.sX*Xl.E.l.0.z.0.U n ~ ~ B } ;XL.+.r.Z.J.l.l.L.r.P ~ A b A P I P U Z P +.e.q.:.+.r.E.N.=.6.,.} +.} ] } ^ ^ } ,.,.r.f.i.r.r.f.=.P V.lXsX9XyXaX9X7X7XXX~.#XyX9XXXn.K.E.N.0.6.) ~ ,.6.6.4.6.r.} ~ ~ B h ] e.;.' ] o.} :.+.Z A T b A P T *.*.} ;.",
"+.r./.&XXXV.~..Xz.+.] +.+.} *.,.0.0.4.;.0.N.F.n.'.XX}.[.~.F.a.0.} ^ o._ } ,.y.+.T ;.*.o._ I i P 0.,.*.{ T T T ] o.} A h n { ,.0.l.0.*.,.S.V.y.f.i.S. X=XlX;Xm h P '.kXXX6.4.L.u.E.<X;X&Xu.) ~.<XE.+.B P P h k 0 i f.S.,.{ I I ~ ' P T ~ m h T +.h d Z A P ) o.+.q.L.L.M.I #XI.c.R.XXXX[.XXyX<XL.f.,.U B A n b +.%XE.o.q. X<XE.l.#XF.A T T A m ~ ' A n B ^ +.4.,.,.4.4.*.,.0.e.=.] ] ,.l.4.B A o.+.=.l.N.y.y.y.6.:.P S.lXsX7XyXsXrX5X&X X X'. X7X#XV.y.r.0.N.V.:.*.6.6.o.*.0.6.6.} ' ^ A B U P ~ ,.6.y.,.~ P m n U P T T T } *.+.",
"] r.[.<X XK.,.' +.*.:.:.*.] +.y.0.6.,.4.a.f.y.f.l.n.L.Z.f.q.z.K.q.J _ 6.r.r.y.o.) ) T _ T h 8 ~ e.,.*.' A b T :.+.*.' P n B o.q.y.a.y.l.L.y.:.z.S.J.V.l.y.E.'.P h S.yXL.r.V.V.a.L.7X<XE.=.o.:.'.].+.P m b h d i i B ~ 6.z.] A ~ n N ) | Z h U +.i b ~ x *.r.+.,.V.K.S.) *.<XN.) q.F.x.L.XXL.'.W.r.6.A i A A n ! m.E.+.~ z.K.f.z.XX/.,.} ^ A n ' P c B h J *.6.4.:.0.0.r.,._ ,.r.,.] :.y.,.A P 0.r.=.4.f.e.a.f.6.,.A K.lXyX9XaX9XXX*X7X7X9X7X5X7X<X].V.f.;.0.n.,.] *.+.o.*.+.o.*.+.] ~ A b b T 4.6.*.] +.+.' A n P ^ _ T H q.r.] ",
"o.| f.Y.E.q.{ +.6.4.6.;.+.6.f.q.z.6.6.l.q.f.S.c.[. XP.'.N.4.y.,._ ] 4.,.,.,.o.] T ' T P m h u T 0.,.*.' P n P T ~ ) T A A r ] /.F.l.n.E.V.q.:.:.4.:.+.1.1.6.,.h ,.<X5X&X%X_.V.K.]. X&Xe.A :.;X*Xy.:.P k h b n h b T T ~ ' o.] Z T P ) } A b U ) u I } N ,.q.T ^ 6.L.~.r.6.].u.+.0.l. X=X#X&XE.S./.N.~ p B n m ~ S.r.] =.0.V.V.M.L.6.b U { ~ U P I B d i b *.n.q.^ ) +.:.0.6.6.6.4.y.r.z.q.B ~ ,.*.) =.y.,.y.F.q.U ^ f.#XyXlX<Xl.'.%X].V.K.9XkXyX[.a.q.r.y.0.6.o.) o.+.+.} } } +.} ! ^ n h { :.r.f.*.,.y.6.,.P m U Z A I A 4.r.+.",
";.q.XX X0.6.+.| y.V.S.V.N.0.:.y.f.r.,.u.V.E.~.U.XX&X[.<Xf.R *.] ] ] I ~ ~ U ' ) ~ ~ ~ } ~ h 0 T e.4.=.T n m P T ~ U T ' ~ | { ' :.6.,.y.V.y.+.6.+.Z.[.4.=.,.q.y.+.l.7X<XXX~.S.l.L.#X X].,.{ %X;Xl.,.P b h p d b h B b n n ~ 1.6.,.6.,.' Z B m i A A T o.0.r.+.} | XX X,.,.].V.S.7XfX5XS.V.&X Xu.=.l.| h P Z h ~ S.y.*.r.:.*.,.Z.q.) U ' A d p Z b h n m U +.6.0.o.~ I a.S.:.4.,.6.a.f.r.o.n ' :.) ] o.:.,.r.N.y.) J P.lXdX<X~.K.f.e.z.L.N.'.yXyX[.V.f.r.f.V.F.1.} ] +.+.} } ] *.] Z b u n { _ o.;.} o.,.:.=.+.P i B T T A ~ ] +.",
",.q. XXXq.:.6.f.V.S.l.6.4.r.r.4.*.{ i.K.f.i.V.N.m.]. XF.y.q.y.o.~ ] U { ~ U T T T U P ^ T d 0 T q.,.:.~ h n A ^ o.U J ) +.P 0 A 0.y.,.,.f.n.y.*.K.z.P ^ f.[.E.6.o.0.U.XXW.z.F.c.n. X X~.:.} <XL.~ q.~ d h b b b k i d i u u ' i.4.r.} H ~ ~ m h i B I I r.q._ *.Y.*X[.z.y.[.S.S.*X9XgX;Xl.x.~.L.6.) A b B B b P l.0.+.1.z.;.0.&Xl.) P b A ~ ~ A n d h h b ) :.4.+.~ N R. X+.,.6.4.,.*.,.,.A P { ' ] ^ ,.f.y.f.y.~ A E.lXsX9XL.4.y.i.r.n.'.<X7XXX'.V.f.l.N.N.y.6.,.4.;.:.,.:.o.+.{ A b i B ] _ ) ] ] ] ] ] I ~ T P d n ^ T B T :.",
",.,.z.'.K.l.a.0.,.6.l.y.=.*.4.0.1.y.l.f.S.K.V.z.m.~.E.F.Z.l.e.} ~ ) ) ] ) ] ~ I P I T ] } P u U r.4.+.} ~ m B ~ } o.} ' } +.T n T 1.6.:.F.Y.N.u.'.kXlXlX9XL.V.L. XF.+.S.L.V.E.~.5XaX#XE.4.o.<X[.P h n A h k h d h u i u i q i A n d ~ ;.U h u 2 h P U P q.f.*.~ T [.5XV.S.E.i.6.W.9XkX#Xl.K.r.+.6.+.N n A n n P y.y.,.a.S.,.1.#Xz.~ U U T P n n h B D b d U 6.+.~ ~ ~ &X;X} :.r.6.~ T :.1.A B I ' o.*.a.K.K.W.S.T B R.gXsX#X/.&X&X$X#XXX;XqX7XXXE.F.S.f.z.l.q.4.+.} ,.6.6.,.+.) I A n q Z 1.,.,.0.f.6.6.y.+.o.+.A i m ^ T Z ~ 4.",
"U H 6.L./.XXS.:.+.e.e.:.6.| I ~ =.,.0.,.,.6.Z. X9X9X XE.N.N.y.=.} *.+.] ~ ] ' ] ] ] ;.6.+.P i P ,.} } ,.*.A n T +.^ ~ ~ ~ } ~ B m =.e.4.n.E.K.F.S.7XlXlXlXfX~.<Xr.T a.XX%X~.L.K.E. X#XV.P H  XY.U m A n h h U +.~ B b m A A P B m m B b 0 i d k i b A +.y.1.~ o.{ Z.XXK.c.L.l.c.~._. X<X6X*X#XK.f.:.T b B D 0 A &XE.;.L.~.6.0.;XV.U T ~ A n A b h d b k d n ] +.A _ #XlX7XA ) ,.] A B ~ ' n P { ~ :.;.:.V.]./.l.*.~ [.lXsX7XgXlXlXlXlXlXlX9X%X7X[.K.E.'.L.l.r.:.~ ~ +.r.4.) ] +.+.~ m 4 b 6.r.,.;.y.a.V.Y.q.} U B B P Z ~ ~ T P ",
"A ~ ] y.}.XXK.6.4.r.{ i b m A ] ;.0.q.:.:.=.V.9XsX XV.~.f.e.F.+.+.6.} | } ^ ) ~ P T T A ] 1.n n 6.y.,.} +.| H I ;.] P Z Z P A A M ' 6.4.+.e.r.o.E. XL.;X[.l.K.;XV.~ y.'.l.,.[.~.Y.#XXX'.i.6.F.+.u B P m d 0 ] r.6.:.1.} n x T T m b B B h 2 % 2 d B P o.0.} x Z z.z.0.i.K._.'.(.~. X9X9X*X7XV.} _ 4.A 4 B T 8 n kXXX} K.E.r.:.S.f.] U ~ I b b n n b h i u B o.o.B ] 9X%X] ] { ;.*.^ ~ } { b m I ~ } ] } r.y.:.] *.~  XlXyX<XsXkXsXlXlXlX9XE.L.<XyX9XXXV.l.N.r.;.^ ~ } ,.e.4.4.y.:.T 0 U S.E.~ B 0.y.y.y.r.:.o.U n B n b ^ I n A ",
"A ^ =.i.V.y.{ P h b B A A b B ] =.*.q.V.V.N.].5XdX#XV.y.l.V.r.6.y.r.~ T ' ' ) ) } ~ U T T P i Z ,.f.,.] *.1.I A ~ A m T ' U B U A P | e.l.f.r.q.P.;X9X5X#XR.F.~.6.} y.S.N.,.4.y.W.OXS.n.N.0.,.I h A D b h T V.S.} ) l.F.] A h Z P A B B 8 P Z 8 h Z T o.4.T n +.6.;XyXW.y.+.f.~.XX7XfX<XP.#X&XV.~ ;.P 8 I 4 b 6.,.] V.6Xl._ 6.n.y.o.A T A b h b b h d u 8 h ] ] ,.f.} Y. X) { ;.+.^ ' } T u b ~ ' } ' +.e.q.q.y.+.~ [.lXlXkX5X%XN.XXlXkX9XE.S.~.x.=.=.f.K.N.0.y.,.*.0.l.z.i.z.a.:.U 8 A f.V.y.o.:.L.L.E. XS.o.~ | P h n P P A B ",
"A ^ 6.f.6.+.P n A A B n h P } 6.N.y.,.:.4.Y.7X7XsX<XV.f.y.r.4.:.N.N.} ] | +.:.o.) ' | ~ { ,.b n 6.y.r.,.+.;.] } +.T B A ^ o.^ m P B H o.0.L.L.F.E.&X9XrX#X[.K.V.+.y. Xl.0.a.e.N.L.S.1.r.6.~ b b A A P b h P } a.S.o.+. XyX+.4 k n A Z p q P m 2 P B T q.V.6.T ] l.'.[.~.7X5XP.~. X X~.'.&X5XE.] } 1.U 8 P u h ,.7.n.~.V.y.;.1.n.l.] U ) ~ P A m b h b n d m o.~ } e.V.lXaXA ) :.+.~ ' +.) i h U B { ) ;.V.S.l.4.:.~ '.lXlXdX6XkXkXkXsXkXgXkXlX6X X~.'.[.K.r.6.q.} I 6.l.V.y.6.q.,.H P | l.z.0.+.,.r.c./.XXV.} T ] T p 0 b A A P ",
"P n i i i ~ ! m n h m +.4.0.=.*.r.f.6.6.y.[.<X%Xy.+.f.i.q.} ) ,.r.0.{ ) U B B n I T Z U ;.:.h b ,.6.4.+.] +.] ) +.U B P U B A ' P P m N a.y.y.P.S.#X7XL._.S.T n H ~ U U H U { +.q.6.) T U P ~ { T Z u u P ,.+.;.q.f.z.y.} T i d P A P B - T ^ q P I } 0.] B n o.z.[. XL.J.XX'.'.=X<X&XXX&X XL.u.:.P d d u 8 H *.T *.l.y.:.+.l.I.6.n b A H b h u q i b k i n } I *.].&XL.*.+.;.6.=.~ ~ ] ) h b P ) *.A ' I.E.S.0.~ I z.7XkXlXlXlXlXlXdX<X;X7X5X[.].M.4.*. XfX].l.} ) r.i.0.,.6.:.{ ] +.T =.&XK.*.+.' q./._.l.{ A ) | P 0 i n P A ",
"* & k B b ^ P d _ N.}.F.+.o.;.:.f.q.y.L.V.E.E.6.r.,.~ 0.z.z.6.*.U A ~ ^ ~ ~ ~ ~ { | ~ I _ ;.b m 4.q.,.o.} +.o.*.o.o.P n P T ~ ~ ~ ' T b ~ 4.V.E.W.'.V.,.f.+.7 u T ] A ) P n T { } ~ P ] o.D m n Z A 8 h } ;.+.*.y.f.N.r.~ H i h B P A n n o.~ d ~ +.=.,.6.:.~ ' l.S.;XlXaX XK.c.V.XXP.f.z. XY.y.,.^ d 0 d 4 B :.U f.'.f.} y.[.P.*.b h U T B b h d i n n p h ] 4.f.L. X<XY.{ +.,.=.^ ' } ) h k I ~ *.A ' ~.I.C.r.] T z.9XlXlXlXlXgXaXkXlXaX<X5XyX Xa.6.q.0.e.f.o.P ^ *.o.+.0.q.,.+.) U 6.].XXN.} | 4.f.L.'. X0.m ] o.Z 8 p 4 % - ",
"2 8 % ; d A :.a.6.z.K.V.q.*.*.6.l.r.r.n.L.5X;X0.6.u.i.f.4.,.q.+.+.+.T ~ T ~ 6.' P | ~ ) =.;.h n ,.0.0.,.] ) o.+.} T B Z ~ T ~ ~ ~ P ] 6.*.) +.u.:.l.[.l.' g i H P Z P m B B T 4.4.U P A A ~ Z B Z A d T 6.i.i.i.y.:._ ! ] T d i B m H T h ,.+.k _ 4.6.,.F.,.P ] r.6XgX<X9X%XS.l.u.K.R.V.K.[. X6.i n P m 8 U ~ s P l.~.r.=.;.1.1.~.V.T A U n 0 T B 0 i h h b ^ e.,.+.E.lX<X~ | 6.=.~ ^ o.' h k I ~ +.R ^ c.f.z.r.~ n /.lXlX<X+XkXkXlXlXXXi.E.sXlXrXE.E.[.L.,.} I +.f.V.V.l.i.f.r.=.*.,.n.&X Xf.+.i. Xn.f.'.lXS.i ~ | U n P B 0 3 ",
"* & 8 T r.o.f.V.:.c.N.*.+.,.6.,.f.f.6.4.Y.].l.r.q.y.r.f.0.4.6.+.~ D ! B ~ 6.:.T H ! ) ! ] 1.b b ,.6.6.,.*.+.o.+.o.} T n m T ) ~ | { Z B ] o.*.a.=.L./.A i ] ,.] ~ ) { ] H n T +.0.1.T +.6.I s 4 u n ' r.y.o.6.0.o.1.| ) ] A k I o.;.*.~ h 4.4.m B ) ) +.S.0.~ *.f.K.'.%X[.7X5XV.N. X~.V.K. Xr.o.K.f.~ h Z T ~ U P f.~.y.y.S.S.,.L.z.H m P n 8 U B 0 d k d B ~ o.J.<X[.%XK.' o.6.,.' U T P n 0 k ) +.T T 4.f.l.l.N._ V.9X;XXX9XlX<X[.&X<X X#XyXlXrX~.L.0.y.r.] +.y.Z.z.z.l.f.a.N.r.{ *.K.XX Xr.,.L.'.'.'./.~.C.4.T ~ _ ~ B k u - ",
"i D m ~ V.E.'.Y.N.i.0.r.y.0.6.0.q.r.0.q.F.l.,.r.y.r.6.0.=.o.6.y.o.~ 6.L.W.K.'.,.P ] T P A b i T y.f.y.,.} ' } +.} ! A B B P ! I T ] T T o.,.0.l.K.z.;.' 6.f.4.:.) T T I ~ ~ A _ L.;XS.;.k 0 h b b ~ r.l.:.+.N.f.I U ~ } o.Z p A 0.P A ~ h ] +.P ~ ,.0.,.r.,.^ J =.u.l.e.,.E.7X<XXX].'.L.S.[.l.*.L.l.T i A A P ' | f.l.*.q.E./.l.l.r.6.a.*.h i / A 8 u i 0 d ~ } [.kXyX7XK.+.r.{ A T ~ ~ T n 0 k o.6.} ~ 0.f.,.,.~.,.l.yX%X#X7X9XF.0.N. X;X;X%X*X~.V.N.L.S.,.] +.e.q.0.q.6.4.4.,.,.6.,.K. Xl.l.N.r.y.y.a.i.e.f.,.B P T T P i 2 u ",
"8 A m n } L.XX~.N.K.l.r.0.0.,.,.,.0.r.l.P.K.f.y.y.a.i.0.4.0.f.y.] ,.[.L.N.K.Y.;.H ' P P P b k h _ f.z.*.~ ~ *.6.,.+.U h m ~ { ^ ) T ~ P B } l.z.E.f.H 8 | y.T I Z ) +.6.' P o.6./.XXf.;.b 0 i n :.y.l.] ~ N.0.+.6.6.o.P h i P +.^ A P U h ~ } ~ +.q.r.1.r.{ m T o.K.XX'.r.y.U.[./.E.E.l.S.[.l.1.K.l.T i h m A B T *.a.N.V.l.a.r.&XXXy.q.+.n 4 ] P 4 p h 3 x V.n.;.6.9XgXK.+.q.:.A T } 4.+.b 4 h +.6.{ ] 4.0.l.S.V.4.:.V.7X;XV.u.f.I.#XU.#XyX9X;X<X7X[.L.f.,.} } ~ +.V.6.o.6.r.~. Xf.T o.E. X<XP.0.y.0.q.1.*.'.;Xf.T A ~ A m u 0 ",
"8 A P B b U | =.y.r.y.y.6.6.6.q.6.6.y.N.e.6.q.r.a.0.6.6.y.f.f.6.*.0.'.W.a.u.V.*.T ) U Z A n A +.r.f.r.} ^ ~ *.,.:.e.~ b ~ ' T ~ ~ ) ~ ~ P I ,.F.V.B d L.c.4.r.6.0.,.| *.] P } 4.6.0.y.L.o.& I 6.z.'.V.] ~ Y.E.6.,.f.V.{ h T ^ ) ,.P A U h ;.r.| *.;.:.r.n.+.h T r.].L.a.y.f.a.N.E.[.[.[.W.#X6.B 6.f.T i D ;.o.m T ,.e.6.4.;.r./.%X#XK.,.{ h 0 { A 8 k h 0 P f.l.r.i.1.l.Z.,.P D ! T P } ;.n 4 n +.) T _ 0.V.S.V.V.r.} ,.L._.[.=X X%X9X9X<X5XaX7XL.J.#X<XE.+.] o.) ;.V.f.,.0.u.l.r.,.;.~.XX,.+.,.a.'.aXlXsX X].Y.6.x.6.n A n 8 8 ",
"h Z A m n ] 4.,.=.q.f.0.:.;.4.4.0.l.V.i.+.1.S.K.z.0.6.6.a.f.f.q.=.0.R.[.c.;.e.o.T _ ~ ] A d =.e.+.=.,.+.) ~ *.4.:.4.} B n A } } ~ H P T U ] :.] U +.f.S.P.z.r.a.:.) *.J ~ *.] *.~. Xr.q.4.^ I } F.'.| B y.~.K.1.=.V.6.b b ;.} ~ l.U n U h =.6.) 1.r.y.c.P.6.P | n.<X;XL.y.W.].V.[.#X X~.K._.l.+.6.L.6.d B o.*.~ T :.r.6.6.:.,.q.[.9X;X_.6.d u i 8 8 p h 0 n f.S.f.y.q.V.F.:.~ D ^ +.*.} P h u p Z { ~ ] 6.r.y.r.r.,.1.V.'.K.0.4.K.7X<X~.V.K.XX/.&X'.a.S.N.4.} :.,.) U y.l.;.r.S.V.4.:.V.l.^ ] L.<XP.yXlXlXlX%X'.XXn.) B ~ U b b ",
"A n h b A T { :.o.,.l.n.z.6.1.q.6.y.6._ ~ ,.f.a.4.6.4.*.+.:.:.+.+.l.#X%X'.N.z.+.U ] | U m A ~ +.0.6.+.' } +.o.*.+.r.6.~ T T { { ' I Z P T ~ | +.6.+.*.a.l.4.;.4.*.~ ] *.*.:.r. X;X[.F.~.N.) :.o.4.n.) =.R.y.y.i.u.a.r.^ h ~ T +.a.P Z ' n 6.a.o.) V.N.6.f.q.+.q.L.XXR.l.L.[.P.S.~.K.'.<X#X7XOX:.o.%XS.0 A +.] B ~ 1.z.N.i.+.y.<X'.f.r.0.,.U 4 i u 8 8 h 4 h i.y.,.0.S.XXS.*.' T ^ ~ T } *.U u i B H ] *.:.r.a.q.0.:.K.<XXX&X0.d yXlXaXkXsXyXaXsXXXE.XX/.4.~ o.:.+.,.l.N.0.y.K.K.=.) l.[.a.) +.S.E.L.'. XXX=Xn.N.5XXX6.U +.J n B ",
"n h m A n n { 1.} M.E.N.0.0.0.6.q.z.6.J T 6.f.y.l.a.4.*.+.:.:.+.0.L. X#XE.l.E.,.P ) o.B p A T *.6.6.} ) { ] ~ =.i.r.} A T A I ~ T ' T A U ~ +.,.P ~ 4.) c.].S.l.N.i.:.K.L.e.r.N.S.V.S.K.y.' r.S.L.L.:.l.].f.y.[.%XL.P i +.E.F.0.f.T i h b 6.q.o.f.L.F.N.f.6.*.:.y.[.[.l.c.L._._.K._.[.XXyX7X*XK.] l.6.i h T ~ B ~ 4.N.z.r.r.z.S.;XL.+.f.{ i u ! b 2 0 4 4 P e.l.1.q.].XXn.=.^ ) ) ' +.+.~ A p u A +.+.] ~ H } f.c.K.J.E.#X;Xf.n P ;XlX~.K. X&X%X*X;X].E.0.T +.y.F.l.f.0.a.E.;X~.o.) l.E.V.a.4.z.~.l.[.E.f.jXlXlXlXgXL.o.^ =.] N ",
"b m h n ! B m ~ +.,.N.S.,.r.f.,.4.6.*.I P ' 6.f.V.y.] ~ o.6.=.~ f. XJ.L.F.V.W.=.P } ~ h b o.,.f.z.6.+.+.;.y.:.' 0.f.o.Z ~ P T | | ' T T T ] } T A } :.] V.].m.S.} ^ z.E.N.0.y.z.'.XXXX7XY.T ~ l.L.y.A 6.XXf.0.z.S.V.U A x.E.a.:.q.T h b n e.f.+.:.6.6.;.*.e.N.y.l. XXXl.V.F.[.&X~.W.&X5X<XXX&XL.{ ) ~ n d } :.~ ] ' 6.S.r.,.6.f.a.r.:.) T h u U b ; 0 p 8 P L.l.4.V. XK.0.,.] ~ ] R ) ! J A d q B +.=.} _ T o.f.c.N.n._.L.U.6.D 6.'.&X#Xc.[.gX*X*X;X[.E.S.6._ l.r.:.f.S.].;X5X6.T f.F.l.o.] :.y.'.lXlXgX7XlXlXfXkXyX[.y.~ ] ~ b ",
"+.{ n h T Z Z ' +.4.V.S.0.,.,.e.y.4.~ T H ] q.N.6.~ ^ ~ } ,.a.V.L.E.L.E.R.S.N.] N P ~ B B ] ,.6.,.;.6.6.:.+.o.;.0.y.o.B P _ +.] ] { } { T ' ] R A ' :.+.r.y.*.,.,.6.y.E.N.q.y.;.V.#XL.} ~ z.y.z.F.f.) 4.L.f.f.f.a.V.T A f.=.i.].W.] u p m z.Y.0.+.i.r.6.x.r.;.6.y.4.r.K.V.L.L.a.L.#X[.*X#X&X[.4.} l.r.n k P ' ~ ~ :.x.V.f.:.4.q.S.~.P.y.' i u P A d d 0 * x q.y.0.V. XL.6.4.' T ~ ~ ) ] ' P i i A P ] +.' T *.y.z.c.F.E.XX*Xz.S b +.a.0.f. X5X<X XE.V.f.+.{ *.] ) ] ~ } +.y.7Xl.J y.W.5X~.} +.r.~.kXlXkXkXlXlXgXlX7XL.r.q.o./ o.",
"~ ' n h ~ P m ~ f.6.f.n.a.0.f.S.R.y.| ' T +.6.+.+.=.o.} q.V.f.4.L.XX'.F.4.=.r.~ m ~ ~ U ] ,.4.,.r.l.y.,.=.,.+.6.l.V.+.P +.+.' { { { ) ' ) ~ T T P } 1.*.r.e.,.f.f.f.r.a.l.y.a.K.[.#X9XV.~ *.l.K.l.:.% U /.0.,.r.l.f.r.y.e.6.+.+.a.P h P P N.L.V.R.,.o.i.S.0.0.N.r.N.P.V.[.[.F.y. X&XXX[.l.,.N.~.y.l.0.~ h P ) ~ ) 6.l.1.0.6.V.;X#X#X#XV.I i A P d 2 i 8 0 ' f.l.0.q.~.].f.+.) ] ] ) ~ { ] I h i A P o.+.B i :.R.f.z.L./.[.&Xl.h } u.N.a.N.~.[.[.;X'.,.+.:.+.U { ~ h h } y.y.r.=.+.q.'. Xq.U U K.sXkXaXkXlX=XsXlX%XlXlX[.0.y.0.~ ",
"~ ~ T A B n m ~ ] 6.r.6.6.:.,.y.a.6.} ' ] ' ~ ^ *.*.*.i.l.f.f.4.K.OX~.l.l.z.q.~ T | A A ;.i.e.e.6.0.6.6.:.} ! +.V.V.;.A T ~ ) T ] ' ~ ' ] ] ) { P ' ,.+.0.l.a.r.l.L./.E.[.5X;XL. X[.n 0 U 1.l.V.z.6.i h :.*.~ ,.N.a.0.0.=.=.,.:.:.U i u n f.f.H x A A P ,.r.6.0.] y.E.N.[.~.L./.V.L. XV.l.K.Y.N.4._ _ } A m ~ +.o.{ 0.S.S.a.0.V.9XfX XF.~ i m P h 0 0 h i I ~.'.f.r.;X&X6.I ~ *.6.*.' ) _ T h 0 A A +.] A m A ,.y.l.E.#X[.5XL.h ~ L.;X[.'.#X7X9XY.~ m y.y.:.r.P d n u 6.'.'.].=.,.<X&XN.] T :./.yXlXlXlXlX9X7XyX5XlXlX_.6.e.6.~ ",
"~ ~ T Z d b A U +.r.6.' _ +.q.a.0.,.:.' P T { { T } r.i.f.f.f.S.'. XE.E.~.~.L.*.U } B A +.6.,.,.r.f.f.0.*.} ' +.4.r.{ A ~ A A ' ~ U T ' ' } ] ~ T ' ,.| :.l.K.Z.E.~.~.V.;XsXXX7X#X0.U h ~ ,.l.L.i.A 4 i ) ] 4.r.a.f.) ) f.+.! A A A p u b ~ ~ B P P T :.N.a.4.4.0.N.F.V.[.m.y.l.U.W.F.n.l.Z.V.F.E.+.T } ^ P ~ +.] } e.N.6.z.Y.V.OX[.:.:.U h A P h 2 8 i n } i.l.0.0.V.l.q.:.] ~ ] :.) ~ ] P p i A P o.o.B h +.E. X%X XK.u.XXL.h d ] S.~. X#X7X7X%Xf.| e.f.+.h h I ] ' *.e.a.i.+.0.&X#XS.] I N.<X9XkX7X&XlXlX:.P sXgXsX#X,.0.6.~ ",
"~ I ) T h U *.*.] e.6.} | =.r.y.] +.:.T A +.e.] ~ o.6.f.6.~ +.l.[.XX&X&X;X;X X0.T +.] =.*.} =.6.q.y.y.,.=.| ] ] o.r.+.P +.} ~ +.| T U +.+.+.| | B *.l.r.z./.'.V.K.'.~.~.V.L.;X_.J.a.T h T 6.f.E.f.J Z ] +.r.V.V.i.4.} +.,.} +.+.U B B P H +.^ h n I } a.'.f.} 6.K.E.l.N.<X&XK.[.E.y.y.V.L.[. X X X+.B | T P A _ ,.r.z.N.6.f.'.OX~.l.y.0.A d B A B b b h d _ z.y.F.#X[.~.N.+.' ' { } f.y.o.T i i P P +.o.A i ] L. XN.K.2X<X9XXXo.d 0.5X'.z.~.yXaX/.,.:.N.} u m T ,.y.0.R *.N.=.I f.;X9Xl.b T y.S.XXlX<Xy.F.fXf.+.lX#X=.,.].L.o.R ",
"y.6.+.~ T U U ] | ,.4.' S } z.x.:.{ T B U U P ~ 6.6.6.l.f.,.,.K._.XXXX&X[.E.&Xy.' ,.T ~ =._ ) r.F.N.i.+.~ ~ *.:.} } } } | ~ U T ~ ~ T T U T U U T :.F.E.E.L.n.u.V.E.K.K._.XX X~.'.S.D p I +.f.N.} A 4.r.o.A i.L.y.y.;.+.6.,.+.) ] A i d H +.} T ~ P +.L.'.,.~ r.0.l./.[.6XyX Xl.L.K.z.K.P.U.K.l.S.] P *.] P m ~ *.:.q.q.1.,./.lX9XN.u.K.,.^ ^ B i u i h ' 6.=.~ 6.E.K.S.i.+.' ' { ] T o.=.U p 8 i A o.^ i ^ f.z.q.K.~.L.m.W.S.+.i 6.<X_.S.'.;X'.o.B | +.U i B :.:.,.m.o.h ;.F.,.+.S._ P ^ T } r. XsX<XXXkXlXR.) [.0.] y.~.x.6.y.",
"q.,.o.' P h Z { :.=.*.+.P U :.6.~ A Z A ' ) I ) *.r.V.[.L.f.z.K. X X~.'.~.l.r.^ A I I } } ~ ,.z.z.f.N.f.+.~ :.y.} _ 6.f.:.~ U ~ T T ) o.^ T ~ | T ;.S.L.L.E.E.f.S.E.L.#X*XXX%X7X X| b U ,.' ^ *.6.} 0.r.| T ;.y.N.l.e.r.r.] ^ ' { U b h B T +.' n P 6.S.z.o.] 0.i.6.y.S._. Xm.f.,.6.l.V.n.W.[._.a.] U ) } U n A ;.+.:.z.z.P ,.lXlXkX#XE.I 4 h m h u d 0 h ) +.l.f.q.S.L.r.*.' ] { { ) *.:.' n 8 i A +.) 0 U ,.J.%X'.S.L.#X#XV.} i r.;X[.Z. X&Xr.} T x s ' ' i { z.V.N.6.{ o.V.r.) ] ~ U +.y.) A f.kX9X[.sXlXK.~ %X:.+.~.K.q.6.r.",
"q.,.} ^ U h B ~ ) B { 6.T ~ 6.6.' Z Z T | +.~ ) +.y.V.l.z.i.,.0.S.L.N.6.=.6.f.o.N U ' 0.r.*.,.y.z.V.r.+.T ) +.:.+.] y.r.A B ~ _ ) T ) T b A ^ T P 6.S.l.r.r.l.f.f.q.6.%XsX<X X5X].} b } c.f.c.r.,.e.*.:.:.U :.y.*.*.+.o.+.} _ ) U A n p h +.=.B b o.f.l.l.r.,.6.y.r.f.L.S.E.E.N.r.:.*.r.V.L.~.'.'.+.U :.*.T b P 4.6.6.a.0.;.o.^ T T } f.~ u n n h d p 4 D 6.;.6.l.K.#X~.q.+.] ) ' ] *.+.] { b 3 i ] :.T p n K.9XXX X X X X[.N.} b ) n.[.n. X<Xy.+.A n ~ ,.y.a.h :.7XXX0.T +.| ) =.f.V.y.,.,.4.:.u.XXXX#XsXlXyX,.A <XlXgXlXXXu.6.",
";.,.o.T I T I U ' P ~ *.T B { y./ Z T o.} ' ^ ~ =.0.,.+.y.V.l.L.L.L.].V.P.[.N.P T l.S.E.l.+.6.a.z.N.V.r.*.) ,.;.M b ] o.i 0 b B ~ ^ ' | ~ T T T ~ | 4.f.n.Y.E.L.V.[.yX#X#X<X<X*XXXf.d q.'.6.S.6.{ 6.:.:.6.,.] :.f.0.+.} =.] ] { U I b p n | +.A B q.K.Z.K.0.+.4.:.q.a.V.Y.n.f.z.z.z.u.E.L.n.E.K.~.0.o.y.6.P N U 4.6.,.l.f.:.*.,.,.e.+.d d n n N h i d 8 B ,.*.,.K.&X#XK.0.+.' ] ] ] +.*.] U i u A { :.~ i I 6.V.XX_.;XlXlX9X~.u.p ,.7X'.L.E.J.a.,.A h +.N.E.K.B U ~._.#Xx.~ o.P z.lX<X0.6.K.0.*.a.#XfXsXrXlXlX;XK.kXlX9XyXyXY.o.",
"N.4.o.+.] ] H A +.P A +.:.) T ) P ~ y.E. X0.A ,.e.6.6.:.f.z.f.E. X[.[.n.]. X0.T ' 6.,.6.| Z { 6.:.:.r.y.*.~ T T U +.+.A 4 2 O * n x P +.) T T T T ,.y.,.y.L.[.[.N.L.sX<XiXlXlXaX;XF.n } Y.c.6.} T } ,.6.q.4.y.y.:.:.,.:.] A A A U P n h h T ~ A ) 0.V.V.S.M.i.f.,.f.F.i.,.r.y.+.f.z.a.L._.P.S.f.K.XXr.{ 0.*.I U :.,.,.a.4.6.6.o.A n A Z A i d ~ n u 0 o ~ R.6.q.V.P.XXXXV.,.] ' ] _ *.*.' U h d n Z T n i T 6.S.[.#X<X<X7X;X&X'.A 0.&XW.m.L.~.N.b 8 +.~.XXL.W.5X6.b K.gX&X} ~ A *.Y.K.' h _ 6.,.o.6.;XkXrXlXlX X4.sXlXdXkX<X XP.",
"4.:.+.] T } ~ n Z n m ~ | ' ] *.B +.L.L.].V.+.:.+.;.6.6.V.[.XX[.E.F.n.f.y.r.:.n.XX'.[.'.'.]. XK.i.0.) x p b h n T ;.^ i u * 3 T +.} =.y.+.~ U T ] ~ ' F.&X&X~.].S.S.Y.E.l.L.9XU.E.E.P P ,.*.:.:.+.,.} *.6.=.L.n.,.+.*.*.~ U ' } ) U b p d ~ ~ T 6.r.z.K.n.r.} ) ;.y.f.f.r.+.+.f.u.r.V.L.&X;Xl.y.F.n.o.n ] { P I ] :.6.r.,.:.4.} I Z P ~ n 4 h T m 2 0 h 6.S.,.r.V.E.XX XV.:.) ~ o.*.+.*.] ) T d 8 B ^ B d ! 6.n.XX X X%X[.L.~.'.;.u ' [. XV.4.} 8 h f.l.l.u.y.;X,.A aXgXaX;X{ i 6.}.n.:.+.r.+.] :.f.Y.<XsXlXlX~.+.sXlXyXlXlXyXe.",
"F.:.o.6.+.+.n i A Z T +.*.;.+.~ A ~ 0.=.~ P ] ] 6.q.6.r.0.6.z.E.S.z.L.V.f.u.=.f.V.,.I 6.F.f.~.L.a.V.y.T g n h B *.0.c % k h ^ +.] ~ +.N.i.,.] P ' ) ] ,.z.S.S. XL.S.[.~.~.~.K.J.XXE.Z P r.N.c.0.=.=.] *.q.:.f.J.z.y.*.} +.4.:.,.,.P h A T ^ P ] a.c.y.6.i.r.o.{ a.V.r.,.6.q.,.,.4.0.f.E.#XE.l.l.N.E.=.B +.} P A } =.,.=.:.*.,.4.;.~ A ~ Z d B ~ n 2 0 m ~ *.,.f.L.W.m.'.V.:.r.;.~ :.} ) ' ~ P d u A ~ B i U 0.F.OX X X#X%X;X<X~.u . 6.#XL.*.P 8 B ,.e.f.F.f.*.o.N.OXE.L.W.J.V.} ) a.q.~ B +.+.{ 6.F.f.a. X6XlXlXlX6.f.lXlXlXlX&X",
"a.q.,.+.} ;.) n m n T | T T +.*.P o.6.,.o.~ } | o.6.,.r.y.0.0.6.4.a.f.a.f.f.N.y.+.^ o.} } ,.i.N.z.N.V.+.i h h A o.+.! T :.:.^ } f.f.N.f._ +.0.*.} ~ o.r.6.y.E.S.S.n.R.r.o.r.E.P.[.E.P J l.c.} P | 4.1.6.6.y.].[.l.+.o.0.,.+.] ~ ~ A b h h U A T f.0.z.E.f.0.q.r.y.r.r.z.i.i.f.l.q.6.l.l.l.y.l.z.N.a.o.P *.*.U P T +.q.,.e.y.y.f.P h A A P d d U B 3 8 h ,.S.0.:.4.Z.K.].L.=.] ~ o.+.*.*.+.' A h q A ~ B p ~ f.N.0._.yX5X<X7X9XP.0 & :.V.;.d 8 ] ) ) 0.6.,.+.o.R.#XE.~./.[.n.) B o.q.z.6.] A B } ,.) E.7X X[.E.L.L.{.rXkXsXkX7Xa.",
"V.i.0.6.*.6.{ Z T ~ A A ^ ] _ ) P ~ 4.r.} ! ^ ~ +.0.l.y.q.y.N.f.1.6.l.q.V.~.V.u.+.] ) I +.r.:.+.6.q.V.,.i A i P f.V.=.P U P ~ +.] ~ } 6.6.0.6.' ~ P T 0.;.y.W.n.E.S.+.+.+.1.V.[.#XS.U ! a.V.1.r.y.+.:.*.6.r.l.f.,.:.+.=.} U n m ~ A h h b T A H a.].~.f.y.f.0.6.E.W.l.y.i.f.r.q.0.y.V.z.V.S.l.u.a.a.+.T +.4.{ A ' =.:.u.} OXlX~.V.{ m ^ b 4 i T B 0 d b ,.V.0.:.0.l.~.].l.*.{ ] ] } *.6.:.~ T n 0 P U A T h ' K./._.XX<XaX6X<X;XP J ;.i P ~ ~ ,.6.6.a.0.*.y.#X#XXXXXXX].E.F.e.P *.'.%Xr.H ] +.I B +.f.R.#X&XkXlXlXT r.lXaXkX9X~.",
"y.4.6.l.e.0.} P A U Z I :.o.) =.) } *.+.) ' ' ) } 6.l.y.a.F.L.a.6.,.6.*.l.'.S.y.=.} o.,.,.*.:.,.q.r.c.r.~ u *.I.S.f.o.A ~ P ) *.4.6.4.6.q.,.} ] m m } { 6.6.6.E.f.o.4.,.*.,.y.N.[.E.U P L.#Xo._ f.f.y.q.l.r.f.q.,.,.] } | ) T ~ T Z h h h I ] 6.f.e.q.x.V.l.6.q.L.F.0.4.r.l.y.1.4.y.f.l.V.l.a.N.V.c.6.~ T ' P A ) 0.f.q.S.6.0.OX} i P b d 0 i T A 0 i n ,.V.6.I :.x.f.P.V.+.] R } 6.r.l.e.~ P n i b P P J h | L.~.#XXX~.E.fX;XM 2 e.E.h b ] ,.F.,.} r.S.~.;X9X*XY.E./.r.,.l.4.^ ) l.&Xz.A o.} T P ;.f.U.#X7X&X7XlXlXV.A kXlX7X~.",
"r.:.:.0.+.6.+.P c A ~ ) ~ } +.{ { =.a.i.] ) / h ^ a.a.y.f.N.S.E.N.q.6.:.r.N.f.q.,.o.] ;.,.} ] ] { ,.V.q.P ^ 4.S.V.,.~ P ~ P I :.f.N.y.,.+.~ _ :.P b B U o.] ] f.u.1.6.:.0.V.l.6.K.Y.P ] 0.,.] *.f.V.u.y.z.u.V.N.0.:.~ ] 4.,.] H T Z h u i H ' :.y.W.'.K.L.K.y.6.E.V.1.:.:.r.y.,.6.z.n.F.N.N.S.N.f.e.*.' ~ ) A A ;.f.V.l.V.l.q.y.T Z P b h i u ~ A 0 i h ;.S.r.~ +.F.l.f.y.,.] { ) N 4.N.r.:.~ b 0 m U P P B A 6.XX~.L.XX].<X7XV.s } S.i 4 r.7X[.%XL.:.f.*X9X~.R.S.y.f.N.N.r.,.) o.1.' ~ } ) =.] Z h 0. XXX<X7X*X%XkXlX5Xm #XlX].",
"/ ] *.4.6.6.} P n P ! ^ *.+.+.4.6.=.] +.} U m h } y.f.e.l.c.u.z.f.e.,.e.l.F.F.r.] o.,.4.,.,.=.6.r.q.4.:.U i } L.V.4.~ P T o.+.o.a.f.i.r.,.,.0.0.P n B b } =.o.6.*.] q.6.=.,.=.0.~.~.~ h *.L.r.0.l.q.i.q.0.y.V.F.i.6.+.+.*.:.;.~ U ~ b u b B | 6.r.L.F.y.n.E.V.q.P.L.z.u.u.z.y.0.l.l.l.N.z.l.f.V.a.e.:.) ] ~ B A o.f.K.z.0.] B A U A T } n 0 u A m 0 u ) V.l.T A ,.K.l.x.r.T ] o.^ U +.q.*.U T B 0 i A T P A T ,.y.S.[.XX[.&XL.! B '.9X:.~ z.XX'.XXL.1.+.N.;X7XE.c./.XX[.P.F.S.+.~ { i n ,.+.b k ~ A H y.<XlXfX X%XkXkXyXlXF.d d ",
"/ ] *.f.K.l.+.m 0 m P Z ~ } +.} } ] *.6.} ~ ~ A J ,.S.c.i.n.].L.N.r.,.r.f.y.l.0.=.o.+.} ~ ) o.+.o.,.=.] P A } l.r.*.' { } H ~ 6.l.N.r.q.z.F.K.W.} h h d ~ =.+.*.{ ] I ^ :.;.,.:.f.V.+.P r.].0.y.l.l.F.K.S.L. XR.i.6.o.] ~ T ~ ~ H T B 0 i ~ N ] [.f.6.z.P. Xa.] F.E.y.y.S.V.y.0.u.F.E.L.l.r.S.l.y.q.+.) } ~ Z m +.S.S.r.0.,.o.} T I I Z b b b n b i u ~ r.y.0.] ~ 4.L.V.} I U ~ P B *.6.;.{ T h i h A P B b A +.N.E.S.V. XyXV.h S.r.i A U z.%X}.~.l.6.+.M.9XaXyXOX~.[.E.S.V.E.f._ T A T ' A i 0 m ~ ,.0.f.fXlXlXlXlXlXlXlXlXP.I ",
"+.] n :.S.l.*.n u 0 n P ^ { 4.6.*.} +.o.~ T T A P ,.S.l.S.K.F.*.0.i.,.r.c.y.i.e.0.0.] ) _ _ ,.=.} +.:.) I 0.V.V.q.*.{ ) ) ,.+.6.].#XY.N.l.| T :.] b d i ~ } { *.~ Z } ~ T o.} ;.S.K.o.T 6.N.6.z.V.,.q.c.F.L.E.K.z.z.*.} :.;.} T n U h u p P +.6.y.~.'.F.l.f.+.:.].OXS.r.i.e.4.6.f.c.x.K.r.z.W.f.y.y.6.] } P h T 6.l.N.N.l.r.6.] I I U ~ A i d U Z 0 8 I r.y.4.] _ 6.W.l.T I T ] { A } 6.:.] ] I 8 0 n U P h B :.J.J.[.;X&XyXF.d &XL.q U _ V.XXF.1.,.0.V.Y.XX9XkXlXlXlXXXr.L.~.r.+.0.B 0 h 0 b n B T ,.r.K.kXyXK.;XlXlXlXlXlXgXl.",
",.} A +.V.f.| B 0 m ~ T ) ) 4.l.*.] *.+.] ) T b | V.z.1.,.l.i.x.f.V.l.;.r.L.l.+.~ } *.*.o.} +.*.+.,.4.) P 6.S.V.r.+.{ ) _ +.;.+.q.V.r.] ~ ~ ] } U T U u *.6.b { ^ A U T ~ T T ' f.E.N.+.,.~.K.f.f.q.c.F.V.V.V.N.r.q.~ +.f.*.T P U { P u i B :.:.+.r.i.r.N.l.1.,.l.S.z.f.l.,.| 4.f.S.l.6.,.6.y.f.6.,.+.] } ~ P P o.i.V.l.,.| } ^ ] ' I ) P h b U m i ~ r.l.0.,.} A ^ F.S.=.] T } { A *.r.,.{ T h i h P P m m T +.;.V.[.N.D M.l.u y.F.o.A T l.XX]. X~.F.[.yXgXrX7XXXK.l.V.K.S.a.=.,.:.U P A u h n m ] ~ A 0.lXrXN.*XlXlXlXlXlXkXf.",
"/ ^ A ,.XXl.{ B 0 n ~ ' { ] ,.0.+.o.} ) } ~ T +.) +.6.;.f.u.:.1.1.:.,.6.K./.Y.q.,.f.0.=.o.~ ] *.:.:.1.} H ~ l.S.6.+.+.*.+.] 0.A._.XXL.q.,.} { } T P P Z 6.6.A P ~ A A P ] +.+.+.a.L.y.} ,.V.f.0.r.V./.%XL.r.V.l.q.6.H ) r.6.| ~ ' } U n b A T *.6.,.;.0.V.y.] ' l.K.l.6.r.6.:.f.y.f.i.6.y.r.r.N.f.6.*.~ ^ U m T +.N.n.L.].z.o.*.) A P } T d b | A p A 6.l.y.6.T } F.Y.l.;.) ~ ~ U u T o.) P A Z i 8 n T A n P +.6.l.<X;X! i.9X#X#X Xy.A P V. X~.[.P.F.[.[._._.;XyX*X].N.N.K.y.:.,.6.n h P i 0 p P o.) U 6.dXlXlXlXgXlXlXlXlXOXs ",
"i.P Z  XgXV.T B u u i u i Z ] o.o.=.+.) ~ ~ T T ] ;.4.+.q.f.:.4.q.f.z.,.~.9Xl.0.r.6.y.0.,.4.+.~ T +.U U :.+.,.,.T ] ~ ] :.a.q.a.'.XXU.0.| o.o.! h m A A *.{ n T P B T } ;.o.+.6.x.f.+.} 4.S.~.N.y.N.a.x.~.~.~.Z.a.,.~ ,.6.] ^ ~ T T n h h A A H 4.=.e.n.V.L.:.~ %X7XV.4.y.:.*.n.~.x.0.q.6.N.L.F.f.,.+.' U Z A B T f.V.l.N.r.=.i.+.I ' ~ m 0 d T B i ~ V.V.) T :.l.z.N.6.} } ) T m d Z ] } T ] P 0 q Z A 0 3 n o.} ~.~.+.] XXgXOXY.l.*.~ P V.9X<Xc.V.<X#X5XyX7X_.7XlXlXlX6Xu.'.0.~ :.h d n d b u u A } +.r.~.gXlXkX XU.%XaXkXyXY.",
"G.' O *.gX9Xr.p q i u i h m } N.z.6.] ] ~ A A T B { c.y.y.y.1.I 0.K.q.n.#XE.*.} 6.6.4.6.6.4.;.' ' ;.m i T _ 6.6.) { ~ T +.L.;X X X[.l.} _ +.+.~ n h U P s B | P n b m n ~ *.6.N.K.l.:.{ 1.K.~.K.r.1.i.S.L./.U.c.6.*.} f.z.o.T U T P ~ A n Z U ;.c.f.N.N.u. Xn.,.P.}.R.N.6.,.l.[.'. XR.6.1.l.Y.S.q.r.6.~ P U P T } 6.f.V.V.6.:.0.} ) +.] Z 0 i B h d T *.=.:.:.*.,.q.y.6.+.o.+.o.U A P +.{ b T U 0 q B U A B U +.=.0.6.z.rXgX7X#X[.,.b U ) S.9X&X&X#XXXXXXX X;XkXlXkX6.o.P.5X~.S.f.+.p b U h 0 8 h B ] ,.u.y.'.OX X X#X#X[.yXgXK.",
"6.m U '.dXy.~ ] A d i i i ) r.f.l.,.+.:.^ T ~ U } ,.,.q.l.6.) ) *.l.~.[.S.6.=.o.} } ] +.o.~ A m P } m d ~ ] r.6.) P ,.N.q.[.L.] *.:.6.f.6.*.{ ~ b b T U I ) ' U b m T P I ,.F.N.S.V.:.~ 0.P.n.1.] ,.6.0.y.F.S.q.+.:.+.6.6.T B A A T A x m P U *.z.4.+.0.V.F.e.4.E./.Y.~.K.a.0.V.P.].R.q.:.0.y.0.e.=.] ~ ' T Z A ) 0.a.z.l.+.' +.o.o.} o.U u d Z h h U N.V.' T } :.+.*.*.^ T ~ ) T n U ~ +.' P m u 0 n ~ P i 0 A :.S.} i S.'.N.V. Xr.m T ) a.K.f.R.<X9XXX%X9XsXlXlX'.z.q._.5X[.V.r.*.i h T 8 4 q s P ] ,.y.l.[.&X].gXkXaXsXlX<X,.",
"6.A m L.aX<Xf.J m p u i d B ^ +.+.{ ^ P T T ~ T H ] 6.r.E.V.) ~ o.S.7X[._.'.,.] } +.e.:.I Z A U I P b h T o.*.{ ' o.l.E.F.#XK.+.,.6.,.=.1.:.| ~ n n T h m ] ] N p b Z A ~ ,.N.S.Z.N.z.*.+.F.F.z.q.0.q.E.XXK.z.l.V.,.~ ,.6.~ T T P } P u p n :.y.,.=.6.l.a.y.y.a.V.~.XX XS.,.6.V.L.&X&XS.y.y.a.0.+.,.:.T } ~ Z P ~ :.0.r.r.] ) 0.} } 6.+.A 0 d m k k T } +.:.*.*.+.=.:.*.' U T _ T A m P ~ N P B i i b k u u 0 T 6.Z } ;X9XyXyX;Xf.P ~ r.*.0.L.y.9XlX;XL.XXsXyXc.,.l.l.f.F.L.z.*.} *.h b P h 0 4 p U m ^ z.S.].yXlXlXgX9X[.&X[.1.",
"6.F ;.rX7X X6.P P h d h n ~ 6.r.y.o.~ ] ) } ) T T ~ } ~ o.*.~ T | N.'.].Y.r._ ] +.o.+.) P T P A P P n n ' ,.| P ' 0.F.L.F.V.l.r.y.y.u.y.,.{ ) o.Z p m P P Z Z ^ T A P T h ~  X&XK.4.a.4.,.f.V.l.6.r.f.E.~.V.f.,.q.F.y.6.6.P U A A U B i i P +.~ ! a.N.0.r.,.+.a.;X<XE.S.y.l.K.'.'.Y.E.W.l.1.y.r.:.=.;.] ] ] ' P I =.l.S.V.f.y.r.+._ ] ) A 0 d T b 0 A K.L.+.6.r.6.+.*.+.| ] ~ +.] B A U ~ I P n 8 4 B P u A P A 0.:.0.~.[.XX XL.] b ] V.y.e.K.XX6XyX;XV.l.].~.F.'.&X[.9X7Xn.;.o.6.1.0 h T i i p d A b P *._ 0.l.0.<XlXkXkXkXlX%X",
"9.+.- =.sXXXf.:.U h i h n A } r.i.=.T ~ +.] ] :.~ T } o.+.+.] | r.f.l.f.S.N.{ J o.=.P ~ } P U P A U d P 6.,.' P ] r.f.6.6.f.W.[.F.S.z.0.,.+.U I n h b P ^ ] ~ | ) P P T Z ) a.XX XV.N.:.) ,.l.V.y.6.y.r.q.q.,.0.f.f.o.o.6.A D P m P B h b A ~ | _ ;.e.0.y.=.,.F.'.'. X<XV.r.S.E.L. X%X'.y.z.E.r.4.e.6.*.+.] ~ U ] _ *.0.c.z.r.y.:.^ o.+.A q d T n 0 U *.q.6.+.) +.0.=.:.:.~ ) ] ~ A B ~ ~ N P n 4 0 p d i P B U 6.4.*.q.V.~.z.o.A f.XXu.:.q.L.].9X7X'.'.E.W.].E.J.L.#X<XP.q.*.] y.E.x 0 P u u i i I h 0 B | f.K.V.V.r.] ' [.9XN.",
"h.;.0 6.gX&Xz.+.B h i h m A } r.q.:.} ,.r.o.I P ] +.] ~ =.=.~ } 6.l.c.N.f.;.' ) ] } o.H A ] ' ] ~ A Z *.l.z.+.Z ) V.Y.K.S.~.P.f.6.N.S.6.4.} U A n b n Z ~ ~ ' +.T x A T P J 4.z.E.L.N.*.+.S.R.F.y.,.4.N.W.z.,.6.y.} H _ +.A A B B P b 8 0 A ~ B A A ,.V.l.,.6.V.'.XX<X;XK.S.[.%X;X%XXX~.a.q.y.i.4.:.+.} ] ' U A U +.6.f.n.f.} +.] :.r.*.m 0 p T b i T 6._ x ' +.*.+.*.4.*.~ ) ] T U i P ;.~ ~ T d 8 m ~ i 0 i T q.+.,.].#X[.f.+.T :.S.z.6.4.E.yXaX7X<X5X;X[.L.E.N.f.a.i.l.y.+.f.K.:.r n ' d u d d i u d D { z.S.f.V.l.e.y.:.l.~.",
"V.6.h 6.XXa.6.6.:.n 0 d b B o.y.y.} ^ +.] | +.~ I ~ +.6.0.q.;.T *.N.c.A.l.:.' ] =.*.} U A P ~ ] ~ Z A o.f.N.+.B ' F.[.c.6.]. X0.l.l.f.,.+.:.,.B h n P ! o.*.' b T :.U U T T ! 6.V.S.q._ o.f.S.l.y.V.V.N.S.z.q.6.,.+.) +.,.T U ~ T ~ B b D P ^ T m ~ ,.q.f.,.] 4.E.#X XP.'.E.L.[.]. X_.L.K.S.a.f.,.o.o.~ J P A ~ P T 6.l.q.,.+.*.{ +.6.o.m u d ~ n 0 A S.V.:.6.,.,.6.;._ T T ) } ] B i P ;.*.] A d 8 d b u u h T 4.y.M.E.`.5X].:.U ~ 6.x.6.1.P.9XaX;X;X5XXX X9X;XL.4.r.].<XP.4.*.:.T 0 B ~ 0 0 i i i d 0 0 { f.'.;XE.0.4.6.) E.yX",
"6.6.~ n M I 6.y.T B m P U ) ,.a.6.} A ~ ] ) } ' U A U 6.r.*.~ P ,.c.y.r.6.;.] ~ ] +.^ P ^ ~ ! ] { m I r.z.0.} Z P o.+.{ e.#XqX5X5XyX;XK.*.' | U P n A *.r.y.} n { ,.] ~ B A ) +.6.i.6.,.6.y.f.S.L.L.S.l.y.r.r.y.r.} ~ +.;.m U ] U ) A u i h ^ ~ A U +.y.F.6.o.l.K.n.S.K.f.l.~.L.P.[.].V.,.6.l.f.,.] ] } *.;.P m T *.l.z.z.f.0.r.4.} :.+.A h h A m d T S.N.o.*.q.q.,.e.:.~ ~ ~ ] ] ' k Z +.o.~ A d 8 p b h u i T 0.,.6.K.XXXX,.h 6.z.y.r.:.:.[.lXlXkX*XK.XXfXyX'.E. X[.#X[.l.~ U T h 8 n T h h h p h 0 8 n | ,.V.'.[.E.F.z.5XkX[.",
"!.N.] ~ m B ~ =.:.U h B U ) :.f.0.] P ~ ] 6.a.o.P P +.V.a.] ) { l.Y.K.'.N.{ { ~ ] +.{ ~ T ~ o.+.+.| | +.0.r.} Z I | y.A.'.&X7X5X9X'.K.n.+.] +.P A B ] 0.e.,.{ ~ q.i.] ] P ~ { T +.=.} } +.6.4.f.N.z.z.y.f.N.y.r.;.B ~ | U Z o.} T +.A i A B h k A T r.l.6.*.+.6.a.K.F.f.e.L.&X[. X'.~.S.0.r.z.r.o._ =.o._ ' P Z U *.r.0.0.;.o.6.,.6.y.{ B h b P n h T *.=.4.e.,.*.,.} ) ) ' ] ) P P i A +.o.' m i 0 i h i u p T 6.:.6.~.;XL.T n S.K.,.y.,.4.'.lXlXkX7X[._.~.E.5XsX9X#Xy.+.,.~ ] ~ d 0 A U h U B i P h 4 d 8 6.S.0.L./.f.f.5X7Xy.",
"0.!.6.} @.P :.a.*.B h A P ~ ,.a.z.o.T o.o.] 4.o.' T ~ 0.e.] ~ { l.E.K.l.0.:.] ~ ] *.;.{ I U *.6.:.+.H ) y.0.:.~ A ] 6.V.Y.E.L.F.z.x.K.K.,.P Z ~ x H ,.4.q.:.+.] T +.i.+.A A T T B N } ;.6.i.y.6.l.~.N.l.F.V.z.,.P Z U I Z A A ^ ~ ! h d A n d n P d ] S.l.r.,.6.u.K.V.u.V.].XXXXXX*X'.,.o.0.f.l.r.f.r.*.:.| H B T *.y.r.6.0.y.z.*.;.a.*.B p b P d m ,.z.L.S.l.r.6.,.;.) ~ ) T ] | A h Z ^ } ' P B 0 u b q 0 i T r.r.6.,.q.~ B ;.V.[.S.r.+.l./.z.%XyX'.e.,.q.q.x.l.i.V.q.,.,.~ ^ T d k b h d T Z u A p 0 m m A ,.f.L. XXXXX[.;X%X",
",.6.,.o.4.+.6.r.} | P n D ~ ,.r.q.r.7.z.f.f.y.4.] P I ,.;.' T } ,.a.K.S.+.I ] { ' ' ] ! T | +.,.:.6.~ U +.4.y.,.:.a.~.XX'.'.V.E.kXlXyXl.:.U A A _ 6.6.} { ^ ~ ~ ] ,.6.o.^ ~ U ^ ~ P ~ ~ o.f./.F.6.y.V.'.#X'.E.r.T A ~ ^ P B ~ U B ~ m 0 b T ' ~ Z A } r.4.6.;.*.F.OX XS.~.q.,.OX;X[.V.l.;.i.~. Xr.] =._ ] *.] A P :.0.*.*.,.a.L.f.0.f.6.P h n b 4 I ~.R.y.*.;.,.+.] +.] T T ~ ~ T P h b P o.] A B b d n T U P Z m U ~ T U U ~ +.q.y.6.r.6.=.,.:.4.U I ~.rX_.q.~ S.<XN.N.S.z.y.o.A n i u i h B b i n i q B b I :.y.K._.XX%XW.N.,.",
"] r.,.] 4.e.:.q.6.T h P o.I ;.E.F.6.r.g.6.q.4.f.o.i A R } ,.| T ' 6.v.W.z.+.' ) ' T *.o.) :.6.0.6.6.U A :.+.] +.,.,.,.,.:.] N.XXf.a.y.} U P P I ) ] ] o.] } ,.6.:.q.S._ I ,.;.4.} Z P | [ +.n.P.r.6.N.z.z.R.l.=.~ n ~ ^ A n T ^ Z ] P b U U A H ~ P ^ A 4 i ,.E.a.V.W.K.~.z.6.:.i.V.l.f.:.0.E.V.:.o.;.+.4.} P A U } 6.6.] { :.6.+.=.r.+.B p h B b I 0.y.*.U ] { ,.;.+._ ) ] } T B n p i A } ] T B i 0 d n m U Z 8 k Z B A h A 6.:.} 1.f.f.i.f.r.a.y.;.q.Z.[.;X&Xl.+.V.~.*X<XE.0.U 0 8 h b b D n p Z i 4 i P ;.f.n.&XsX6Xy.{ } ;.",
"6.} +.] +.y.:.6.4.o.P U ] U ;.V.g.6.f.6.4.,.4.r.+.8 x P ~ T T R =.a.N.I.f.+.{ P ~ :.} T } ;.6.q.0.{ B A :.y.6.| :.o.6.,.,.6.,.:.0.{ ' ,.U o.6.*.V.z.6.,.N.z.+.~ ;.,.) z.y.n T _ o.} ! P +.6.+.} ,.r.=.z.&X Xf.*.~ m T P B n P A Z ~ b 0 b A ] :.| +.T ~ y.+.b H :.0.S.~.l.0.6.0.a.E.L.y.4.F.*X<XV.] ;.+.+.} T B I ] 6.V.r.:.F.L.6.:.e.+.B d d A u ^ E.V.} ) +.=.+.:.r.:.~ ' } ) ~ ~ h u A ] o.I n h q p P ' ~ m q k P B n A :.N.z.q.l.~.'.y.f.yX&Xa.l.S.| ,.7X<XZ.4.V.V.a.i.S.r.B i b B h h P b i T n i P A ;.q.,._ +.N.XX~.q.o.",
"%.4.,.^ ] +.e.6.} 4.,.6.4.,.;.:.I C ] 6.N.e.4.r.a.T 0 x Y P b } l.l.l.V.a.;.] ' ~ _ +.{ ^ +.e.,.~ U T :.r.*.~ ~ ;.r.f.y.f.XX#XN.] ^ ] P P ) ,.a.l.V.z.,.f.f.;.,.N.a.) l.6.] 0.,.| } I T +.=.*.0.V.V.N.}.&XK.N.0.] P P I A h P ' P ' A d h B ~ ] ] ~ +.0.,.4.4.6.6.q.,.,.f.S.l.1.r.S.~.E.l.y.F.;Xf.A ] +.+.} I Z I :.i.6.,.o.r.~.6.o.0.+.n h b B i { U.a.] ' *.] 6.a.:.] ' I U T T T n q A } ] I B i u h b m T ~ B ' { m h ~ f./.XX<X XJ.L.N.0.V.n.S.y.a.F.l.) =.;.0.N.L.#X&XL.6.P i 0 u d h m h h T h * p P o.l.L.S.E. X~.'./.r.",
"@.r.N.+.p.+.P +.7.R.F.r.4.g.e.6.Q h j ! f.A.6.f.V.;.b ' ~ +.x ) ;.y.} l.l.o.] } } +.:.:.4.6.4.~ I } ~ *.y.+.) ,.c.S.f.0.r.N.V.:.] } ' P x *.K.E.].V.:.:.V.z.+.o.K.K.+.a.q.,.f.6.,.4.+.] ) } =.:.6.y.~.f.a./.V.0.T k A ~ A h P T A ^ P b A ~ +.+.U ~ ,.r.+.q.q.+.o.4.6.;.1.V.'.K.L.E.V.4.o.0.F.W.6.~ +.;.:.,.+.H H 0.V.,.^ 6.V.N.:.! r.f.~ h b T b I W. X6.T ;.;.*.6.,.] } ] U ) ] T i q A _ :.| b i u h b A P B ~ } T d i ;.R.E. X#X*X<XV.;.y. X;XE.y.N.6.+.f.[.*X'.~.#X7X XL.6.P i i p d i n P m U b i A U } z.~.P.K.[.7X7XrX9X",
"] a.9. .^.^.z.+.r.f.e.@.7./.R.g.2.3.0 p Z S.z.L.,.4.~ R A { ;.I G Y T l. XC.:._ ] o.+.1.0.,.e.;.~ } B A *.+.] o.+.f.V.l.f.r.r.y.6.T U ' ;.e.N.F.~.a.o.r.i.6.*.*.l.K.z.+.q.S.6.,.1.*.) ) ] ] R ] 6.f.4.+.4.0.} { ' h T ~ b n T P Z { P b A Z U ~ ~ ^ 4.q.] o.:.,.o.,.:.+.*.N.'.E.V.].XXN.f.n.N.:.~ ) ] T ] +.' T ] r.0.;.6.f.~.L.q.,.f.6.P h b T T ' f.l.6.| +...6.4.:.4.+.T ~ { +.^ Z i m +.:.{ P 8 o 0 P T B n ! ] o.| T r.R.z.XX[.l.F.F.e.i.]. X_.V.f.6.4.c.f.1.l.#Xl.x.<XL.,.b 4 i d i i A A k P B n m b +.] 8 n x.#XU.#XgX9X",
"] :.^.] @.%.e./.=.;.r.:.2. .6.6.6.g.7.p Z n q.4.:.~ T _ | I 0.~ L G G <.V.0.{ ;.;.*.| o.q.K.l.| ^ +.A b { r.,.~ *.z.S.r.:.:.*.,.f.6.T ) :.,.] { F.S.0.z.L.l.:.,.r.f.y.) 4.K.l.y.r.,.+.i.6.U ~ } } ,.y.S.z.0.{ +.{ d T ^ n n T T m { P h b d n P n ' :.;.;.,.| ] ,.4.;.+.4.o.=.f.0.E.&Xl.,.4.6.:.} } 6.6.o.~ I ~ ' ,.e.+.y.F.L.z.r.q.f.,.I h b T P ' r.l.6.{ } } *.r.e.+.) ~ A ~ ^ A n h h P } o.U 8 % 0 b P T P T _ ' ) U ,.W.&X9XF.{ 6.V.z.0.f.E.S.y.u.6.,.,.u.V.y.+.] q.y.~ ~ U 4 i h r u A m k ' B d Z A T 6.J.1.A m u  XjXV.",
"+.8.=X} +.A o./.L.z.9.G.g.7.N.g.V.4.4.T n m ~ 7.F.:.6.,.1.' ;.*.Y M B &.) H ] { +.+.P +.K.L.,.b s b Z B b ~ 6.y.6.+.} +.;.} *.4.+.~ A ~ r.N.f.a.a.K.R.V.F.a.=.:.y.f.i.*.q.F.y.r.6.:.,.y.6.T Q { ,.;.,.,.r.q.] ' T d h h h A } ~ B ' P n A A ~ ~ ~ ! 6.N.6.6.r.0.6.6.6.0.,.,.:.*.' r.U.~.F.N.N.*.! o.+.,.+.T P ) +.6.r.:.6.f.x.Z.6.q.l.,.A d Z o.U o.'.V.:.+.' ~ ,.q.,.o.] ~ A U Z h h h n +.:.{ P 0 $ u A T A P ~ ] ) T +.L.;XXX~.:.h B r.Y.V.V.V.f.y.XXF.| 6.f.y.l.L.~.L.y.~ { U 4 i d p b ~ P h ~ P i b n ~ ,.f.%Xl.0 8  XlXE.",
"z.M.N.;.} } +.] ;.f.4.6.6.,.y.y.+.2.q.~ t H J q.6.7.:.3.+.,.:.P c T H n B M M B T =.0.| n P ~ @.' B d J :.6.e.,.0.r.q.,.=.} *.4.T A ~ ,.y.l.r.| 4.l.N.f.y.r.4.} 4.i.y.| 6.F.a.S.f.,.=.a.e.:.=.;.0.6.^ ] 6.;.~ { U i i b P Z { A p ^ Z q d m T ) U o.+.+.r.q.,.1.a.a.f.f.+.+.,.:.o.0.V.V.6.+.,.a.T b ;.,.{ ~ ] { ~ +.,.4.l.c.S.F.r.y.l.4.~ n N ] P { E.N.,.{ +.4.y.y.,.6.;.~ P U A n h h b T +.} U 8 $ 0 A ~ ~ P A T :.q.*.F.&X#X[.,.Z r.V.F.S.z.V.z.r.y.q.:.,.0.V.K.f.y.N.l.) ) P 8 i d i h ^ A h ^ B h A Z { +.' L.[. XkX~.b B ",
"+.4.M.]  .i.] =.g.y.a.f.:.^ r.f.3.7.f.o.t h H 6.4.,.P ] g.e.l.N 3 x +.] b H M H P T 1.i.V.~.T M ,.n Y u.z.0.6.*.! S.#XF.} } ,.:.:.+.;.i.S.q.+.,.0.0.,.:.+.r.F.r.z.z.,.6.' ] f.q.6.0.q.l.z.y.,.*.*.,.y.F.y.} ] o.T 0 Z B 0 h B n k ! B u p m ~ T I } *.+.6.6.,.6.e.l.0.,.0.,.+.+.U r.<X&X,.*.F.z.T h U _ ] ] } { +.4.,.o.y.E.F.~.z.N.l.} A ^ ,.+.B +.[.n.6.o.{ +.a.0.:.q.+.~ P A P P B h h B ~ } A 8 % 0 A ~ T A T A +.u.} q.N.4.f.' b +.a.0.:.E.[.V.r.n.N.l.n.V.'.E.,.4.6.=.' +.~ * 4 d A b T B 0 ~ B 8 i h T *.' i z.lX7XR.r.o.",
"e.4.N.q.y.Z.(.(.z.7.y.7.:.+.6.r.X.+.9.,.h i A P ;.y.' [ >.;.u.{ 3 8 8 +.;.H M M M x ] 0.f.F.6.H x d ] n.L.6.6.f.y.~.a.I +.6.,.] ] { ,.r.l.z.z.N.F.y.*.,.,.6.6.=.z.S.6.=.+.:.+.+.1.q.S.z.N.V.6.6.0.0.,.+.,.4.+._ Z 0 h n k h T P A +.B u A B A ] +.r.6.*.6.,.*.6.r.f.q.:.*.f.R.S./.sXfX'.~.].z.r.' B Z Z ~ ] ' o.+.+.1.*.r.S.E.E.6.l.N.=.=.;.{ ] Z +.].K.6.} } o.6.6.*.4.,.' I ~ ] U h p n T ] ] B 4 % 0 Z ~ T B A ,.;.Z M ,.I.'.;X6.u +.:.r.f.0.a.c.f.f.y.r.u.V.z.Z./.#XF.;.' ;.P ; n n 4 8 k i i T b 8 i n ) +.~ ;.6.S.lXlX;Xx ",
":.A.M.S.6.r.A.r.M.a.f.@.] :.+.} X.+.6.6.g r B x R ;.| ' o.1.,.:.- - x u T F.M.) P b I ] ,.6.o.B B | *.a.K.,.r.l.y.f.0.' B U ~ ~ T ~ ~ =.K.L.y.q.y.4.] } ~ 4.~.S.V.e.I T o.6.y.e.0.r.l.l.0.a.V.l.0.4.4.q.e.6.6.*.T Z n k h u ' { n o.A i Z Z P ' *.4.6.0.r.6.:.;.a.V.l.V.f.,.~ ~ ~.*XXXyX<XK.l.r.+.T A ] ] ) +.+.{ 6.,.*.i.'.~.S.q.6.l.6.U ) 1.H i ,. X;XN.~ *.=.6.e.6.4.;.+.{ U A P n h A U ~ =.| 8 o u P A H ) ~ P T ~ A q.L.6.x.) n *.f.f.r.e.f.V.S.y.F.~.z.N.E.U.K.0.1.4.} P p 4 0 i 0 8 B P b =.n u B b I =.r.y.#XyXXXlXsXl.",
"r.6.F.F.f.y.A.i.q.6.N.e.] e.f.e.j.6.} *.h A ) n B D +.| M.l.1.| 6 8 2 2 i R E.C.z.0.6.+. .#.^ p d H { y.S.6.:.,.' +.~ N U n P ~ I U | y.S.V.y.0.6.*.+.{ T 6.L.V.1.^ | e.:.6.l.:.r.R.Z.N.S.z.q.6.N.~.F.S.f.:.6.;.' } q 0 b b T T A ~ B i h h A ~ } ,.6.1.,.*.r.[.#X~.i.y.S.N.z.V.y.K.L.+.r.W.f.q.6.:.o.A I { T +.:.=.;.{ r.Y.OX%XE.f.0.R I } ;.] ^ { ,.a.0.+.1.| =.,.q.y.,.| ] T B h h b b A ) } ] m 4 3 b ~ ~ N B ,.,.P U o.V.}.L.+.d x 4.F.V.W.E.K.V.q.,.N.Y.K.l.l.z.L.N.=.o.U d % 0 i 8 8 ' ~ b +.n q m n T ,.u.r.[.aX<XqX*Xf.",
"F.o.r.}.f.g.N.Z.] +.7.q.:.6.r.i.g.g.q.6.x h ~ ) U T P ~ ;.1.y.M.U 3 4 r s e ) T.z.r.V.K.q.+.J h z U ' 6.e.*.:.+.) ] } } } ;.:.:.,.} +.y.N.V.Z.L.l.6.,.+.+.f.S.+.^ +.q.0.6.r.f.0.N.'.K.F.z.u.q.y.z.K.K.a.6.,.6.] T P i 0 d h A B n ] P p b n h n Z T *.0.6.6.4.=.r.y.l.S.z.F.L.l.f.a.y.V.6.o.y.V.i.*.~ B T } T } V.K.4.~ 1.E.].L.'.~.l.o.I T ] b d I ] l.L.e.=.o.+.] :.6._ U ~ T A n b h h m T +.) n 8 4 q h P { ,.6.| T P :.f.y.V.| h { o.r.z.q.~.~.0.z.L.V.y.0.~.9X<XXXf.+.} T P / 8 - d 0 A Z i P m u h B B n T 6.[.[.n.V.~.E.",
"A.e. . .;.6.g.A.o.r.7.,.N.r.a.i.7.e.e.6.~ u b B h m 4 ' | 1.y.M.0.8 6 3 6 z e R 6.0.a.f.z.z.,.n M M b ) ;.} { | +.;.] ~ :.0.f.r.o.=.r.V.].#XXX[.l.4.*.} 6.r.+.] o.u.x.0.0.6.6.z.n.K.L.F.K.L.6.0.z.l.L.V.,.} ,.] A ~ d u b d ^ T b I m d b m h n o.:.y.N.6.) ] 1.f.f.y.r.0. X<XK.S.[.XXE.l.,.*.l.n.6._ M ~ ,.{ { } +.+.+.6.a./. X_.[.V.6.) A P A A A A 0.4.A ~ T ~ +.*.+.:.;.] P A n B n k A ~ ] ^ n 8 2 q b U ' :.6.o.I A 6.f.o.0.' h n ' 0.S.~.XXS.0.E.~.a.,.0.K.#X*XY.1.;.| P A T 3 4 h i b i 0 P Z 0 d A B B ' q._.%XK.F.E.L.",
"F.e.| } ] ,.4.y.N.~.S.+.q.+.r.Q E S T T ~ 8 u h n d 4 ~ :.1.y.M.W.y.* 6 a 6 u 8 h 6.z.i.f.:.4.=.Y u x M b B B P ' 6.y.,.1.0.0.0.4.q.V.'.XX XE.S.4.o.;.;.f.y.} { :.,.6.6.r.q.o.o.0.l.a.y.u.c.l.q.a.V.l.a.f.i.L.=.n ~ h 4 0 b A b d A b u h A h Z } *.i.N.,.+.y.Y.f.y.r.N.'.&X#XJ.f.f.f.*.*.,.,.0.l.y.4.{ T o.r.;.] =.{ P 6./.'.'. X~.4.} T P I i b ^ { } +.T b Z } } +.*.+.{ ~ U Z Z B h k D ~ } ^ m 0 3 0 h P { 4.] P ~ m f.R.| 1.] h n ] 4.Z.dX;XL.Y.E./.P.r.f.N.E.XXL.q.o.] I P U 4 2 d u T m 4 Z n i h B A Z Q 0.'.%XXX X&X~.",
"1.,.R.T.6.4.r.+.o.F./.^ ;.@.r.o.] +.I P ] h 2 - h ~ * u y.6.6.e.M.f.R z e e 2 8 8 P 3.2.G.y.7.f.:.T N A h b B H P ,.,.] ,.f.z.N.~.'.K.l.6.6.r.r.f.a.6.;.6.l.a.:.6.r.4.q.:.] +.,.x.z.q.r.y.V.6.:.,.,.N.n.u.0.l.6.A P m 0 0 h A b i A h u h h 4 n 0.,.:.:.*.4.n.'.q.V. XE.r.E.7X5XXXN.,.} ' :.0.q.4.,.0.6.*.=.z.q.] :.6.o.0.P.E.L.n.V.q.+.U U P 0 h ' ^ ;.y.} T U ~ o.+.,. .^ ) H B n A n h m T o.] n 4 3 u b T ] T ~ T T A 1.f.;.0.} d b ] f.V.a.f.u.y.n.l.u.L.l.S.~.E.V.y.l.L.} b ~ 0 O 8 u m i 0 Z d 4 h P n U y.l.F.].XXl. XkX",
"E.y.f.M.M.A.f.4.,.i.a.Z.o.7.+.i.;. .} *.,.r.h 2 u ' . d +.r.e.6.l.V.| d e 5 6 6 i h Q C +.g.G.i.6.u.,.;.| P h A P { ,.T H 1.z.c.S.L.N.f.z.q.:.1.0.,.*.:.q.6.*.,.r.y.6.+.) +.6.l.Z.x.y.6.q.f.4.,.0.u.f.a.1.+.6.{ ~ ) +.n ; h ^ U h ~ b i m h 2 n 6.6.| 6.y.6X#X6.'.l.4.V.V.].rXlX'.l.~.N.y.*.+.+.+.6.f.z.6.6.a.0.' 4.*.T 6.R.E.L.Z.Z.C.*.~ U B p B ~ ~ *.6.+.H ! ] o.,.*.+.:.] U b d Z Z h n ~ } ] B 0 - 4 b P n ~ ~ ~ ] T ~ ~ ~ ] I n B I :.l.y.f.r.,.l.y.y.f.y.,.0.S.n.z.0.r.;.A n i 4 3 i B h 8 m d 0 d p 4 m y.0.*.6.[.9XkX<X",
"F.f.u.1.t.F.r.9.N.2.7.4.F.r.r. .@.^ q.r.r.,.n j ] ~ ' x ~ P e.4.f.u.R d a 5 5 5 8 A >.+. .%.@.@.,.4.~ ,.a.e.;.+.T x n N T =.K.[.[.R.V.r.y.l.f.6.6.6.4.;.;.;.,.f.z.y.4.6.{ { 0.f.V.f.y.q.0.f.r.:.r.V.~.n.r.r.r.6.] T ' h 4 n A b i B d b U h 2 m 6.6.,.,.*.0.f.l.l.E.U.f.~.XX<XsXlXkXXXz.6.:.+.} q.i.,.6.6.4.4.) ~ { ) ) f.K.V.L.'.~.z.*.U ~ A i B U U +.,.=.o.4.r.r.,.+.o.+.] P m A ~ U B U ' ] A n 0 - 4 u b P U U ~ ' { T { ,.0.:.~ n n r.].L.Z.q.=.r.r.r.z.q.0.q.1.y.:.] :.) T ] ] d % u T n 8 P d 8 B h 2 B f.r.*.y. X7XsXyX",
"1.} 1.f./.H.4.9.R.7.z.E.].N. .r.6.q.z.6.4._ A % g ] :.d ) n k +.,.;.i a u u 5 6 u b 1.:.] +.@.+.4.A.4.4.y.,.=.i.,.q.+.J J z.XXl.N.F.f.y.K.S.0.6.*.:.q.:.} 4.z.n.E.y.| +.] } y.a.Y.W.q.r.l.f.6.4.c.Y.XX#XK.4.0.f.6.T T n - 8 h p h ~ h q Z h 2 n 0.:.,.:.,.y.l.y.F.V.V.W.~.%X7XkX*X;X<Xy.| ) +.6.6.4.4.+.:.=.] ) ) *.~ ^ a.L./.K.y.f.N.=.~ T A p m T T ) ,.,.,.r.f.6.:.;.o.I m B A h h A ~ ' P B d b d 2 2 i B A T { } _ ' ) ,.V.L.0.P n n 0.~.P.a.0.r.0.q.c.K.r.e.S.[.F.y.0.y.1.] ~ ~ p & i A h 8 n i p P b 4 b ] 6.6.q.N.'.%X[.",
"T.y.t.e.B.A.A.)./.M.4./.+X!.2.@.=.N.z.i.=.X. .g o , f.*.N +.C n ~ } 0 r 6 u e 6 2 B :.+.4.2.] I  .y.6.6.;.@.4.;.4.;.q.4.=.K.XXE.XX].L.K.f.0.| T ,.y.6.,.r.4.+.N.z.6.=.o.~ +.f.L.K.F.6.y.N.l.0.q.q.f./.E.y.0.:.6.f.4.} h - 0 n d i Z d i m k q h U _ 0.y.4.f.L.K.y.6.l.I.W.l.S.7XkXOXf.,.:.0.6.4.6.;.=.+.,.*.T I U } o.+.6.0.z.~. XS.6.o.m U A n } ~ A U 6.,.T } ,.4.] ] o.~ U h 0 i T ' Z h h h b 8 3 8 8 ; 4 b ~ ) } } P ' 6.f.L.| u m P r.U.V.K.S.l.S.n.S.V.,.f.XX X<XY.;.0.z.6.J T h $ 4 0 0 i P p 8 m b 0 n o.0.0.e.V.XX Xl.",
"u.R.OXW.E.R.G.E.}.i.g.E.g.@.+.g.N.N.!.N.+.+.i. .A , r.q.z.(.V.+.} ] 4 6 r e e 6 4 * ~ :.^ P ] P Z 4.6.2.;.@.q.a.2.,.f.f.;.].[.F.*X'.l.z.z.F.f.;.,.,.*.6.F.y.T ' +.1.4.U i +.n.N.r.q.f.y.y.a.6.*.6.l.M.F.z.+.) ,.q.,.P u 0 0 h h i Z i i A d 4 b T ] ,.q.*.yXyX) q.*.c.6XyX~.J.gXrXN.+.q.l.S.l.r.y.0.} ,.4.*.' U T ,.,.6.y.,.4.q.y.N.f.o.n h P ^ 4.] ~ o.) T U ~ ^ ) +.| ] U d i k i d p d A B i 2 0 0 8 h b 8 2 P ) { ~ ~ +.f.n.].4.u b H ,.E.&X/.l.f.V.L.n.S.u.+.r. X Xl.,.+.q.f.4.*.h $ 2 i d u n i i m i 8 h ~ ] =.0.f.J.~.L.",
"| r.a.F.F.M.e.V. XF.g.4.i.:.Z.:.z.>X>X2...K @.i._ } o.q.z.,.i.%.6.+., 9 s e e e b 8 h ;. .h h P U { :.:.] } 6.r.R.R.t.6.6.XX<XS.0.} a.#X[. X].N.4.6.6.q.c.r.~ ) ] 4.6.~ h o.n.N.r.r.l.6.r.y.,.1.u.z.l.].K.} =.i.r.=.) B u 8 h k d P b i m h u h ~ ] ,.y.q.+.1.R.K.XXsXlX].V.V.*.=.,.0.0.V.E.F.N.V.q.+.,.,.*.~ H ~ 6.y.:.+.+.6.V.r.~ e.4.h n n b } :.P U ~ ~ ~ T o.+.| ~ P B h u i u i 0 0 d h b n 8 2 8 d h 8 * 8 T +.^ ;.o.*.y.*.A b A A 0.E.J.6.,.V.x.V.c.V.0.e.V.K._.S.,.~ :.y.,.P 8 & 2 d i 0 Z u 0 B h 0 h ~ _ :.0.y.[.<XR.",
"[ f.e.R./.L.7.M.a.V.f.f.z.f.g.=.2.g.z.2.S S q.p.o.Z ] +.g.f.:.+.6.6.6 r 5 r e a R T n ;.,.[ A I A { :.;.+.[ ] / a.y.p.2.;.y.z.u.r.a.[.7X7X#XF.z.z.1.4.r.u.1.~ P ] :.{ m T 4.c.L.K.l.f.i.y.r.,.y.L.L.~.E.f.o.] 0.f.+.T P B 0 4 0 h T b u B h 8 h T ] ,.u.E.r.,.L.<X&X7XkX'.i.F.K.S.F.R.E.V.y.f.N.l.6.:.4.,.+.+.} +.q.f.,.+.4.r.6.) | F.o.i h h b U A b P ' P P ~ ] ,.:.T p u n A m u 0 0 p U ^ A p 4 2 0 h h u h P A ' ,.~ } ,.} H n Z m H r.W.L.6.4.A.z.l.V.f.l.F.R.S.&XR._ +.a.f.,.{ B 8 2 p p u P d u B d 0 h ~ +.=.6.l.E.L.0.",
";.i.E.F.N.}.(.!.F.G.A.G.r.q.E.] K.N.q.=.+.] 6.6.q.] 0 ] K.K.M.} 4.,.i r 2 e e e 6 1.*.N.*.=.~ _ Y } ;.;.+.,._ =.q.~ Z ' n ] l.V.y.a. XyX<X5X<XXX~.f.,.| l.y._ P +.*.P B ^ f./. XK.y.z.n.E.P.y.a.V.z.l.l.q.6.;.,.,.:.=.~ d 8 4 u b T n p n d 0 b ^ A ' l.E.'.V.l. X<X7XyXyX;X[.#X;XW.x.'.K.V.V.q.6.0.q.;.{ *.*.6.N.[.].r.=.6.q.y.q.6.~ n n T *.U n A P U T } ' ~ o.} A n U ~ ~ I h 0 8 h P P ] { Z n 4 4 h p h I ~ P A ] +.,.] n m A Z n U 0.E.N.V.n.F.N.i.y.a.n. XXXXX Xf.} ~ q.V.*.^ A n 2 * 2 i A d 0 B h 0 h ~ o.*.r./.f.S.<X",
"K.A.F.y.E.F..X~.}.}.;.}.XXr.] +.,.6.f.y.6.] ] +.4.A 3 m R.M.e.f.,.I - r u 2 > u u | V.M.0.:._ } A $.;.~ } ] =.~ ~ S h | U I ) ) 6.4.,.f.q.F.].'.L.l.o.+.q.y.+.! :.+.D n { N.n.'.Z.u.V.V.z.N.c.y.l.N.V.K.z.4.:.:.q.y.~ +.^ 3 - u m U B n n d q h ~ A ] l.V.y.0.N.;XkXlXlX&XI.'.'.$X[.V.S.r.0.V.W.L.N.z.y.r.q.) [.yX#X<XS.+.o.*.=.+.,.} P A A ~ ) ;.] P ~ ~ b n P Z A T *.+.] +.T h i u b P Z T ) T m u p i 3 h ;.6.4.U A 0.z.=.P T A n U I ,.E.#XE.l.S.[.XX/.E.V.V.~.K.V.0.;.=.,.4.6.;.) u 2 * 8 k U k u n d 0 b T A ' z.P.K./.].",
"+XR.R.F..X X(. X}.OXA.+.F.F.r.o.6.6.6.+.;.+.Q  .f.~ u A K.f.f.T.S.,.~ 9 5 5 * e 8 P M.f.r._ ~ o.U d ' ~ +._ =.=._ Z A N A ~ ' ] I ) P n B i ~ F.~.S.l.l.6.;._ U =.' d h o.V.P.].V.0.z.V.V.S.V.6.6.N.F.a.,.,.:.*.,.6.y.q.U - * 0 b P B n Z h 0 h ~ ^ ,.V.~.V.4.q.'.fXlXkX[.XXkXkX].+.:.].V.y.[.XX X~.].a.} ] ] V.~.W.XXa.0.r.*.+._ ~ =.T d Z ] ) ) +.' T ~ h h P T U U { :.' m b k i d B A Z ' ' Z Z i 0 u n T ' ,.6.,.' b 6.r.h m n B I I 6./.XXK.l.E.E.l.S.].K.F.W.E.W.V.6.:.*.f.l.+.*.{ - % 0 h A n k n d 0 h _ P ) y.L.F.W.[.",
"(.G.F.L.}.OXN.(.F.F.R.+.+.i.i. .=.=.z.f.+.,.6._ _ y.n h e.l.C.R.S.N.F.H 2 e > e y P 1.l.f.r.,.] D D d P :.6.z.N.q.0 =.~ } 6.6.o.~ I U P A P P A } i.z.6.;.} U ~ { ~ d n ' F.XXE.V.y.l.L.S.f.l.r.r.q.i.y.q.4.;.4.e.6.r.1.~ U 0 0 B Z n n B d 0 b *.) ,.z.S.r.y.~.%X;XyXlXgXaX<X[.E.u.4.e.f.y.0.l.V.V.z.r.r.,.' K.#XE.~.z.,.r.f.,.;.e.=.T m m o.;.+.+.T B P h i m T ' ) +.} P P A h u d n n n ) ~ h A d 0 i b A ] :.4.i.:.h n T b d b A U I ,./.XXR.l.L.L.F.~.#XN.f.K.'.S.0.:.=.:.:.q.N.f.P * O 0 b P m k m h 8 b T ~ 1.E. XE.L.P.",
"2X/.~.!.L./.OX/.XX=X~.V.=.} :.=.r.f.z.g.y.y.y.,.*.:.n A o.y.R.R.G.F.f._ 6 * * 2 u U 1.R.a.i.=.+.u q d U I ] 0.6.+.9 4.,.0.f.a.4.4.=.) A A T ^ | q.6.4.r.+.~ ) ) ^ n i _ 0.y.f.V.S.N.a.1.l.[.L.i.4.y.l.V.l.6.,.;.6.6.b I 6.T b 4 8 i u b ^ h 2 n 4.} :.l.6.F.V.q.u.z.#XgXaXsXrX[.J.+.] l.u.l.L.a.0.i.N.q.0.6.y.l.F.[.'.V.z.F.N.+.A } +.m n ] :.} +.] P P B d h ^ { ) o.} T T U A b h b A A n P A n 0 8 d u d I ~ +.0.q.,.T b d n A h n ' U y.W.V.x.N.S.OX'.K.[.W.l.y.N.l.y.6.,.r.N.y.S.y.~ D 8 - h h d n m d 0 k :.' ,.F.n. XE.+.",
";X2X1XXX>X=X!.^.OXR..X1X}.,.,.=.+.,.6.M.e.+.=.=.] :.T 4 ] f./.R.Z.G.f.V.) 2 4 * 8 P y.F.y.M.r.z.e.p b x 8 u I 6.] n i.,.} *.6.;.*.,.*.P A m U I R =.=.o.:.{ T ] T h b } ,.y.N.f.z.n.N.N.K.E.a.0.y.a.f.l.f.0.4.=.4.f.A A 6.6.B - u h i n ~ k 8 b I ~ 0.Y.XXy.) ,.z.N.f.P. X<XfXsXrXf.U 0.c.i.i.*.y.E.K.E.K.f.6.f.N.F.[.L.l.N.N.+.U +.,.T m T ,.:.+.] M ~ ,.] N P :.,.o._ T P T T B p i h b h P A i h k d 0 d | f.a.+.] e.;.T b n A n n ^ { +.6.y.E.].P.0.V.7X9X~.y.a.S.L.S.y.,.:.0.r.n I ,.A d 3 4 u 0 b T h 2 b ,.{ ;.l.z.~.].S.",
"1X1X3XoX/.>XA.(..X+X>X>X1X^.@.2.+.] Q 2.a.6.+.r.:.;.;.0 B m r.u.G.f.,.l.1.] ~ M i R ;.6.a.}.].K.M.1.I 0 b i g H N 9 ! ,.6.6.z.R.L.N.,.+.] | ;.:.^ ' } U } *.] ' P m A ] 4.V./.E.f.0.0.l.K.V.,.,.i.a.L.L.V.i.4.:.y.y.d *.n.,.+.d 2 h i b ^ b 8 h ) ~ q.E.l.S.Z.V.'.[.Y.P. X7XdXgX<XS.l./.n.S.V.l.0.l.Y.S.y.0.1.C.K.l.S.S.V.S.0.~ P I ! Z B ~ +.] +.*.~ ^ =.) I :.4.=.+.^ P P P P n i d B B n T Z i i p h Z ~ 4.0.o.I U +.i.*.J h i B T ^ } +.0.y.Y.[.L.S.~.XX XK.V.S.S.K.V.r.4.;.i.S.A m 6.6.b o 3 u q n ~ h 8 k T ~ e./.].S.l.V.",
"uXtXuXuX(.+X.XoX.X].oX.Xz.(.(.@.:.! ] ;.} o.+.i.=.,.) 8 { m u.u.2.+.l.l.] ) ' 6.P ~ I 8.i.i.l.f.6.1.V.' 8 i t g < h +.+.6.E.XXE.0.} 6.z.i.;.+.;.} } } +.] ~ T | P i ~ 1.l.z.y.K.z.6.r.E.'.V.l.L.R.S.L.[.L.0.,.:.,.0.S.] m 0.} b ; 0 8 n ~ p 8 k ~ T 6.L.'.V.z._.Y.XX<X*XaXlX9XE. XL.r.E.S.l.N.f.6.:.r.f.1.+.f.'.[.K.K.n.N.a.~ A U ~ H U ~ A ^ +.+.o.=.] +.:.o.} +.+.+._ A Z U I Z h h B A m P A 0 u h Z ] ,.r.,.' ] +.} ] *.o.d d B U ~ ~ 4.E.[.S.q.l.V.].].V.N.z.K.Y.].E.f.1.;.a.z.h } W.=.] p * d u h ~ h 8 h ~ ~ y.K.l.'.5XXX",
"G.Z.oXtXoX].tX3X^.^.+X(.!.+X.X!.Q E F Q +.+.,.q.F.z.i i m P A.OX7.^ 9.+.;.~ T ] m ' U 6.4.^ @.4.' ] :.6.n 0 u 4 , b ,.6.*.n.'.z.1.6.y.f.Z.1.T B ~ { _ ' ~ ~ ) 1.) N | 6.l.l.f.S.f.q.N.L.z.u.z.E.~.].#X XN.6.;.+.,.f.f.} P o.' B h 2 k ~ ] ~ 0 0 ] ] z. XE.~.E.E.].<XaX9XV.E.yX7XyX&XY.'.~.'./.W.K.l.0.0.6.r.K.L.S.S.[.[.r.] A T } T T I T U ;.:.=.,.o.~ T ' P P ) { | ) A P P A Z h k n n b T A i h ~ +.6.6.4.q.r.4.6.6.+.+.] n B n P +. .] q.].L.0.l.~.7X7X[.#X[.E. X;X'.r.4.:.6.l.E.{ h ,.+.u % ; 4 n U d 4 h ~ T r.E.E.[.;XXX",
"5.G.+XtX.XOXoX.X+X!.!.>X+Xp.i.!.(.E Q S 4.e.+.N.F.L.0 8 P n :.F.4.;.6.4.,.} } ] B $.+.X.o.o.} ,.:.T ] ;.] n 0 i , N 6.*.+.n.Y.q.a.l.f.f.l.y.=.+.P J +.) ~ ) ) | { I I *.f.V.V.l.c.f.f.c.0.0.K.~.R.K.~._.E.S.f.f.l.f.:.I N ) o.} n ; d ~ ] U 4 q ) *.6.f.S.F.l.z.L.~.#X8X#XE.K.L.'.l.4.~.]._. X'.R.Y.~.c.*.+.r.V.E.L._.'.6.n h T ] P ) ^ ^ | 6.+.,.:.J n U | ' U ] +.{ P Z I U P n u h A A B T A u p ~ *.=.o.+.o.:.+.o.] ~ } +.| ;.T P =.+.o.r.E.x.y.S.'.[.].'.#X&X;XrX5XL.r.,.} 6.S.V.] b ] ~ m 0 & p ~ ~ U 0 u ~ o.y.~.#X;X XN.",
"F.eXiXG.}.].8X X8X2X}.=XOXq.f.G./.f.T Q 6.r.r.L.V.:.u 0 1.*.R.:.r.:. .2.,.6.+.T ~ ~ +.+.+.4.=.a.R.e.T 4.A ] B 4 * *.a.0.u.P.5X7XK.S.Y.E.S.r.,.o.{ ) ) ~ T ' ] ~ ] U A } 6.r.q.z.N.z.6.,.4.y.K.L.~.P._._. X[.l.y.y.y.i.U n 6.*.] T 3 8 n A A i q ~ =.4.4.,.,.N.].[.&X#X#X;X XF.~.[.F.r.N.L. X#X[.E.E.L.c.=.=.f.y.6.N.&XL.) b B A m A } T Z o.4.o.} o.^ / B P { P H } ' P P P A A B i b Z n n T A u b ~ } +.I A T ~ ] =.,.+.+.;.1.;.P H +.] 4.K.E.Y.K.V. XE.z.[.XX X X#X#X[.E.z.N.V.N.0.I m ' +._ k - i ~ ] U 4 0 ] ;.:.y.F.K.r.,.",
"6.+X}.,.i.A.V.OXeX+X2XeXeX=X.XrXiX}.y.~ f.l.i.z.F.6.r 1.:.6.+.,.;.~ ^ :.+.2.^ ] @.Q X.@.o.r.y.4.;.;.' 1.~ } e.8 8 ) ,.e.u. X%XL.q.r.y.y.S.4._ { } } +.,.~ T } +.*.:.~ _ ,.f.S.K.F.l.V.y.0.L.R.W.~.[. X[. X~.y.0.y.6.,.y.1.n T | T n $ u } T 0 q { ,.0.6.6.0.f.z.L.Y.<XyX6X[.P.'.F.~ T S.~.J.F.S.V.N.Z.1.+.;.+.0.N.l.L.N.{ n A P A U ^ B B *.6.o.*.r.T b A ~ } ~ A } ' A P A U P B u h A B n ' ) 4 h ~ +.,.} ~ +.:.] o.,.o.+.:.*.=.T A *.o.] 6.R./.F.V.V.l.S.[.[. X&X;X#X*X#XN.y.N.z.V.T b e.*._ U - 2 h N A i 0 ~ +.q.r.,.~.#XV.",
":.z..XR.i.] R. X8X8X>XpX3XOX3XrX3X(./.;.6.E.R.K.F.T i 1.f.e._ | p.+.+.i.y.7.] ^ +.F C ] +.4.z.q.6.4.| 0.l.+.*.& * *.i.l.l.f.S.l.r.q.c.V.,.{ { { ] ,.6.' | | o.r.x.,.o.;.,.1.0.4.y.l.6.0.f.L.~.Y.~.OX XE.~.~.i.+.+.e.:.6.;.n { =.A i 4 b ~ P 0 0 m I *.6.:.6.S.XX#XL.u.l.].~.J.R.y.] +.f.y.6.6.f.V.L.L.q.:.6.q.V.l.r.n.a.T P I P A A ] ' ~ =.i.0.4.:.P A ~ +.,.*.| ] I H A h A ^ B h h Z B Z o.~ d u I +.} +.~ T ~ T ] ,.:.4.6.*.} ;.+.{ I :.K.E.K.E.W.F.V.'.%X#X%X*X<X;X&XXXN.f.V.z.r.N.0.b U *.U n $ u +.U 8 u } ;.r.e.*.%XkX[.",
"!.S.XX XF.=.q.XX~.(.2XeXtX.Xf..X8XOX].F.= n L.~.N.s ' 6.~ ~ ] ) ,.4.2.F.q.~ _ ] 7.@.C ~ ,.] 4.f.;.M.F.,.+.*.} , 6 6.N.i.=.+.e.V.l.N.f.y.N.0.) U o.*.,.+.{ ] +.;.1.*.+.) ,.y.r.z.F.N.i.q.6.z.K.L.~.~.L.L./.~.l.=.) } =.i.4.B ~ +.Z u 3 b ,.6.B 2 n T :.4.;.6.f.V.[.#XW.l.F.l.r.l.i.] o.f.r.f.~.N.6.,.:.6.;.+.y.q.q.l.E.XX6.% & b ! U ' ) U =.I.]./.E.^ N :.,.] ~ P ~ ~ T P B Z A U h d A A n ~ A 8 8 ) 6._ ] ~ ~ | | +.,.6.,.) B o.| ) } 6.y.y.q.S.V.q.V.~.%X<X;X<XrX7XXX#X#XN.=.0.S.r.l.,.B ] +.Z 8 ; h T P 0 0 b ~ } :.y.;X9XE.",
"a.~.}.G.y.y.i.i. X/.iX=X}.OX/.f.}.(.Z.a.4.6 Z L.0.h ~ 6.] n x e.2.6. .f.4.+.4.2.6.a.@.P ,.q.q.N.4.;.f.+.+.B b * 6 ,.:.+.,.1.S.E.S.V.f.,.q.:.,.e.l.;.J ' ~ U } 6.6.:.| +.,.e.y.,.f.E.~.n.y.a.N.W.P.S.L.#X Xz.,.o.,.0.N.~.i.u ' :.A d % Z ;.A 0 8 B :.0.6.y.y.N.[.V.V.&X6XE.i.y.4.{ ) r.~.K.r.y.l.a.r.f.y.+.) 6.~.%X[.#XV.B 0 8 P } ! o.P Z } ~ ~ ] o.J T | } o.^ P ~ ~ U A B Z ~ A p h Z P A ~ B 0 0 m } | ] T ~ o.o.*.4.:.o.~ U +.;.) ~ q.l.f.S.[.[.F.F.V.L.'. X&X;X#X X;X&XF.6.*.:.6.a.1.n ' =.A i & h ,.:.m 2 Z ~ ] :.l.~.~.y.",
",.f.}.}.f.+.+.F.2XeX2X~.eXOXR.R.(.}.N.M.R.Z % 3 s x T V.T.e.s y.f.i.@.4.) ;.2.6.a.i.i.] 7.z.4.f.f.A.e.;.} m * * x ;.) o.;.l.V.l.a.6.+.+.4.+.] 6.4.,.:.| +.{ *.i.a.4.] =.l.f.4.6.S.K.N.r.4.l.K.~.XX X;X<XXXL.z.0.r.n.L.0.0. Xo.b P u ; h ,.6.b ; n ,.q.,.f.N.E.'.l.[.sXkX;XV.1.,.:.6.N.L.E.E.E.P.F.K.F.q.;.q.c.K.K.L.E.N.A 4 d u k ^ J P P U ] ] ] :.I I { } o.A A T T P A n h P U i d n Z B U U A d 4 i n b A { +.~ ) *.) P A U ] } ] ~ q.N.a.0.P.XXXXOXY.S. X&X*X]. X7X<XV.,.| 0.N.n.XXl.u ^ ,.Z 8 - n =.A 0 4 n ,.6.*.l.'.'.y.",
"F.7.OXjX X:.z. XtXiX.XiXrX3X.XG.(.1XG.L.>XG.+.0 0 9 A A.e.f.4.+.1.f.' 6.] U ;.;.+.;.~ ] i.i.@.] 2.i.=.+.0.Z % 2 I +.) ' ' y.n.c.f.f.+.~ ] ) } 6.0.q.4.+.6.+.^ 6.f.6.,.y.V.K.S.l.P.n.i.l.f.c.N.N.L./.[.L.V.V.0.} 6.~.l.f.y.^ m A ~ p 8 k ! ~ B h B T =.1.+.,.F.XXF.K.E.R.V.V.V.y.i.r.y.[.XX[.[. X~.z.y.6.] ,.~.~.K.L.S.*.u - h 0 2 P T Z A P A +.q.+.T ) } +.} ! A n n P A n m Z A n b B A m T P m d u d n I ' } } *.4.0.0.) U +.+.o.~ { S.L.e.4.P. XS.F.N.L.[.5X9X7XyXdX;Xm.N.f.F.].~.0.a.OXo.h T u % k ,.,.N & n ,.,.*.f.[.W.i.",
"H.2.F.&X XR.F..XiXeX=XN.7.3XrXOXoXoX3XoX&X1XF.=.C i ~ +.] q.6.y.+.A ] } +.;.;. .r.i.@.3.;.@.S.:.p.g.,.] y.c 8 , { ~ :.,.} 0.c.N.l.+.] ,.,.,.0.r.i.,.;.6.i.*.] y.,.] } ,.f.F.S.L.K.z.r.l.y.u.L.Y.S.z.m.K.a.,.6.] 4.'.f.y.r.+.n P T h 8 B 4.,.A i A ~ o.,.f.r.y.V.V.K.P.z.S.XX&X/.L.x.F. X'. X&X~.F.V.y.;.=.l. X#X'.[.[.r.u * i d h A n Z P U P } :.} ! ] o.*.' b m Z Z A Z h n B b p d b m Z ' T Z b p h P I T ~ +.i.N.f.0.~ P :.6.o.o.6.E./.K.n.XX[.l.L.P.R.[.~.[.&X%X[.K.V.q.+.z.OXN.l.l.o.m A T h 8 h ~ ~ N d m T 4.a.,.'.;XV.",
"2.F.R.G.R.OX X XZ.R.F.6.f.!.OX2XOXoX3X+XG.1X>XF.2.S P 7.~ q.z.0.y.~ I ;.T f.6.;.7.a.f.+.:.2.:.A.i. .6.z.6.- n 2 ' | 6.q.6.~.V.) o.o.^ P | :.;.*.o.*.6.6.:.T U :.r.r.f.l.S.L.l.l.l.l.P.K.N.y.,.r.L.~.E.E.P.n.,.g.#X;Xl.4.N.N.I h ^ h 8 k ~ o.' h b I 6.N.e.l.~.'.L.XX&X[.%X&X[.'.F.l.F.&X%X_.L.V.'.].L.+.:.E.XX<X7X<XrX=.3 d b u i A A U T P P ,.z.=.I ~ | ' U P P Z n n b n P T n d h n A Z T T m h p n T A ' 6.:.*.6.l.a.] U +.] +.o.+.a.L.K.L._.E.l.K.L.E. XXX_.K.L.L.a.;.r.:.f. Xz.y.f.} A A ~ i 4 m :.:.A d A I ,.y.,.].;Xz.",
"6.G.+XF.R.N.3.3.2.6.:.6.r.7.F.+X1XtX.X&X&X>X2X2X2.J ;.,._ 4.6.:.:.| :.8.' e.,.~ ^ i.7.r.M.r.Z.i.D.p.6.N.6.6 6 n Y *.;.*.} x. XY.R.r.y.L.n.V.q.6.2.*.=.6.4.~ T q.r.6.f.E.L.S.F.K.K.V.c.S.y.+.:.l.P.L.z.c.V.L.S.v.'.&X XV.q.N.f.P 2 i 8 B :.^ P ' +.! +.N.V.~.'.E.'.XX#X X#X#X[.~.K.0.y. XK.l.L.[.[.'.S.6.l.OX#X X[.XX X*.u d 8 U ) B b B ] ] s P r.} T ] ] T T H A Z A U A n I ~ P h h b n n U ] P h u m P B ' :.+.*.y.f.*.P ~ 0.e.} ] e.c.S.N.c.N.L.~.E.~.L.0.f.~.XX_.'./.S.,.z.7X7Xz.0.V.R.I b ~ d 8 h ! o.~ h b U 6.y.=.L.<X#X",
"N.N.7..X/.(.H.6.@.@.2.7.f.!.6.OX+XOX&XoXpXpXrXF.g.R.F.] J ^ ~ 1.+.o.A.y.e.e.4.;. .r.N.,.e./.~.=.i.A.6.6.*.9 . R A ] 4.' _ Y.rXXXf.*.r.N.V.f.z.F.z.:.6.l.6.| { | ,.z.V.S.z.N.L.F.S.K.l.F.f.;.6.l.V.l.,.,.q.y.i.0.l. X#X~.l.0.' P A A d P ;.) T U U +.V.~.K.l.m.#XXX<X5X5X<X;XXX X~.S.z.~.K.R.XX/. X].V.V.Y.'.[.~.XXXX,.n 8 4 0 n ) A h Z ~ ~ T ~ P ] _ ^ _ } *.} I U ~ { { ' ,.y.) x B I P I +.=.m d n ~ T ~ ,.=.+.*.q.z.6.P I f.6._ +.z.F.V.V.L.P.L.K.~.N.0.f.V._._.S.K.F.K.z.W.#X<X#XV.y.z.l.H - 0 0 B *.~ I ' +.~ { e.S.9XfX X",
"z.6.N.!.N.!.>XN.2.:.6.^ N.;Xi.>X.X!.(.>XL.L.~.E.4.G.6.o.T ^ ~ } o.:.e.V.R.G.f.y.:.i.f.f.N.g.i.G.^.L.R.E.*.6 6 T [ ~ 0.,.,.N.V.:.' H ~ 6.r.f.e.6.r.N.a.4.,.{ P T r.L.l.l.L.L.c.f.l.a.V./.f.:.4.r.c.Z.K.~.L.P.r.K.#X[.'.&X X0._ ~ ' n u T ,.) ~ T b M +.0.:.y.E.#X<X<X<XyX7X*X X'._.#X;XXXN.x./.n.F.c.y.N.'.[. X9XE.n 0 h P q - T :.A b n ~ } U ~ ] ! ~ ;.o.] ,.+.~ T { *.' { 0.0.:.) P n P P ~ o.T 0 i U P ' q.i.r.:.V.F.~ U 6.q.0.4.a.N.a.l.F.V.n.R.P.E.N.y.l.V.K.N.,.*.:.0.N.y.V.#X*X'.a.q.o.P B n i P ;.) ~ U T *.L.XXK.<X;Xy.",
"N.7.7.R./.E.+XN.+.:.f.+.f.OX~.L.oXoX/.R.+XE.F.i.E.r.4.^ P ~ ] ) 0.y.o.e.R.R./.G.6.,. .f.!.(.Z.r.!.i.7.V.+.- - h ,.=.x.4.*.z.L.a.0.q.S.E.K.i.6.,.6.;.4.0.} ~ P m +.l.S.E.~.L.a.r.y.F.W.XX].L.R.~.K.l.f.F./.L.y.L.[.m.[._.l.1.] T A m h Z ~ B P ~ ~ A ] y.:.f.E. X<X7XdXgX%X'.].'.#X;X#X'.~.E.E.L.L.S.y.6.~.&Xf.} b 3 4 n B u 2 U *.N b P *.) ~ 6.;.B b 4.N.,.;.~ T T } { A H =.:.+.Z B B n A } _ b u h Z A } r.i.] ,.f.q.~ ) ,.y.i.6.0.c.n.x.y.y.u.V.L.#XL.0.r.N.V.S.C.L.K.c.y.'.;X#X[.5X#X6.~ ' ^ b 0 P :.) T T b n +.:.I ~.sX<X",
"7.r.6.g.(./..X=XQ 2.r.i.f.XXS.E.&X].G.E.R.+X^.i.K.E.a.f.^ ~ ] H U +.+.;.6.M.z.N.y.;. .i.i.r.2.F.N.f.y.!.:.3 - 2 ,.6.6.:.| *.a.N.0.,.6.f.l.l.0.;.6.y.,.] ^ ^ D B 6.E.L.E.E.S.V.L.L.K.E.V.~. X'.;X[.6.*.6.y.q.y.V.~.[.#XL.l.~.*.m Z n h A ] A U T b n *.r.:.y.E.XX~.rXkXkX7XK.f.[.[._.].[. X X_.W.'.E.V.S.z.+.~ +.~ ; ; n A 8 ; U =.B n A { ~ _ o.U A A | _ I ;.] P ' ~ P Z Z _ ,.{ A b k n m ^ o.b 2 A l.E.6.] =.o.U 6.z.' ] ,.} R _ u.Y.P.l.a.6.N./. X9X;X[.XX#XY.l.F.L.F.z.f.].#XK.#X[.y.0.+.P B k d Z ) B P ^ ^ T ) 0.F.dXlXlX",
"R.G.~.R.V.E.+XN.+.+.;.r.A.}.6.F.(.2X}.i.r.X.f.4.XX8XeXXXT I :.r.{ A D 6.:.r.i.:.:.,.:.A.f.2.Z.F.R.H.j.e.u.d % d ] { o.o.*.;.r.y.,.] T U ^ o.,.l.N.0.:.4.o.*.} I 1.S.L.K.L.L.S.V. X[.z.F.XX5XXXXX_.y.0.f.P.K.y.z.E.~.L.L.~.[.i.~ P b k B Z B A Z d P ~ ~ 1.f.~.#XrXrX6X7XXXr.f.#XXXXX[.K.].E.=.B d c B Z A T ' s * i ] U 0 d 0 ' q.U B U | o.B P +.~ Z Z | +.I P ] ;.} ' T P ] ;.~ A b h n n ] _ b i h B A +.:.} } 4.6.~ I *.+.} ,.y.F.~.R.l.u.Z.Y.XX[.'.#X7X;XsX%Xy.,.:.,.6.y.F.[.#X*X~.V.~.:.n Z b p A ' A P T n m o.r.V.aXlXkX",
"F.E.F.N.z.M.A.e.+.+.+.+.o.e.+.F.1X=XZ.p.7.%.;.4.L.8XXXOXo.~ J f.6.{ [ 1.6.1.r.;.4.y.} ^ A.6.i./.G.F.a.+.{ { h d T 6.6.:.+.,.a.0.*.{ { +.] +.;.,.f.q.+.+.) ] } T ;.l.x.N.E.P.N.K. X~.V.[._.J.m.].[./.'.l.z.'.Y.XX*X&XK.S.'.].r.~ A b b B B h P +.+.| U +.~.n.K.&X].~.$XdXkXyX&XXXdXlXlX;X~ 0 A n ] r.r.U d A P i o 8 U Z 0 i h :.*.A ^ ] ] T B U P m Z A T ~ T U H T +.6.} N ~ ,.^ P n P A h T +.k 8 n P n U :.,.+.} o.,.o.0.f.4.,.0.c.E.n.N.V.f.%X<XL.[.7XsXyX9X].z.r.r.V.S.V.V./.XXE.L. XXXf.) B n h n A n P A d ! ) ! 0.9XlXgX",
"R.!.OX}.(.6.6.6.i.:.I :.] q.o.K.2X(.z.y.r.9.,.f.4.6.r.*.f.4.T o.6.f.V.:.;.o.,.^ ] +.%.2.N.f.g.Z.j.N.r.e.0.' +.x ~ ,.*.} ~ +.0.0.} ~ ~ o.} ,.q.r.S.L.f.6._ I T P q.XX#X%X&X%X'.[.5X;X_. X~.L.L.]. Xn.1.M.]. X%X;X X'.&X9X;X'.6.] ] n i P ;.^ A T ] } } ) ,.f.#X#X+.H ' ~ ! P ^ n.E.,.N b B A m U %XfXE.L.].OXXX' I y.y.+.A n T ,.+.A T ~ ' T B ~ U n Z A A ) ) A ) ) ~ ] :.T I | | B k A n Z o.{ d 0 n P A ^ ] ~ ] r.q.] T q.f.,.1.e.N.E.S.V.z.y.XX&XE.&X[.K.L.*X<X~.~.y.y.].[.%X5X<X~.J.'.].f.T P h i m B h A +.=.*.~ ^ q.9XlXkX",
"2XF.R.N.j.6.7.r. .;.y.G.y.6.R.S. XF.A.r.a.,.4.g.7.6.4.L.V.6.=.r.b e.f.r.+.y.;.^ o.4.p.@.j.2.i.7.G.p.f.N.l.{ ) b Z +.,.*.+.:.+.+.} ] ] } o.} +.:.4.r.+.+.*.] ] :.:.V.'.C.~.#XXX[.*X#XK.u.y.E. X%X/.W.K.P.n.l.l.f.f.y.F.K.E.[.q.] ^ n i B ~ n h m J ~ ^ o.r.N.E.l.{ ^ +.' o.} ~ B b T T i { 4.6.6XkX7X9XfX*Xn.~.,.r./.4.} *.:.:.6.} B ~ { ] { I Z T U ~ ~ U I U T A T ~ _ =.) H ~ n h A P n Z ;.' d u b A A ^ ~ _ 0.S.N.6.*.+.0.6.+.f.[. XXX~.].&XsXyXXX;X&XE.L.*X<XY.,.l.'.;X<X7X#X[.5XyX5X[.0.{ T n i P *.) Z T ) +._ ~ 0.gXlXE.",
"+XR.V.2.X.a.6.e.!.T q.R.r.i.E.E.=X/.E.R.V.4.4.i.g.@.y.r.;.] } :.} ;.1.^ +.]  .X.] ,.] ] +.6.i.5.Z.g.:.V.a.M.*.U ] o.0.6.I _ :.=.} ] } } ;.,.r.f.6.} { 4.:._ ^ ] f.f.f.V.E. X'.E.9X#X6.L.S.l.E.[.'.z.V.N.l.y.0.4.y.E.OX<X#XL.:.T A p d T o.T A P ~ ~ B b ] '.9X%Xz.,.l./.i.} v.lXlXlX9X<X#X XXX X#X X}.].n.F.K.R.;XrX~.q.6.e.6.V.4.m T ) } ~ U T ~ T P T ^ ] ~ P ' ' ] ;.r.e.) A A m Z A A Z T Z k B T Z m ^ +.4.=.q.:._ ,.i.i.,.;.6.z.K.E.%X<X#XaXyXL.l.q.L.;X5X&X_.P.R.n.N.l.V.x.l.L.E.Y. Xr.] ~ n i n T N d m A ) ~ { 6.sXlXXX",
"4.f.!.r.6.y.f.^.F.i.~ F.i.i. XXX&X XF.OXZ.A.f.a.A.R.,.2.:.p.y.;.} | { ;.] ' Q 6.@.] +.3.@.6.!.7.9.A.@.F.f.N.' u | ~ =.,.,.f.l.6.} T I ] :.y.N.V.S.r.o.) } | ~ ) 4.F.V.a.;XyX<XrX~.c.~.%XXXz.6.E.n.y.K.#XXXE.#X;X;X%XJ.l.E.'.0.T A u i ~ +.T A A A ) ~ i 0 K.5Xy.0.a.;XkXV.S.hXlXlXlXlX Xl.V.F.K.f.a.K.S.n.V.N. X<XXXL.q.:.6.y.y.{ P ~ U ' _ P T ~ B b B P ) ) P A T ~ +.6.f.:.U :.' A A b m P B u h A A o.+.;.6.+.~ { *.6.y.:.| r.r.r.m.V.~.&X[.kX;X,.[.K.a.[.<XXXV.c.a.l.y.f.6.u.].#X8X*XW.4.! A 0 u ~ +.T A P T ~ B A ,.kXkX) ",
"7.M.G.g.r.+.a.G.6.} f ^ f.6.E.rXK.V.F. Xf.f.f.f.9.A.@.:.2.,.^ 2.T } ;.o.P T ] 6.6.,.@.6. .;.6.7.:.+.@.r.1.+.u 4 U B r.N.y.f.N.6.} ,.6.4.a././.a.z.6.+.,.,.T B ~ f.I.E.E.].*XyXsXf.r.gXaX<X X~.q.,.f.XX;X#X%XaXyXaXkXL.V.K.0.o.] P i p T o.P A P U } ~ b d y.V.) 6.V.~. X].&XaXqX7XyX9X'.E.E.E.L.N.f.J.V.E.&X*X#X;X5XL.y.S.V.q.=.T B ~ ' ~ ~ Z ' 4.B d P ~ ~ ] ' T A ] y.e.4.,.,.4.) A A b T ] m h P P A +.:.;.,.,.+.T { y.y.=.{ 0.S.L.l.7XkX9XkX Xz.W.5X<XV.0. X'.y.K.XX[.Y.;X<X<X<XE.l.R.].6.T U u u T } U P P B ^ A I r.&X#X6.",
"2.N.N..Xj.y.M.y.r.Q ^ ~ r.R.R.8XF.f.&X=XA.] y.V.2.Z.:.2.Z.:.( ^ B T >.' T P ] } ,.o.+.:.6.6.r.R.N.:.^ ~ H u 8 i A Z ) ) } o.:.,.~ ) +.0.l.0.r.z.i.,.] ;.4.U N ~ K.S.E.E.}.;X[.1.K.yXrXrX<XXXF.U.[.'. X XL.S.[.XX#X#XF.l.K.~.0.P B i d T o.U B P U ] T p p z.K.] ,./.yXsX<Xi.,.Y.[.'./.XX XOX].[.l.l.XX[.[. X&X_.'. XK.l.l.V.0.*.) m Z U +._ N ] ,.A d m T ) ] ~ ~ :.*.' +.6.e.4.+.U B n A ] ] d 8 b A ~ ] ;.:.:.,.) T ] r.,.o.;.,.z.E.[.].&XgXlXf.a.lXlXyX%X}.f.,.V.[.;X<X5XgXkXkXlXY.S.L.q.:.] A u i T +.I Z P T ' I H r.<X&X+.",
"o.y.!.+XL.E.R.M.F.i.o.+.a.f.f./..XZ..X~.F.r.4.:.6.2.6.i.4.6.Z c S i.6.4.Q T T / ! I I E r.f.5.i.l.z.+.J M u $ y P n =.6.o.) :.1.P ~ o.q.f.r.q.r.6.+.4.y.6.! J ;.r.D.R./.;XZ.~ 0.#XkXkXsXL.:.f.Y. X'.OXXXL.~.&X7X XK. X5X;X/.q.| ' d - m +.P b A ~ { 6.6.b n { 4.:.a.].*Xa.E.lXlXsX7XrXyX<X'.P.[.S.6.y.0.l._.#X&X#X[.XX&X[.L.:.| ] m A ~ +.} A ' ,.A b P T T A ~ ,.o.o.;.} +.6.4.+.T b b m A ~ b 8 m T ] q.q.0.6.| ] P ~ r.6.} ,.K.~.L._. X6X#X:.S.sXkXgXyX&X[. XXX X X[.W.L.#X%X*X;XP.z.L.[.6.I Z u i U +.I A P U { A B r.[.gX7X",
"o.+.F.E.i.G.N.y.r.F.i.} y.a.y.a.OXE.r.N.Z.r.r.a.6.Q 4.~ ~ q.} ! ~ +.f.@.=.^ ' U P J ,.q.i.(.!.D.^ r.o.6.*.e & & Y n ,.:.} _ } { A P ~ { 6.r.f.,.;.,.f.0.=.@.4.f.2.N.A.G.F.6.+.].yXsX9X'.y.r.V.K.n.N.N.q.[.kXyXkXlXsX5XE.J./.r.~ Z p d ~ +.~ A b U ,.f.=.x P *.:.6.:. XlXrX'.[.<X#X[.XX%XXXS.y.f.f.y.i.,.:.i.f.*.q.].'.K.f.:.} ,.~ B ~ I } +.h A ;.) B m ^ +.^ U ~ 6.V.l.,.6.f.r.o.P D n A ' Z 8 * B ' } 6.6.6.e.q.' ) f.l.4.+.y.~.N.i.'.9Xz.H q.7XlXkXlXXX4.V. X%XXX XXX]. X;XyX#X_.#X7X7X[.e.+.{ i 2 Z +.H h A U } *.4.y.9X7X:.",
"f.e.;X!.6.E.Z.r.f.r.e.R.a.f.a.T.!.z.(.,.+.+.,.i.6.+.+.6.+.6.+.+.} ^ q.i.6.T A n U 6. X&XF.E./.6.V.4.} *.T u & $ Y n o.) ] ) { } n p P 0.=.o.,.4.] +.} r.r.,.M.A.G.!.(.F.f.{ :.'.*X#X%XN.q.N.V.r.,.0.n.0.].kXlXlXlXkXS.L.<XE.L.6.h i u D =.,.{ ~ T | +.T n B ;.N.c.9XlXsX X5XlXlXyX9X7X'.y.a.V.z.f.r.y.6.*.*.4.r.6.6.y.Z.N.0.} | ) n U ! ) ) A ] ,.) n P } H m ' *.y.l.i.a.r.0.6.=.H A m n ' U 0 4 h A ~ =.+.,.q.4.) { y.r.6.6.a.V.Y.F.V.K.1.+.XXsXgX<X[.S.N.L.J.S.K.F.6. XlXgXlXlXkX9XY.n.[.y.~ A 0 i T o._ H h ~ ,.6.+.f.[.~.6.",
"y.o.!.F.r. X].N.Z.OXF.R.y.A.r.R.~.Z.q.7.+.] y.z.,.a.,.] +.] 6.6.e.Z ] T +.~ I ) P 4.&X XN.Z.g.5.6.a.N.*.) H   * R ~ +.^ ) J T | b 0 U 1.,.:.r.i.:.6.} } +.f.6.e.Z..X(.E.,.} L.&XL.y.Z.z.u.f.z.E.a.;.n.*X8XaXlXlXfX#X&X#X;X9X~.:.T u i ^ o.) B b T +.+.) | b P V.K.].yXgX*XXX7XsXaX;X[.E.V.f.z.V.a.a.n.l.y.y.6.0.:.6.~.'.l.1.] ) ^ B n P } ~ P ' :.} H P { B n ~ +.y.N.a.4.o.=.y.;.' A Z P ' n u 4 q B ' +.+.,.6.,.] ] 4.q.,.0.E.;XL.0.E.y.U ,.XX<X%X[.l.N.L.K.r.*.i.L.6.[.lXlXlXlXkXP.Y.5X~.P.4.h u d U +.,.{ ~ P } o.;.f.E. X[.",
"a.;.F./.f.i.N.i.i.N.i.r.i.i.A.}.f.f.f.2.+.] Q :.,.a.r.] o.] ,.6.M.z.~ T P T { +.i P o.6.@.@.7.6.r.a.+.} ) s 5 & A P +.] ~ _ ;.} A h A ] +.,.f.i.r.=._ ~ =.7.f.z.~.G.a.V.l.V.P.J.L.Y.'.L.a.i.F.%X_.o.;.5XlXlXlXlXkX5X'.~.'.[.'.f.~ b i b A _ ) P I ~ ~ ] 6.m P F.c.K.&XkX&X7XlXlXyX X'.%XL.6.4.6.,.a.~.x.y.F.E.N.V.L.S.E.S.6.} o.^ P T U ~ ' U U T U I U { I I ' ;.a.l.r.6.4.,.,.6.' A b Z ^ h u 0 * d :.0.*.,.6.*.H } c.e.r.0.0.L.V.l.~.,.} E.;XK.6.V.K.F.K.F.P.f.,.S.;XaXsXlXlXlX;X%X;X<X9X~.,.T q 0 T +.) n m ~ +.+.;.6.&XlX9X",
"~.a.y.A.i.r.N.z.q.r.g.q.Z.i.!.~.!.i.6.@.r.e.i.r.,.,.] +.Q ~ +.] a.f.4.P ^ Z U ~ T A ~ +.J o.+.r.L.R.} +.q.d & & ~ A o.+.o.) ~ ] p q P *.o.q.b.f.M.! ;.^ ] 6.7.q.E.F.l.N.~. X[.'.#X Xl.q.r.N.Y.;XK.] ] *XkXkXlXaX X'.a.F.OXL.N.+.B b i m ] =.} ~ { o.,.4.6.b H R.S.L.XX;X<X*X5XsXlXsX<X X_.L.z.q.q.1.0.0.l.V.F.a.V.W.V.L.F.4.+.o.] ~ B m { ~ I T P ! T A P A ' *.:.;.6.6.+.,.6.,.4.~ P P A ' P i p 3 i ~ +.4.z.l.| } :.0.1.,.;.r.].N.,.f.f.K.W.E.'.E._.'.S.V.~.;XE.} ~ <XlXlXlXlXlX9XXXY.[.[.[.a.T b p b B ' ) A U Z _ y.'.7X#X,.",
"4.e.a.Z.f.g.f.f.f.6.z.g.r.y.~.a.E.f.@.:. .a.f.^ o.+.4.:.7.6.6.h T ' u h T Z ~ ) | { U P i h ] +.o.e.y.*.) s , & d P } ] ~ ;.,.~ Z n A I 6.r.r.,.6.] ^ _ _ =.q.q.f.r.*.U.&X<X%X&XyX9XV.q.l.E.'.%Xl.*.XXsXlXkX6X~.J._._.*XP.T I ,.o.m u A ;.e.,.I A T ] 6.F.:.b T '.yXrX<X&X9XlXlXlXlXsXE.q.l.l.e.1.r.0.l.S.N.S.~.L.V.n./.V.,.+.+.] B n A ~ A A ~ } ] P h m U ,.y.6.+._ } *.} ^ o.+.{ A B A U m i i i Z } +.4.l.l.*.] +.1.r.,.:.f.[.y.+.L.XX&XXX%X;X XF.q.r.K.L.<XY.~ T 5XlXlXlXkX&X'.q.E.XXK.z.*.m b p n _ *.{ T ~ :.:.0._. Xc.f.",
";.4.r.a.a.A.e.g.z.R.N.4.z.A.}.~.XXz.2.:.6.3.e.a.g.2.e.2.7.N.^ Z h P b p b n T | *.+.} i h p U P A B A A R x * & d B ] ) ] *.+.] b d m A +.6.0.:.^ ;.@.~ ] _ ,.4.1.q.l.l.Y. X~.N.XX&XN.,.y.Y.[.;Xl.*.n.aXlXkX5X*X9XqX#XE.f.} o.| T h 0 A ;.+.*.*.' ~ +.6.:.| A ^ K.l.P.yX1.].lXlXlXlXsX#XY.P.f.6.a.f.q.f.S.L.V.F.N.y.f.E.L.6.+.+.] n A A U T U ~ o.,.~ n B U :.=.' +.} } 6.| ~ :.6.' P b m T h d n b A } +.+.,.0.T ~ 6.c.F.P.l.0.[.N.+.[.7X9X9XaXgX<XN.q.V.[. X<Xz.:.XXkXlXlXyX'.K.'.[.<XI.T T ,.o.n 0 A :.6.+.A A ^ o.q. XXXW.[.",
"^ 6.6.6.e.4.f.N.V.=X(.N.F.f.e.A.}.Z.g.g.r.i.p.y.i.f.y.7XF.P 9 P 1.' Z B h n I +.T N b m i u i i i n U d M 5 * 6 *.' ^ P T y.,.n b n b T *.6.e.6.4.e.+.T o.,.l.XXS.V.XX XS.].<XV. X;XL.l.y.N.l.K.0.u.kXkXyXsXrX7XyXdX[.z.6.] =.~ b A n A } ;.P A +.+.~ ) 6.*.~ { } Y.;X'.~.;XkXlXlXlX9XI.r.y.a.0.0.1.4.F.E.L.~.f.*.q./.W.6.*.] { ~ h A U T T ~ | :.} I B ~ ;.+.U T +.,.,.:.:.+.o.o.| ~ Z B A h p m i u U =.=.*.} I +.x.V.r.L.E.0.,.r.l.l.[.&X XW.XX[.V.r.z. XXX<XV.o.~.kXlXlX7X6XaXaXXXY.f.] } o.U h 0 A *.} 6.4.~ _ :.6.+.r.V.c.",
"A.F.V.4.y.;.R.M.A.A.V.A.A.z.M.OX!.%.6.g.R.f.i.p.y.i.'.].N.2.F.F.l.,.{ } B n } ;.U 1.1.U M.:.+.;.i i H d 2 > * d ;.T ~ U ~ S.6.4 n P q i i.z.6.6.6.f.+.! ] q.z.y.z.V.0.! #XJ.U #XrX&XV.0.N.V.f.S.F.Y.XX#X%X<X6XyX9X;XP.E.L.f.K.0.n B ~ ;.' A Z A B ~ =.6.6.*.T h i K.yXXX~.&XlXlXlXlXrXS.y.l.f.c.q.r.E.K.n.J.a.~.K.4.y.N.a.i.,.=.T b h A T T B P ] q.,.' +.+.{ ) ' | ] ] +.*.} o.+.| A b U P p h B h i T +.+.;.+.) o.z.E.l.F.}.#XS.F.%X#XV.'.8XV._.&X'.V.z.N.V.Y.q.r.kXkXfXkXaX9XsXfX Xz.,.) +.) h D m n +.;.P m o.o.} :.r.V.f.0.",
".X}.OX6.r.Z.F.N./.F.i.y.a.a.r.!..X!.g.7.OXG.+.X.y.i.y.r.4.+.Z.S.z.,.z.,.,.,.4.e.+.4.6.} 0.y.u.+.b i i M a 5 # M T T { ^ ~ l.:.8 B T b n f.N.0.r.+.i.6.4.} r.L.N.i.l.r.~ XXK.A ;X7XE.K.l.0.J.XX&XXX<X9XsXgXfXfXaXsXgX*X<X<X Xn.+.h p h U ~ B ' } n o.M.N.6.] { +.P T e.S.'.yXlXdXsXlXsX6.X.6.4.q.} f.<X9X'.x.#X].S.V.Y.K.y.+.} +.T d x b P B B ~ U ] ;.+.,.,.=.] T +.,.} T } :.+.,.} Z m P m d k A p 2 U f.i.,.+.T r.z.6.S.].~.J.L.n.y.T ;Xn.P *X7X#XE.z.N.S.f.K.K.~.#X#XXX*XyXsXyX<XE.P.E.l.S.0.m h ~ ;._ P n D Z ~ } 1.a.a.6.0.",
"F..X}.6.6.i.r.f.}.N.y.i.e.i.f.a.}.}.R.G..X!. .X.y.f.a.} 4.4.6.,.M.,.z.6.,.o.e.Z ! I x ] 1.+.R T B h 0 P 6 . * b U U ^ ~ ^ V.0.0 m P B A o.r.r.q.e.f.6.4.,.r.F.'.rX<XK.0.o.L.&X:.E.2X'.f.N.[.]. X#X%XfXsXaXaXqXgXlXfX&X;XXX0.S.1.d k A B h | +.) 6.z.V.i.r.U d B P *.0.*.T r.E.K.%XaX#Xl.i.S.K.:.4.#XlX7X#X<X[.XXW.f.%X].y.6.+.+.~ H n m n B D ~ T ~ +.4.4.,.0.=.o.+.+.=.*.=.} ) } *.~ P P h i h A A q n 0.V.,.T { ,.z.z.r.~. XS.l.S.r.~ ;Xn.B ;X5X[.U.V.f.S.XX;X%X2XfXgXgXkXgXsXgXlX<X<X5X[.R.o.p h b A T n ] { x *.r.6.,.r.r.+.",
"G.}.OXi.i.e.e.L.F.F.a.N.L.r.i.F..XtX2X}.!./.i.p.y.6.r.i.4.] ,.4.=.+.=.a.z.6.z.q.,.~ _ ^ | ,.C.:.A T d 6 5 5 > T b H ^ ~ ~ +.T i m U B n ~ l.e.] 6.V.y.+.*.l.'.#XXXE.[.rX~.[.9X;XT I  Xa.V. X'.7X9X~.u. XgXkXfXkXdX6X#X7XXX:.f.,.d u n m 0 0 :./.N.S.y.=.,.:.} ;.} *.f.W.E.XX'.,.H ].sX} A +.z.L.&X7X;X].~.~.L.].~.K.R.l.+.T { *.} U T d m B A A ~ 6.0.*.4.,.4.r.+.:.,.6.*.+.o.+.*.I b A P h h h m n b T 6.l.=.I ,.y.i.V.W.;X<X<XgXsXE.y.] L.7X} K.sX[.c.n.XX[.#X#X;XlXgXaXdXgXkXlXkX<X5XXXq.V.4.i h B B h } o.) q.N.l.1.q.V.z.+.",
"F.L.].r.6.F.f.f.R.R.N.F.f.:.g.R.N.(.F.7.Z.G.i.i.q.a.r.6.=. .^ r.r.a.i.a.o.N.(.R.:.^ ] o.8.;.C.C.e.+.;.M & 5 2 T M n =.} o.:.~ 0 h P A h J r.f.,.r.z.q.,.6.f.P.XX XV.'.<X<X5X5X%X~ J &X[.~.].].*XN.~ } #XkX<X'.E.[. X*XyX#Xy.) b 0 0 n A n ~ ,.4.,.y.N.l.6.r.| n ;.#X6XF.;.y.#XsX9XkXlXXXa.l.XX<X*X X#XS.P.[.[.K.0.=.y.y.=.] } ~ P ] +.H B P n D B U :.0.6.=.} ] +.+.,.4.] T I T +.+.U m P d i k A b b A ] r.,.I :.l.N.V.[.&X<X&X*X X&XkX]. XdX&XP P &XN.K. X].rXaX'.y.[.gXlXgXlXgX7X;XqXXX:.i.;.d u B n 8 0 ,.E.l.N.6.*.i.V.y.| ",
"7.!.G.f.4.V.T.e.F.W.y.i.e.f.F.(.G.}.}.Z.!..X).2.E.^ a.6.} ^ P o.o.2._ r.q...2.7.q.p.:.@.:.~ :.u.;.+.,.T 2 * 5 &.n N 4.} _ T U P B P n h ~ } } 0.L./.N.*.6.E.[.'.'.[.*X&X;X<X;XE.N.+.x S.&X].'.;X~.:.:.%XgX<XyX<XE.F.%XfX<Xf.o.h q 0 Z o.:.! :.r.6.l.V.y.,.6.;.| K.~.u.4.V.K.&XlXlXlXlX[.r.f.~.<X&XXX7X#XL.F.x.[.E.,.f.z.:.{ ~ ,.} | 1.} 6.:.[ ' ~ | T =.,.o.;.] } *.o.) ] ] ~ ' ~ T P A A p d h B B b Z ) q.r.,.q.a.0.S.'.~.'.%X5X#X#XyXaXyX6X#X~ ) 7X%X[. X[.&XV.] } XXlX<X[.~. X#X&XyX%Xe.~ h 8 0 n B n U e.l.+.l.,.:./.F.q.N.",
"+.F..Xf.r.4.M.F.R.V.;.f.a.}..X XZ..X}.F.F.r.f.y.E.&X7.i.6.} ! j h i j h .. .....2.7.f.S.C.,.y.r.l.,.R T , 2 z z n n =.~ ~ ~ ~ A n P n n ^ ~ H +.L.'.S.+.y.L. X'.'.[.&XyX5X%X7X9X5Xe.b '.6X[.XX6.} 4.,.%XsX6XaX;X/.E.W.N.} P ~ ~ 8 8 ~ 0.+._ ~ ~ P ,.6.6.S.6.P o.K./.K.F.S.z.XXlXlXlXlX[.y.f.[.5X<X X#XXX'.W.S.l.6.4.f.f.+.~ U P | ,.0.0.u.:.6.a.1.1.| ~ } =.o.o.} o.*.:.=.{ T ~ ^ A Z Z m i h k B D i A o.*.+.6.K.S.y.z.'.<XyX#X~.;XrXaX7XyX7XW.V.) b '.*X]. X<XL.o.:.#XgX9XdX7X~.V.*XgX<Xr.} b 8 0 m o.;.~ +.0.4.z.r.+.i.c.l.e.",
"o.f.F.r.6.9.i.Z.g.(.6.o.,.C.}.}.!.+X!.G.G.7.7.r.,.q.:.,.e.$.+.} B 2 5 5 e G 4 e u B Y M.t.G ;.&.*.,.;.s 2 6 T g H H ] T A ~ ' ~ P U H b n B ~ _ ] 0.V.l.r.y.V.n.~.XXXX'.[.#X<X X%XL.! 0 q.<XE.,.r.S.:. XkX7X~./.U.y.i.e.} ! n p d i B } +. .o.+.6.,.o.] ,.' I +.l.r.L.9XE.E.9XlXlXlXgXr.6.z.N.V.~.XX XP.0.y.L.b.6.0.L.N.) B T P R :.T ' f.W.f.f.y.;.;.+.} ;.} +.:.{ ' 6.:.+.:.} ] T U B h d k h n T P b ) { I T V.XXS.6.J.%X5X*X[.Y.<XfX7X<X7XyX9X0.B  X7X XOXe.+.,.| XXkX7XdX5X[.E.~.N._ H ] I 8 4 ~ 0.o._ ~ T T :.,.,.a.] 1.%X",
"6.f.2.7.2.:.H.H.N.!.7.X.%.4.T.}.+X!.G.!.G.^.D.D.@.C ! } 6.;.[ P 6 2 e 2 e 5 y e 8 i P ;.| R Y R ) ;.l.M.b % h J H A _ ~ T A P U P A ' ' n n { ] } +.+.,.y.K.S.y.l.F.L.V.V.*X9X X X[.e.U T r.~.F.S.x.*.[.lXyX X X[.l.=.+.e.y.U u i i p P ,.+.) { ] :.1.,.6.} P *.N.y.*.a.~.l.K.lXlXlXlXn.q.l.K.n.'. XU.f.r.l.l.:.+.,.f.+.P i 3 i M n N I P | :.+.8.:.6.y.q.y.6.,.+.:.,.1.=.} *.6.+.~ P Z b h m P P T T A I I A P U | V.E._.[. X X[.#XXX[.#X7X;X X;X'.{ i 6.;X'.,.r.L.=.[.kX9X'.[.~.r.f.r.+.T h i u u A ] +.+.} o.6.,.+.r.'.L.L.*X",
"r.o.,.4.p.F.N.R.j.!.7.7.A.y.a.L.G.^ 7.oXoX.XL.N.@.2.E P 6.~ A y.B Y b 2 z M d 5 q q A U Y Y d d d T R M.} , A *.Z P o.A U A T P B U T H B n P ] ~ N T e.r.n.V.y.0.c.].[.XX<XfX<XyX&Xr.y.B ] XXL.S.l.,.y.'. Xl.N.a.~ T ~ ~ ' Z i i A A Z ~ } ,.4.] ) *.6.o.A m ~ 6.6.0.l.y.l.R.}.dXyXL.6.*.i.F.L.R./._.N.q.y.J.V.0.,.:.H b A A b i d b Z B A A A +.( o.4.y.V.N.f.,.,.y.+.~ +.q.4.;.} ^ A h b b m P T T A P A U | ~ ~ :.l.~.%X'.N.S.Y._. X[.#XsX%X%X#Xl.A m r.[.E.L.N.} [.lXaXXXXX XN.:.+.6.r.T 8 i i p U ;.+.] } ) ;.} y.&X9X'.1.",
"6.+.4.4.g.Z.r./.Z.!.r. .F.,.y.}.+X+X^ ! .X+X].(.i.o.~ ~ | +.P 6.M.G G Y G d a a 4 8 d D Y M d d z e d T ) b I } J q.r.h i A T Z B B | ,.P d P { ' +.{ ) N.l.0.f.q.f.L.].XX&X;XsXkXE._ *.N.g.! V. XS.0.z.R.y.+.] *.*.~ ^ ~ h b B P P A B n n } 4.;.*.=.,.q.U m *.6.+.i.[.[.S.K.%XaXlXyXS.0.V.E.V.N.c.0.*.x.XXXXr.:.4.P T m b T n P n m A B A D C ] +.+.o._ _ 4.z.f.a.e.=.=.+.,.r.,.o.~ Z A P A P P ~ ^ Z n Z I ) ] T ' E.[.J.K.r.r.E.;X7X7X;X5X7XgX<X0.6.b ) OX~.V.S.,.0.].XXz.N.r.~ P T ~ ^ B i i Z Z B ~ o.6.:.] +.,.0.l.i.0.I.",
"r.;.+.,.S.R.i.g.F.R.9.i.^.F.V.E.!.!.!.+.6./.M.~.6.o.n A o.} +.*.y.q.] & 5 2 2 * u q 8 b B d d v z a z T x H :.T ] A n n U ^ A T / U ] | n i P ] ] +.+.^ 1.L.J.r.P.N.0.E.XX~.F.XXY.f.r.A 2.u.I h A +.l.f.f.6.:.P n A T A h n n k b b b n b q T N.z.S.N.f.y.A A i.F.f.a.}.l.q.K.*XsXlXlX9Xi.V.yXrX~.z.L.9X>Xf.q.y.r.] A U A B P A A ' D n ~ U A / ( +.+.=.@.] _ ] o.a.V.M.f.4.4.4.6.=. .~ ~ P P P U P | ' A D ~ ,.:.6.+.:. X].M.L.x.S.[.;XXX%X<XrXkX[.I ] x.g.' S. XV.,.M.E.a.{ ~ +.:.~ ^ U d d m A A B Z m b ] 6.*.=.+.q.S.u.N.*X",
"e.y.;.q.e.f.(.R.g.g.i.!.Z.E././.~.q.f.f.@.4.Q 4.f.Z A n ~ ;.y.+.~ M.y.e.T u 2 6 k q 8 q d z z b b d m R s ;.*.=.+.9 P ~ b ~ ] A P T ] ' d i ~ 6._ ,. X].) r.XX XL.V.S.E.[./.n./.[.<X<Xn 4.9Xl.A h 6.[.#X[.S.+.+.+.A i i A ~ T A h h h h n d n o.S.z.z.i.~ b ~ 4.*.} =.0.S.&X7X*XY.7XlX9XK.1.q.&XkX*XN.[.9X&XF.,.~ H ~ A P Z 3 A A A A P D / ' ( ] 2.3.6.4.o.~ ] @.@.} o.f.y.;.2.,.o.o.;.} ' ^ P T ' ,.U h B ~ :.| =.,.a.L.XX[.l.'.E.N.'. XK.m.#X[.V.y.P 0.c.P q N :.l.c.y.4.:.P n Z T Z h b n h b b h b h u T l.N.z.l.6.+.] ,.'.",
"0.,.u.e.r.!.].!.F.6.p.G.}./.+XR.i.J E o.4.4.P U ' m } { P B ;.+.} y.' f.0.1.R P n u u u r x M M m P z H ~ | +.*.A r P U b P P m T ~ o.+.b u U 6.6.6.c.'.2Xr.*.XX;X[.E.#X X[.'.[.rXS.d L.kXlX<XJ Z L.~.XX_.N.+.+.+.U ; $ h U P T | ;.4.o.m h n ,.V.V.N.a.o.A P _ *.;.;.r.N.XX5X#XgXlXfXc.~ q.K.*.~ ,.K.sXlXdXf.] T ,.R.*.,.;.n A { ] Z A I ' ~ ] +.6.@.=.,.,.] +.] +.r.@._ =.2._ ! } +.@.] ^ A P U o.} h h A } r.:.6.~. X1.F.yX;X~.Y._.E.~.[.L.~. X5X<Xd 6.aXV.I h 4. XXX[.S.+.o.+.A u u Z T U Z p d d h b d b ] l.z.a.r.*.} ,.S.",
"e.y.y.4.r.R.(.R.Z.6.@.G.^.(.G.Z.p.Z C C ,.;.1.T m m ^ ' T I d +.y.y.u.} R e.R.e.~ A N N u 6 d x B n ` T e.R | R Z u T U b ~ *.' ! _ o.~ d b ~ o.*.} y.F.S.e.6.V.0.r.K.~.'.[. XR.XX0.x 2XkXkX<XT P E.'.]._.V.,.P A T i n T h n T ' o.,.} Z n 0 Z e.1.,.,.| h ~ L.f.:.o.6.S.%X6X;X X<X[.*.} ,.=.,.=.6.F.fXhXE.} T T o./.l.N.N.V.M.e.y.+.;.$.+.E ~ =.f.f.i.4.;.~ 4.+.+.]  .5.@.+.=.@.^ +.] T I c n { ] H h q d } r.6.4.l.8XlXI.V.<X7X&X5X<XE.Y.~.&XlXF.i E.lXlX<XB B E.'.[.~.S.] +.*.P ; $ h I P P ] +.4.o.B d b +.V.N.f.q.,.:.U +.",
"f.[ M.r.y.E.F.oXR.:.f.F.+XF./.F. X6.] ^ o.+.6.| ~ U r.{ n +.x n ] ^ } n Z Z +.r.W.W.T.W.u.x 6 5 2 b Y | e.' } ) T m ) I h ~ ' A ) I ] ] b h P  .=.u.1.o.L.XXy.U S.F.V.[.'.L.'. X=.) L.XXY.L.#X~ U S.S.Z.F.f.I ~ U 0 q { ,.A P { :.*.+.A d b k b U :.u.,.b A ,.V.N.} ,.'.L.K. X;XyXlXaXy.f.l.} o.} ,.F.N.:.;.6.6.6.e.6.M.M.r.o.f.r.V.A.6.4.2.~.~.~ 6./.(.6.o.o.6.6.7.@.,.@. ._ ~ o._ } ] o.o.E P A T n h p A { +.,.:.y.'. Xy.0.K.y.f.z.N.E.[.'.R.&X0.b <XkXlX<XB B R. X[.[.K.;.A B U i h U h n U ~ } 4.{ B d B o.,.:.+.*.;.r.y.y.",
"u.;.;.T 6.L.R.G.N.r.g.A./.=X!.=XZ.r.6.~ M.~.q.| | | o.+.b :. X} p A j ) A ] } } A m A h y.l.G 2 * * b ;.| *.:.} T n I } Z P ~ _ ~ ] Q P A n c ~ *.0.r.l.&XyXZ.A b ,.U.XX/.R.[.XX;.T S.L./.V.*.6.! A y.F.L.N.r.+.B u p P ] T { :.+.,.~ h h n u B r.F.V.+.m ] i.l.f.6.K.<X~.N.[.dXlXlXlXkXn.,.S.z.S.L.F.~.S.,.%.,.^ 4.2.y.6.r.+.o.+.u.6.e.4.~./.tXZ.4.6.q._ 7.] 2.q.@.6.4.+.2.,.^ ] +.;.+.4.;.7.+.| P U i d U ' +.+.*.) 0.E.W.r.' F.I.f.K.I.n.Y.&X+.R /.XXL.V.'.U U F.K.L.L.u.~ U I 0 0 | :.n P ' ,.*.+.H p b h h H :.4.] ^ *.0.,.",
";.$.r.i.6.~./.R.f.2.:.}.(.XX}.OX6.S.}.G.f.~.A.^ o.^ | +.b h r. XF.q.] n < +.q.| n B A A b b &.m b x Y H *.| *.*.n I ~ =.B A ' ~ T ) ~ U Z A T ] } =.4.l.#X;X[.P.P ;.R.~ V.'.q.{ f./.R.S.L.L.l.,.P T 0.~.V.} 1.*.A u h B T ~ { +.+.) ~ ~ P h 0 B 6.U.f.A n ' y.z.a.y.N.L.V.].dXlXlXlXlX9XOX!.f.f.~.N.} +.f.6.E ~ 6.6.Q 4.4.6.r.r.y.6.y.;.3.:.4.!.Z.4.7.2.6.i.2.f.N.7.i.=._ 2.a.@.y.+.:.4.^ Q a.r.| } *.A d P ^ ! ] } ] 0.S.W.6.n n ;.L.[.[.V.'.7X,.P L.XXXXV.0.6.U A r.n.K.N.q.] m 0 p P { T } *.+.+.U x k n q Z q.K.6._ l.V.y.=.",
"F.] a.f.q.L.].L.G.6.6.:.9.R.OX+XF.]./.4./.~.~.Z.6.P n U +.+.OX/.R.S.] m - n ;.{ I ' m m B G M B | :.Y M *.0.} ' r T o.) Z U ' T T +.~ A A Z U ] =.6.0.i.'.P.l.F.[.+.n V.XX~.r.V.f.V.#XXX X&X;X#Xo.B Y.XXl.+.0.+.B u b h n ! } :.+.! ~ T m d A +.q.r.~ b T y.F.r.;.T ,.~.L.N.#XlXsXaXlXrX7XV.R ] +.;.,.,.*.,.I ~ }.7.r.2.] 6.2.:.+.+.@.A n i j j 6.,.e.(.S.i.r.S.q.f.S.i.6.q.y.:.g.6.f.N.6.:.^ } *.V.y.e.' T ] ~ ] _ +.,.l.l.N.7.P N.S.p 0.*XI.A ,.[.#X%X_.N.4.*.T U 6.E.z.] 4.+.B 0 h B P T ] +.} ] ) ~ A b 0 m 4.K.6._ f.e.:.6.",
"y.] i.6.+.i..XOXR.:.7.( T ,.}.OXz.+X8XD.g.3X.XL.V.o.h h ] f.u./.] i.i.C n p d i p ~ ~ / u d M a B H P H } *.1.R , I T } m B T T I y.+.n T ^ T T ] ;.:.6.V.L.V.N.U R L.L.'.l.6.S.&X;X'.XX[.[.;XL.B c S.F.0.*.6.] b u b d n +.=.} *.:.+.} { h h ] 6.+.P A ' z.V.,.4.+.i.[.~.~.;XlXlXaXF.E.a.,.6.V.=.} y.4.,.4.~ D.S. .4.6.( ^ r.~  .] ] o.A 0 3 C R.R.F.L.=.i.~.L.i.4.y.i.4.r.r.V.h.;.M.e.o.:.} P T :.6.f.,.=.;.,.P ~ ^ ] ,.,.:.0.V.+.^ i.q.f.N.) *.[.yXyX<XOX5XL.D U W. Xf.| ,.*.m u k h b T ] :.o.T ~ T B h B +.6.r.~ I l.y.o.6.",
"0.6.y.f.] i..XF.R.6.3.6.,.%.+./.c.oX3XL.F.3X3X1X X+.h +.' +.~ M.n m ~.!.0 +.{ o.h p i b d d a v n P M =.x H P x u * 9 U T U T ] ,.f.| A } ] P U 4.6.q.z.L.E.K.E.6.6.N.N.y.,.r.L.#X%XR.'.[.[.[.[./.y.i 0.K.+.o.~ k i A P T +.+.} o.:.] ^ ' n r n P n I :.6.z.N.V.F.4.r. X~.E.<XlXlXfX7X9XyXkXlX#XV.K.S.4.6.6.] N.F.4.4.] ( ( p.p.] } ] i 3 % 3 @.F.+.A n J +.r.E.,.} f.2.^ M.4.} o.} o.A | ^ { ] ) ~ ~ 4.L.2.4.R.] ! H } ,.;.1.1.=._ r.,.B m P +.y.'.5X%XL.'.<XK.P M V.K.q.:.e.] d i h p m :.+.] *.*.+.} { h d ] 4.} I ) i.N.r.r.",
"=.,.e.r.+.q.XXF.g.6.~ 6.%.3.F..Xc.>X1X^.A.1X>XoX}.:.h p m ' M.y.m h +./.M.| ) +.I { h $.$.i d v B M u H R P B b 2 6 9 n A T ~ ^ *.6.' H { I A | 0.r.;.4.L.[.f.~ ] y.y.,.~ *.V.y.z.R.F.y.V.~. X XK.q.:.:.;.1.| ~ B u m T ] o.o.+.+.] ] ,.+.m i h p A 4.i.6.l.S.N.L.} ~ V.y.V.7XlX7X9XlXaXV. XlX#Xz.N.S.y.! ~ ] ~ r.F.f.4.i.9.r.~ ~.f.] o.N.F.=.4.+.+.! @.! E I i.4.A o.4.o.] Z A } ~ ] ] { T 1.;.;.,.| ^ 6.4.r.6.y.f.q.:.} ;.y.,.0.;.^ A Z T ] _ K.%XK.XXXXU.K. X Xq.s 0.L.o.] U h 0 A T A { +.o.+.+.] ^ ' n d b P h ~ r.y.0.l.R.",
"o.7.:.r.+.i.Z..Xg.2.6.} D +.>.h.c.!.0X^.^.1XOXN.XXf.n l h +.' o.o.i.i.~. X} *.l.T.C.1.T./.|.| d a u a s H M d b r P A x T +.*.r.q.o.A T +.~ I ' r.r.6.l.R.K.,.~ S.E.K._.,.I :.u.<X#Xq.K.Y.[.#X[.L.r.,.,.4.6.e.] d u m T ^ } o.o.,.;.:.,.=.A Z A A | q.r.q.6.0.0.q.^ ] K.y.V.5XlXlXlXlX7X;XrX5X[.K.r.T h h n T ] f.,.f.A.~.2X>X^.].].z.q.N.N.z.=.*.A C r.@.S ^ J } ! P ] } Z Z A P { +.6.| +.+.' ` R ' T  .] 4.^.N.r.S.r.*.) ~ I 4.q.4.m m ~ A w.K.'. X[._.'.'.l.l.V.6.*.;.,.{ ! b u n P { o.o.} o.] } :.+.b i h i U | 6.E.~.S.K.",
"X.] ] 2.+.+.r.(.i.} N.4.] f ] V.f.^.1X(.L.1X1XL.y.a.h % 0 A A J ] ;. .6.F.g.G.(.oXoX+XoX{.{.(.i.u 3 y i G b z 8 z G *.Y U *.+.4.0.' U _ _ T P } a.0.y._.~.:.~ a.l.K._.[.S.:.+.6.S.E.a.n./.L.l.N.r.,.y.;.{ 6.0.+.A h h ] 6.*.} 6.V.z.y.z.S.6.*.] I ] ] ] ,.l.4.~ q.,.' 6.0.[.aXkXsXlXlX#XkXlX;X#XL.+.S C 2.i.+.2.r.2.Z.Z..X(.G.i...p.:.+.,.r.@.Z.R.r.] +.S E E I ^ ] ^ ] +.~ Z Z ] +.e.6.q.r.:.Q +.] ! ~ o.o.o.f.y.e.r.i.a.;.y.Q T ;.' { U P :.*.a.W._.].N.0.f.:.} *.:.4.:.4.r.] d 0 B T T +.} o.,.*.:.,.;.H N A A +.,.4.r.q.0.r.",
"] E o.4. .o.F./.4.o.L.=.7.! c h  .(.3X^.{.3X>XE.} 6.n h 0 A *. .6.4.N.L. X(.!.+XoX.X{.oX{.>X3X(.M.d 6 8 b b d v P Y M B U ' ) :.q.T T _ } I P *.y.r.l.~.l.Z ~ XX[.E.Y.XXV.+.i.'. Xl.,.L./.L.~.].~.V.q.+.] ) o.B k T n T 0.*.] ,.N.f.y.0.0.i.,.) +.} ] o.,.y.e.6.~.+.;.&Xl.E.yX;X].aXlXlXlXlX6Xe.+.~.=. .i.F.i.i.z.q.7.N.i.g.2.2.%.@...,.,.+.,.i.L..XF. .%.] Q 7.~ ] ^ E ~ ~ Z ~ q.] 6.r.,.i.=.+.o._ J +.] ;.o.o.^ @.i.N.L.r.q.I U ;.~ T U A A 0.y.N.r.;.V.~.y.;.} 4.r.~ ~ 6.6.o.n b p ' q.*.] 0.V.N.r.f.V.0.*.' P o.' ] E.Y.K.n.",
"o.( %.9.y.e.]./.+.] a.@.@.r.6.] ] ~.E.f.^.>X(.F.o. .d b 6 N f.f.f./.~.E.OX.X(..XoXoXoXoXG.(.>X(.OXl.u u 6 M v Y b R R A i ~ T 4.P.] M { ;.} ] +.e.y.l.x.=.H ,.~.~.'.E.S.f.4.e.K.].K.6.,.l.V.*.E.'.y.6.| ~ } +.A h ~ n ~ 4.o.6.l.l.f.y.a.l.6.| { } :.0.,.4.z.,.c 6.) :.XX~.#X7X;X9XlXlXlXlXsXf.+.f.}.=.@.6.N.G.F.4.,.e.r.6.f.g.N.2.+.r.a.V.f.,.6.F.r.7.g.F Q Q g.E.4.,.} +.^ E +.f.f.V.} r.M.6.,.+.+.*.J 6.y.+.] +.~ ^ @.A.Z.N.7.;.*.,.r.T A Z ;.u.6.4.a.J.E.L.N.z.N.r.{ T ] o.m d ~ n ~ 6.+.] ,.N.f.a.q.q.r.,.) o.] ~ { r.F.K.F.",
"6.p.2.2.F.e.i.].2.+.2.+.e.4.F.,.[ ~./.g.i..Xp.g.] ] k h r A q.r.N.6.z.N.g.G.!.^.1XuX0X0X3X(.].>XOXC.8 e u 3 u ' i B R ' ~ ,.T ] a.] I ] ,.=.*.6.c.l.6.+.b ,.].K.V.S.K.'.y._ r.W.R.0.] e.f.e.,.z.n.l.q.*.] { =.P B T b ~ ,.o.,.r.y.r.y.y.q.] } ] U +.4.6.4.] ~ r.L.z.,.l.K.;XyX<XkXlXlXkXlXrX-.' (.z.f.N.Z.N.N.z.e.y.N.G.g.R.A.Z./.g.,.a.e.o.6.F.r.f.G.2.r.] } @.4.N.2.] o.@.E e.M.f.a.y.a.q.+.! ,.] _ ] ,.^ +.o.@.Q Q ^ ;.%.9.F.M.V.V.r.1.{ A +.0.=.<.y.].&X XXX/.l.0.~ T ] +.A b T b ~ ,.*.6.f.f.f.r.f.f.6.+.] o.:.6.6.f.S.E.n.",
"}.i.:.r.6.,.,.N.,.+.4.C Z ^ ~ V.y.F.] i.4.:.:.J T 0.B n s J @.q.u.>.6.2.+.r.G.!.Z.&X3X8X3XtX3X+X;X_.) { - 8 * ,.a a u R ) ~ e.} I Z I +.) :.] ) f.K.L.N.+.4.l.y.r.y.M.u.1.| 1.N.L.V.6.,.q.e.6.r.V.S.q.:.+.} ] o.=.T ' +.,.z.z.f.l.V.f.,.+.+.+.} U ) 6.y.,.,.,.,.,.y.~.#Xz.a.N.r.yXlXlXlXlX'.c f.N.=.r.6.A.N.:.=.+.^ i.r.g.6.g.F.E.4.7.;.o.y.e.o.~ f.A.f.7.i.4.} ~ o.4.:.:.] :.@.:.,.@.,.i.a.e.2.,.,.l.:.] } ] ;.@.I F I X.%.%.r.f.+.4.z.S.:.} 6.M.u.l.P.'.n.K.%XN.} r.} P ] :.n h T h ~ ,.o.6.y.y.y.r.a.e.+._ ] A *.q.4.:.6.r.i.",
"(.a.%.i.3.7.} z.a.6.r.T ^ Z ^ ,.| +.0.F.:.Z n p 0.C.b m p 9 g ~ { C.e.o.o. .=.5.D.(.].3X3X3X&X>X7X;Xu.} m , & | M y y R *.;.M.| ] h ^ 6.N.r.,.:.,.V.,.I y.~.L.e.] :.6.y.,.6.g.e.q.S.4.f.N.V.z.S.W.V.} +.:.+.^ ] +.o.T ;.f.i.f.y.l.N.,.} =.+.+.} ~ :.V.N.*.e.a.:.P r.P.f.}.].F.L.+.'.lXlXaXV._ f.M.e.6.o.6.0.+._ T A ^ ,.4.6.;.4.(.E.E.e.+.T @.^ ,.@.+.i.7.2.6.N.Q E S :.] F Q ] +.T P S 6.,.] r.6.N.f.f.f.,.=.2.+.o.,.+.] 3.r.Z.r.g.4.+.g.A.V.S.:.:.l.K.N.x./.z.6.6.,.+.o.} ) U B B ' +.,.l.f.y.l.z.f.,.+.| +.| ^ ~ ,.r.=.XX;Xr.",
"3.9.4.M. .6.} a.;.o.i.] n n ~ ^ b ' y.+.n d n h ) / n n P i 0 E *.6.V.M.i.7. .p.(.!.!.+X>X3XtXtX;X2Xy.y.u.P 4 ;.m e d T *.u.f.:.6._ P :.,.=.r.y.{ l.y.] N.~.f.f.| ,.+.~ :.;.a.6.u.C.{ y.L.V.r.F.n.0.+.+.:.} ~ o.P ^ q.r.0.a.y.f.N.N.4.+.,.o.,.+.~ ) 6.y.] =.:.] ' P +.K.V.V.Z.l.}.lXlXlXyX~.Z i.6.e.4.;.:.,.f.:.B Z } T ^ I [ r.M.M.C.~ U n P T ;.' o.f.C.+.A {  .Q Q F n C :.:.^ E E +.o.f.+.] 2.4.q.a.:.A.4.^ T +.i.7.] 2.9.i.g.A.G.r.+.2.g.i.4.,.y.q.u.F.K.r.6.f.,.+.} o.B n A ~ U =.f.l.i.f.z.V.,.} :.o.+.} T =.V.V.0.r.N.c.",
";.f.:.y.o.i.+.o. .P r.I n n l n M m B h d h h b B h e.n ] J S ] y.y.r.r.r.f.i.oX+X(.D.D.3X&X>X+XW.<X2XL.C.;.b ;.b d 4 | e.M.6.$.) T P y.q.f.f.y.4.u.:.) N.f.+.@.T ;.:.+.:.;.:.1.r.y.,.1.l.V.N.c.F.f.o.| 4.I i S T Z } 6.r.l.f.a.f.V.0.] ) I N I ) _ q.a.) q.i.] | A | n.V.l.~.rX9X X;XlXlXV.h =.+.e.6.{ ' ~ y.+.] A { ;.M.$.P I ] ~ 4.6.+.b n n ^ ^ { T y.] n +.Z.p.I p j C S %.,.+.P +.6.,.^ ~ ,.;.,.*.i.i.6.} ~ o.z.G.i.Z.N.i...p.(.G.7.2.i.r.+.r.o.o.,.r.0.z.l.y.6.*.+.{ I B Z ~ 0.y.6.l.r.i.l.z.6.+.:.*.:.o.~ ) ,.y.6.i.f.l.",
"i.F.f.V.6.a.4.! +.A o.m h h d b D k b i h h d b b M D k T E ^ ..@.q.6.4.M.Z.7.oX3XoX1Xf.~.1X1X>X&X&X;XF.e.;.B 8 M d 4 H R P A { *.T r A } r.y.4.0.' 0.W.F.F.C.T ~ S E y.6.r.r._ @.f.:.6.f.F.S.l.e.,.6.l.f.g n p P } o.:.r.y.y.y.z.V.a.' h u 4 h ~ ] ,.6.] 4.*.P n o.z.z.l.l.'.yXkXlXgX#X7X Xo.y.U +.T U T T ~ ] e.} *.e.f.' P B q ~ ^ T +.;.' A n ) :.^ :.C.F.*.g.}.].(.6.~ ~ I q.=.4.a.7.2.}  .} ! P Q } 6.f.] ] a.R.,.r.f.:.4.7.6.A.g.i.r.6.i.Z ~ ,.,.] ' ,.f.l.y.*.6.4.] h P ~ b } 6.0.f.a.f.z.N.0.} ^ P B P ^ ] ,.i.,.}.<XE.",
"f.E.y.a.,.V.,.h +.] +.Z B H b B U | D d h h i D Y B A | U Z ^ J ^ ] ~ @.N.F.L.^.oX&X~.2X/.L.!./.;XS.r.,.f.e.| 8 d G 2 4 d d B P :.n * 3 h } 6.,.+.+.u.l.e.F.R.6.} +.r.} o.] 4.+.o.a.6.:.z.S.q.0.;.+.] ,.A.f.9 j ! ~ } ,.6.y.V.S.f.l.f.+.h i u d Z ' *.} ] 4.,.P n 6.E.N.i.V.L.R.yXlXgX~.U.R.+.f.P h n T +.] ' ;.+.~ ] ~ 6.4.] 6.4./ I ~ P T T 0.] m ] U +.=X-XF.V./.]./.XX4.T 6.f.,.:.M.4.:.r.+.} !  . .^ 4.o.] :.E.E.f.A.N.f.S.f.F..X5.2.R.:.4.] Q ) ~ H o.l.0.4.l.V.V.,.P h Z ' } o.=.0.y.q.a.f.V.l.{ i 0 8 d ~ | *.] ) z.F.:.",
"N.F.:.i.;.f.4.! o.~ ^ A U ' U T [ [ U U C D U m / [ / { T 2.2.2.e.q.r.2.N.Z.i.q.!.(.+X.Xq.f.7.9.,.F.4.n P { | P $ 0 4 8 i 8 d A U U n 0 - 2 T ,.R.F.' 6.~ 4.A.e.i.i.M.V.].e.] ( T ,.4.2.4.i.l.r.:.+.6.S.].].i.] E 4.o.,.N.V.n.l.f.V.f.{ h d u i 4 { 6.| +.,.4.| b 4.E.c.r.F.9XlXlXlXkXW.[.K.n ] ~ T ;.o.^ q.4.=.] +.] 2.N.4.] 2.G.G.e.! } a.] =.,.~ n Z m *.F.=X/.R.E.r.&XF.I 6.a.q.,.y.:.3.i.] ] P o.:.I +.o.+._ 4.;.^ r.N.,.i.G.R.(./.F.:.f.N.f.~ ~ P +.6.+.S.S.+.] ,._ h h ~ +.) } ;.6.r.K.V.f.l.a.+.b h q i B ' ;.o.' f.'.L.",
":.r.o.e.4.G.a.h { I P P B P U ~ P } { T ~ B D P [ ' | R A e.q.+.M.,.6.=.r.Z.f./.N.z.E.E.7.y.E.^ F 6.;.6.8 8 8 m B b d U T b 0 0 b ;.;.A B 4 o Z F.V.~ I 8 e.4.~ ] I V.F./.V.(.Z.6.} ] V.6.r.r.e.q.y.z.Z.].R.l.f.1.:.4.z.n.V.V.N.l.N.y.{ b i q i i T U A T ,.4.I h y.F.,.e.u. XlX<XF.XX6X X,.=.o.o.4.4.] ;.e.~ ] T P ] 6.i.7. .6.R.6.G.F.,.+.~ Z A 2.N.~ n c n ;.}.].z.i.S.,._ =.=.,.+.+.4.7. .] +.,.] ;. .] ~ A ] :.} ] ( f.] g.f.i.}.!.!.F.Z.f.N.~ ~ ~ T ) +.K.L.,.,.6.) n I ) +.4.} ;.l.v.l.z.f.V.f.] h u i i 4 { 6.+.} N.~.S.",
"+.2.:.7.4.l.Z.Z n I A m n M U | P } ,. .+.^ { 6.| { ' ` { ] @.^ ] o.6.^ J g./.~.F.N.N.F.].^ o.Z 9 0 ~ h q 0 T P +.T m +.f.].z.! H A ;.+./ { m n ~ :.:.[ ] }.f.{  .^ !.R.}.}.].]..X8XF.6.,.7.+.o.+.:.+.y.F.} d ~ } e.*.0.L.K.y.y.l.V.z.{ u i b i 3 U N d ~ *.o.I ^ *.6.,.f.S.[.5X#X~. X;XL.,.} B _ ~ o.} ] E S A } 7.4.i.a.y.7.7.y. .@.f.f.o.Z m n } S.] z.a.;.j I ).eX}.i.] t h ! +.] o.r.6.( 6.o.6.7.e._ ] G.R.F.a.3.~ 3.;.2.:.a.G.4.i.N.r.i.e.A.6.P Z :.N.f.0.*.] =.0.~ x ] } | :.1.l.K.z.f.N.f.N.f.o.b u i i i U ^ P m o.V.L.",
"2._ ^ 2.V.N.F.J 0 ~ b p R ~ } :.o.o.4.6.o.;.+.1.e.e.>./ :.~ ^ q.f.7.g.e.:.z.z.R.4.:.OXF.E.Z o.h ~ ^ >.] D I D U ~ T h 4.o.! N./.R.I B P ' 6./ ' 1.;.~ b | /.N.f.7.p.6.G./.3XeXN.Z.8X3XF.6.6.q.] @.@.+.R.R.i h u P 6.} y.L.f.e.z.V.V.f.) i B A 0 8 P Z i ~ *.,.+.) +.6.,.] r.[.<XfXlXgX;XF.+.{ | Z ^ ^ o.m P J ~ o.4.a.,.e.V.;.V.G.:.@.j.y.].}.+.T } Z q.]..X~.}.y.I OX/._ ] s g h o.] }  .} +.@.~ +.,.:.6.i.A.R.i.,.+.+.3.M.f.g.F.g.^ 2.:.C o.F.R.M.o.m +.V.f.,.^ ] { :.) H :.~ ~ y.o.r.K.S.r.q.V.N.l.{ 0 d h i 4 A B i ~ ,.S.~.",
"C E X.i. XF.V.m h U d p R T ;.:.F .... . .+.o.a.C.1.t.[ U ] ] p.!.r.4.+.a.~.N.~.F.,.4.T h !.+.n 6.+.1.:.A ,.1.;.U A +.o.E ] ! 6.y.W./.| | 1.' 6.6.1.y.3 0 f.f.XXoXG.g.7.g.]..X3X].oX.X(.Z._ ..+. .+.i.F.F.n s d I 1.*.0.f.,.,.r.F.S.N.{ 0 8 u h 0 B b d ~ +.;.+.T 0.S.z.r.K.9XkX&XL.[.#X&X,.} :._ Q ! r.E =.@.=.4.f.2.+.@.:.7.Z.f.i.:.f.N.!.]./.f.o.I ] ].(.~.].).(.q.~ i.i.g g g o.+.+.^  .:. . ._ +.+.+.f.g.f.6.^  .] i.E.6.@.6.;.;./ $./ :.V.R.R.=.h *.l.0.,.} | +.{ P H ;.+.+.r.+.y.L.y.y.f.N.Z.l.) u A B q 0 P A i ~ :.F.~.",
":.o.~ 7.XXV.V.,.h d p b m x 0.0.j.g.5...+.+.8.6.,.;.' | ` ' ^ r.H.g.3.7.g.f.!./..XF.4.C @.y./.' Q 4.;.,.R V.1.1.,.,.P  .4.^ ] Q ;.b ;.*.' { e.C.6.4.,.0 u | } a.!.+X.X+X2.@.g..X8X3X.X].^.q.5.7.E +.f.K.r._ u h T +.*.6.l.f.N.y.*.:.i.+.i d h d 0 u b U ~ +.,.+.I V.XXr.6.m.5X;X<XaXkX6Xv.~ } B Z ^ 6.2.q.7.7.q.6.S.2. .~ ] M.9.r.r.:.+.i.].}.f.A.V.^ I n  .N.f.i.(. X].r.E.]._ 3 h I ] ] ] Q ]  .X.} o.] 4.@.2.] +.2.3.N.M.;.~ ;.;.+.~ +.I P A.6.q.F.A ~ f.q.,.| ' *.U h P | 0.y.6.o.r.a.,.r.z.z.Z.l.| i 4 i h 8 n b h ~ :.V._.",
"^ A E Q a.a.V.| d u 4 i R +.*.[  .f.7.f.7.X.+.6.P / ~ A A ^ P @.| | { :.u.C.|.].f./.~./.(.z.].Z.m n ;.$.6.u.' o.r.e.+.@.i.2.W ^ ~ ( _ =.e.6.6.f.~ U ;.b / R { 1.j.p.R..X+Xp. .p.8X>X1X X(.Z.5.5.4.f.6.y.M.:.{ ] I +.+.y.K.f.6.*.:.,.;.A 8 h b h 0 i n ! ) } *.] h ' N.L.F.Y. X*X#X*XOXV.+.B } n P 6.S.4.2.6.,.6.W 7.i.2.:.g.Z.R./.a.A.2.F./.].!.E.(.N.7.p.j f ] i././.].A.A.]./.N.o.n +.;.o.+.2.,.o.] +.] r.o.4.6.A ] @.A 6.:.J ~ A o.T I ] ] @.2.g.S.r.~ ,.y.l.6.:.o.A B | r.r.4.q.*.0.N.f.f.f.V.n.,.n h d h d q i u d ~ :.S.'.",
"g J h h f.(.y.+.h u z d m b [ e.( 7.] X.M.6.~ 4.U I A n A Q A ] R U T b A ;./.V.i./.2X2X>X>X&X&X;.:.6.,.f.6.} f.}.}.6.i.p.@.2.@.4.V.G./.F.F.a.i.u.4.h 0 R ' 1.V.f.3.:.N.+X.XH.i.2.i.F.6.F.A.5.5.t.V.V.R.e.;.,.:.] { 4.~.E.a.q.] P 4.1.I 8 d m i 4 i B I ' | *.+.b ] n.R.:.0.*XsXlXgX/.[.' B } ^ ] V.z.S.7.r.i.i.p.g.r.p.g.g.f.(.E.R.E./.+X/.!.G.]./.(.^.(.^.@.l 0 a.(.f.N.N./. XOXV.h ] S.r...@.+.] ~ o.@.2.] q.,.=.! ~ I h ] ~ *.o.] Z I ] _ ! r.a.M.f.i.H =.:.] ] :.U n :.z.V.f.,.:.*.,.f.y.y.c.L.;.p 0 d n p 0 u P ~ A =.c.V.",
"i h E n f./.V.;.n b M B M R ;.>.j.p.+.:.h.[ $.U n B / T T A A } A U M m P +.;.A ].~.E.2X&XA.oXpX=X2.@.,.:.+.^ | e.o.F.7.p.p.G.G.6.,.R./.f.z.E.G.N.a.U n ' 6.:.6.:.:.;.y.p.g.+X+X.X}..Xq.5.5.^  .6.M.V.T.+.:.y.a.4.:.H o.f.q.z.e.;.0.~ i i h u p U & u { } ] ) P b } S.n.S.R.XXaXkXlXhXz.n x e.u.7.S.z.z.F.(.S.6.p.D.p.L.Z.g.5.R.~.OX XXX/.!. Xr.r.!.].].^.^.(.^.Q 9 ^ r.F..X/.].OXOXh +.L.G.Z.=.;.~ ] +.] ]  . .q.4.! ] o.! A P I o.) Z C J ,.e.g.4.,.y.N.+.J *.o.' { B A =.*.4.4.6.6.r.l.z.y.l.f.,.~ m u p n h 4 p A U D ] ] e.",
"P t h h S f.i.} h b ' A U ' e.$.9.%.Q 6.4.f.[ U ~ n A b B n U ] B U b m M Y D P ] z./.~.>X=X>X=X=XD.4.F.f.o.;.1.A.o.+.(.r.L.A.D.6.^ 6.2.7.4.7.7.=.,.;.d b 1.l.1.a.V.f.g.a.+.y.OX1X>X}.F.(.A.^ ^ 4.F.C.C.{ :.:.y.+.~ P A ;.6.y.:.U r.A 2 p h i i P & i o.P B J T n +.N.L.S.V.%XlXlXlXrX6.B n y.F.q.6.S.N.Z./.G.r.D.D.g.A.^.^..X1XR.Z.M.OXOX(.OXG.r.r.N.N.(..X(.(.(.g.i 0 ~ Z.(. XXX.XZ.+.!.R.Z.+.2.+.2.=.o.] +.I 6.q.] 4.+._ { U J I A Z C C +.e.,.6.^ q.f.S.f.I :.{ ~ T _ ,.,.0.z.z.f.y.i.V.N.z.z.:.o.B u h 0 i U & i { P ^ *.q.",
"U A Z B h ~ :.;.M M T | ^ +.4.r.] 3.@.j.>.' ' n ' B A b P B H M B I | U B M T n p 6.f.6.}.8XtXtX1Xz.+.i.q.r.;.;./.~.] e.L.z.Z.(.G.:.2.:.+.r.i.7.,.T T A i d 1.M.G.6.y.i.y.f.i.Z.OX&XOXOX(.A.i.r.6.B.M.M.+.:.} e.C.:.n B A Z ;.o.~ 0.T u b b 0 d ~ 0 d } ~ ~ ^ I p ) S.L.x.W.9XdX6XgXwXf.Z ^ l.f.2.g.z.G.R.Z.N./..XL.i.^.(.].(.^.7.M.r.f.N./.E./.f.Z.R.E./.(..X(.E.(.} n A C +.g.E.eX;X2.+.r.r.f.f.q.+.+.7.] +.r.7.:.4.6.f.y.6.' o.! _ ~ I A ] :.o.+.;.T =.i.N._ A ;.A s +.n.f.i.r.f.0.4.4.r.z.F.l.i.h - i n i i A - 0 ^ J I ;.F.",
") ~ H n T T ;.] A x P R ;.[ ;.3.2.@.@.M.e.f.+.A T U ' D B x A B ' { | ~ R T D u h ~ ,.;.2.&XiXiXtX2Xr.j.7.;.4.e.o.6.E./.~./.+X(.f.2.+.@.y.i.2.6.} T { ~ d T ,.l.e.i.}.A.4.i.=.+.E.+X+XL.(.Z.oX>Xa.6.,.,.,.6.,.l.4.] ' c 0 I f.F.n 0.T i B h 0 i Z 8 h ^ ~ I | *.p ) V.E.L.l.L.fXyXgX-X0.Z 4.q.N.6.Z.G.Z./.N.i.R. XR.!.^.(.Z..X(..XR.q.i.2.i.6.!.g.R.3XOX~..Xg..X}.!.~.f.C n C C 2.R.8X6.S g.y.r.f.N.7.@.2.6.6.5.6.6.V.6.e.6.m P T I +.I c n I +.6._ :.T ^ 2.i.E.:.s B b { q.,.6.f.f.4.6.i.e.0.r.r.:.b 8 h b 4 d ~ 8 m +.T e. X X",
"P R n n h n P ~ P ) ' *.>.,.+.3.:.4.} 2.V.1.:.' h n U P T M M z A ~ R +.| ~ 0 i i h I V.:.N.iXrX3X].g.f.;.@.4.4.+.+.C.E.Z.g.]./.}.p.2.2.y.4.;.] :.] 1.;.d +.:.,.i.M.&X}.,.=.,.:.r./..X>Xq.i.D.^.OX~.f.] 4.+.~ =.] c m 6.+.I e.6.P 0.T 8 n n 4 p ~ 0 h o.~ 8 0 { ] 1.f.0.*.,.'.aXlXlXXX*.C 6.4.l.6.y./.Z.i.7.z.q.f.!./..Xj.i.^.(./.G.E.}.4._ 2./.R.OXXX!.S.F.i.!.!./.~.}.r.@.:.+.6.R.L.E.E G.R.r.f.q.f.E.N.i.=.] 6.L.a.6.6.:.[ ' ~ _ ] Z E ^ T ~ 6.4.^ @.Q Q 6.z.R.A u P | :.r.F.f.:.,.=.:.q.r.r.q.:.b 4 i h u p Z 3 b { U r. X[.",
"I ) ~ ~ ;.A m P P ~ ) ~ ,.} ~ ] r.} o.y.;.' { n d d d d n M P R Y P T *.| T d u h g Q g.:.2.N.OX3X(.] ~ 9.6.r.a.e.y.6.e.a.a.Z.&X}..XR.G.e.6.+.+.} U } 1.i ~ V.;.y.i.F.OXL.4...,.@. .f.L.D.q.Z.G.M.(.G.C e.=.~ q.6.~ } M.y.+.y.q.} 0.U i n h 0 d ~ 8 i ] +.0.P - ~ q.y.6.F.V.K.dXlXhX|.I / 4.] 6.6.~.f.z.f.7.S.f.i.F.f.i... .F.(.R.!.(.(./.z.~.~.z.E.!.!.R./.}.G.f.g././.}.N.i.:.C 4.4.!.I S @.i.6.F.L.F.f.E.r.+.4..XOXf.1.' ;.{ I ] ! J 4.4.I C T o.,.] Q } ~ ^ 6.:.D i ] *.V.J.4.) ) *.0.q.z.f.0.S.P ; h h 0 p ~ 8 h +.~ o.r.n.",
",.+.u.V.~.V.{ | H :.T H T T C C n P n A n h m n s d i x x M Y B P m { ~ { T b m h i P 6.e.+.] }.:X3X!.+.R.f.y.u.y.u.y.6.6.' | M.(.N.g.G.g.3._ 4.~ h ~ T p U M.f.a.*.f.}.].6.6.6.2.q.:.N.G.^.!.i.+.3.+.o.A. . .M.a.,.4.S.S.i.0.S.y.~ h b b u 4 h ^ 4 d +.T 6.o.g ~ =.q.l.F.'.;X9XlXwXe.~ f.7.i.z.Z.^.z.7.z.N.}.L.7.7.6.r.E 7./.~.Z.N./.Z.z.(.~.i.:.N.G.F.OX/./..XG.+.i.G./.~.!.&Xg.h j o.r.] h i o.A.oX.X/.L.(.R.(..X(./.F.e.~ ' +.6.=.=.o.e.+.E ~ +.,.r.,._ I I ,.r.:.P ;.y.r.r.*.+.] +.6.0.N.l.r.n.P & h b 8 d ~ 8 d *._ T T 6.",
"*.,.,.F.W.M.A.e.U 1.;.U Z P I ~ 6.n m n h n n n s i h i d b s B R :.' A { b ~ P u h A } y.r.X.j.1X+X1Xg.g.E.6.a.6.a.1.f.f.{ ] 1.R.}.G.7.6.f.P ] h m h m 0 ~ +.,.z.:.F.E. Xz.:.7.2.i.3.:.(.!.A.5.X.7.o.4.f.+.T q.^  .f.F.L.G.r.S.r._ n h m i 2 h T d Z } T ,.,.I T } l.[.L.~.*XsX7X#X+._ r.i.i.E.L.(.g.A.r.6.L.R.Z.q.&X/.7.=.!.(.!./.G./.}.Z.i.r.r.4.,.G.~.R.G..X}. .r.f.i.~.L./.(.}.g.h ] ^ i.a.;.h n V ^ g.G.(.M.~.}.}.R.XXe.^ q.l.4.f.6.^ o.e.,.;.! +.,.o.^ I ' 6.u.:.) :.N.6.] T ;.4.,.r.l.y.~ b h d p i 2 h T 0 b ;._ ] ;.f.",
"'.;.:.+.6.T.f.~.+.0.;.:.} A 1.,.f.6.} 6.} n A h A T d u b h m b { +.H H ' T T P A A ] o.o.9.:.+./.3X+X~.V.4.R.N.R 1.1.u.1.} } } 6.f..XF.M.o.4.f.6.' T h ~ U $.;.i.i.F.S.F.R.6.N.:. .Q +.@.Z.A.(.~ ] P 6.r.+.A 4.} :.F.6.f.i.z.S.y.] b h m q 2 h T i n o.~ A ,.n.] } 4.f.F. X&XXXl.N.^ r.g.q.z.^./.7.!.L.L.(.G.].+XE.Z.g.g.r.q.g.j././.R.=XE.L.r.F.r.,.g.}.F.Z.}.XXG. .7.g.@.N.L. Xg.}.]._ h ] e.OXOXN. .C C j n :.j.].}.}.+XF.~ 6.F.E.=.;.6.:.6.f.f.i.:.I P ~ ] ;.:.*.+.T +.*.] T ) ,.r.y.f.f.q.' h u h h i 4 d T p B | _ T ~ ,.",
"1.y.:.;.+.' $.C.OXu.1.;.+.' 1.} N.f.,.6.r.F.e.a.4.) A h h x x Y A m { e.:.:.' | o.| o.| [ $.( +.X.R.(.!.R.6.4.4.;.{ ;.6.o.~ P ] 6.,.L.XXR.;.M.4.6.+.P ;.$.f.g.,.@.i.f.i.z.F.f.i.r. .N. .@.2.G.G.~ :.2.4.6.+.T ~ ] ] o.} T +.4.6.| i h B n d 4 p ~ n A ] _ H :.S.] ) y.l.q.K.<X&XR.4.] z.Z.z.Z.!.3...A.^.(.(..X].+X&X=XS./.f.^ N.i. ...N.L.;X;XS.E.L.,.r.Z.!.H.OX.X}.f.r.OX4.=.g.].z.M.(.^.r.~ +.M.A.A.V.!.^.p./.X.S A o.F.F.R.7.l.S.S.6.4.N.o.+.e.r.:.I P ~ I Q R / [ 1.+.y.f.+.P ) +.,.4.r.0.] A d i h k 0 4 h ~ i b ;.,.~ ~ f.",
"I 0.;.,.3.%.' I E.;Xr.' e.| ~ ' 6.7.7.2.r. X7.q.4.=.,.! i d i u h T :.;.| ' 1.+.| ~ ~ ' [ ] D ~ X.V.6.g.y.f.| *.+.;.:.' } U A +.;.| | C./.V.A.[ ^ @. .6.g.F..X=.2.;.2.:.R.j.Z. .:.+.3.@.2.5.+.g.!.Z.f.6.o.Z P 6.6.~ _ ~ n ^ 4.+.A { D u 8 q 4 p P A ! ^ ' _ } } { +.f.K.l.].;X[.[.,.2.D.(.!..X^.r.g.g..X]..XoXG.(.].E.F..XG.R.G.(.+X/.R.G.^.].2X2XXXg.f.i.!.(.(.].(.(.4.G.i.] 6./.2Xf.!.(./.f.} T ;.r.a.a.g.f.G.Z.Z.N.f...C C ^ r.R.L.E.}.F./.i.r.i.y.y.o.] i.4.4.{ ~ } ' r.i.| P ' +.:.0.y.e.0.o.d i b h u 4 d T b P } ~ P ] i.",
":.6.4.:.] :.f.8./.2X7XT 6.n P m 4.F.Z.Z.N.S.!.D.:.,.+.I 0 i m 0 k T U R ' D [ 6.:.] { $.[ +.~ Q Q X.X.+.} t.^ ~ b 6.;.B ^ P P  .+.+.;.e.u.e.y.6._ o.} ~ :.H.OX}.~.e.r.y./.H.H.r.i.r.i.!.(.G.@.G.A.f.q.4.o.] +.z.,.] L.f.i.6.q.] P | B i 8 0 0 i h h T ] ] _ T ) } +.u.R.r.V.'.S.D.E R.G.!..X!..X!.^.].^.G.^.^.=X}.Z.N.f.F.N.L.F.(.!.!.oX3X^.;XiX X+XXX!.M.6.i.N.^.oX(.S.G.S.4. .N.OX XM.1X2X2X*.P +./ 8.M.f.A.L.Z.Z./.G.G.G.5.@.p ! E.F.~.~.~.~.].f./.F.4.,.+.4.;.' +.[ n y.r.:.;.o.+.6.0.6.,.A h ~ Z 0 q u 4 i T A T { ] ' } 6.",
"S.2.6.;.( :.j.R.R.2XW.{ ' P B B r.!.(.(.].(.oX^.L.5.z.f.;.Q u h u { ;.U / 8.$.:.{ 1.' T [ ' m Q A I +.X.| +.o.' T { ~ T ] P C P ' ;.;.;.{ y.V.A.Q ~ %.+.:.f.e.R.!.N.p.N.j.F.g.g.!.!.L.G.i.i.6.p.^.i.6.y.:.I S 6.i.f.F.F.g.z.F.:.B B n h m m 0 3 P ~ ^ U I ! I T _ ,.r.y.+.f.].S.5.W G.G.D.D.Z.Z.g.G.L.!..XL.Z.D.N.S.!.L..Xf.!.S.G..X(.>XtX8XOX/.~.XXE. X/.!.i.f..X}.F.S.F.G.:.o.,./.>Xf.i.2XrXi.I [ [ D 6.R.F.R.!.G.(.D.G.A.!.G.y.^ i ( %.a.i.E.N. XS.r.f.^ P ] +.I E ( C S.y.:.6.y.4.*.,.6.f.o.i I Z i 4 0 q u h A ~ ' _ ' ' ;.",
" XN.N.6.:.:.3.f.y./.W.~ Y m 8 q ^ A./.].&X>X(.].(.!.~.~.E.~.E.W.f.;.:.R 6.e.;.{ { ;.] / +.$.Q ~ I ~ ( $.| T ~ | | B | :.I ] ^ T ~ ~ ^ ~ t.6.}./.( +. .@.2.:.M.G.Z.~.R.(.G.G.i.3.i.N.Z.g.2.2.i.p.Z.f.S.N.r.E J +.i.z.~ 6.N.z.N.0.A P m b k i T ^ i A ' ' ] T J U ] +.f.W.o.l.&X~.} 7.G.!.^.^.G.N.z.oXZ.(.&X].D.Z.g.F.R.!.F.S.R.E.G..X3X1X+X+XF.S.R.E.R.E.E.(.).H.G.].].}.A.r.,.@.;.f././.+.f.;X7X[ U U U >.F.]./.XX/.G.OXG.i.G.G.F.R.R.Q C A J =.i.N.S.=.4.,.I A ] Q I ( F z.*.:.,.=.] ) ,.0.6.] A T n 0 b A 0 0 ^ P P { _ ^ ~ } ",
"R.;X2Xl.=.=.4.@.r.0.V.6.T T - * = ~ XX XXX.XXXOX.Xi.f.M.e./.E.~.].n D P 8.6.>.' +.%.Q +.;.$.U D U ;.( I / ~ ~ ' 1.{ m / ~ $.~ m ~ S ( @.i.:./.E.o.C  . .o.6.6.7.g.(.(.G.].].G.j.6.g.A.t.r.6.| h.C.1.8.t.%.A ~ } [ 6.| T $.6.A.,.r u p i d 8 A ! 4 | *.P U } } o.0.6.r.N.,.E.7Xy.Q r.F.F.G.!.F.^.R.G.N.E.~.+X~.~.g.z.f.F.f.f.L.&X].XX.XOX=X.X/.~.(.}..X X X/.;XXX!.!.(.(.A.5.2.6.g.g.^..XG.p.{.:Xl.^ ^ ] +.R.G..XoXoXoX&X.XA.g.A.F.H.R.R.M.:.] T e.F.S.e.g.6.7...6.+.4.2.C f.;.+.4.f.0.0.0.6.r.+.n P h p h h T B * I +.) ~ ) ~ o.",
"g. X;X].6.=.@.+.S.S.F.+.6.y.P 3 = ! XXXX].}.=XXX.X:.:.,.r.,.g.Z.|.P D n ] ;.} >.+.Q >.B.;.[ ~ ] o.P n U m A ] ;.+.' ~ :.( [ [ [ I ] 7.:.r.e.i.!.R.p o.n +.z.q.,.=.D.(.(.>X.XA.f.g.g.B.r.r.r.[ 4.N.X.;.f.,.A ~ ~ ~ ' +.T +.8.1.r.y.d 0 d i 0 T I 8 ~ ,.' T ~ } ] 6.:.:.S.l.S.L.] } i.a.F.F.Z.F.D.!.F.g.g.D.^.F.(.R.f.z.]./.i.F. X}.}.XX X&X}.OXXXOX(..X].(./.XX~.G.^.{.^.(.>X}.2.:.6.G.+X>Xr.G.>X;.} +._ ;.N.l.(.oX>X>XoX(.].A.G..X~.G.G././.R.6.{ o.e.6.p.j.Z.5.@.6.:.@.P M.:.+.6.y.=.i.f.*.i.*.i u i i d 8 T ] 4 *.,.~ 4.o.I +.",
"Z.r.XX&XN.:.N.F.V.o.+.q./.~.r.r.9 J }..XE.(.OX.XG.f.f.i.S.!.F.7.6.1.D C U I +.t.+.$.| | 6.B ] } ;.A A B n B ;.;.4.:.] ' U | 6.e.+.6.Q +.M.r.f.y.~.A Z g E 6.6.6.i.g.p.D.D.!.F.F.H.j.p.6.h.f.8.} r.9.7.i.2.m C Q ] 6.4.T ] y.] P ' d 0 d i 0 U T 0 ^ ,.{ ] ' *.r.6.,.q.f.,.W.a.B @.4.r.L.F.G.g.Z.R.f.r.g./.!.z.~.(.F.G.(.G.R./.=X].OX+X/. XOX&X].XX.XOX XOX/.(.=XoXG.^.+X(..X/.7.6.:.2./..XZ.{.1Xe.U ~ ] +.z.G.L.+XoX.XoX(.{.g...f..XOXR./.R.]./.r.4.6.Q ..6.f.Z.N.6.g.G.A e.e.:.,.q.,.,.V.F.A ) r.d 0 d d 4 T ) 8 o.4.~ } } ' } ",
"p.R.G.8XeXN.S.N.V.f.~.E. X].E.].E < i..X/.!.}.R.z./.+Xg.r./.!.N. XiX).6.U U ;.4./ U ;.;.U } ;.n n T ' n m Z :.u.] $.' ~ ~ / +.>.+.T :.^ ,.f.f.f.L.7.m  .4.z.f.N.^.g.G.G.L.L.+X}.^.^.M.A.j.M.6.+.N.V.,.;.:.A Z Q Q +.N.o. .+.J =.f.d 0 h d u b n 0 B ] o.] o.,.6.6.e.,.+.4.f.+.A 6.f.e.F.N.N.g.D.g.Z.F.G.^.H.g.g.F.~.G.+X/.L.].=X2X&X.XOX+X+X}.OXOX&XOX}.+X}./.OX:X!.+X+X>X/.!.7.3.N.2.G.(.!.].>Xh.>.' Q =.i.p.p.!.L.G.].G.D.G.@.+.R.F.i.A.A./.~.F.g.r.^ 6.+.@.^ :.g.eXeXZ +.,.} r.a.,.y.l.6.P ~ 1.h 0 d p i m N 3 :.6.' +.*.' =.",
"G.(./.!.>X(.g.q.g.g.&Xl.L.].&X XG.9 i 3X^.(.}.].!...5.] !.G.oXoX=X-X8.' Q / f.U / / ' n u h x u Z T n B U *.| 6.e.6.} ] ;.~ D ] ^ o.6.+.] 2.Z.i.L.6.Q +.q.r.=.q.S.i.K.G./.!.+XOXH.H.A.p.r.4.f.F.Z.f.6.f.y.} ^ ~ Z ] o.+.6.,.:.6.I h 0 d d q A T n ~ 6.e.o.] =.,.6.4.,.:.'.[.} ' ] z.F.E.F.G.p.Z.H.!.G.(.F.f.i.7.N.G. X.X=X.X(.=X>X=X}.XX&X&X(.>XOX=X=XOX}..XOXF.+X&X(.L.}..XF.r.i.i.X.j.}.(.].(.u.:.~ $.6.i.q.r.R.F.N.G.D.g.N.] r.F.R.V.a.A.}.R.~.~.^./.Z._ ..^ Q 2.f.!.} ~ +.6.:.r.+.a.y.o.h | e.d 4 k i i B n 0 I ] ~ ~ ~ ) :.",
"L.^.;X(.&X/./.g.~ O i.+X2X/. XF.L.O.: tX&X&X].oX(.i. .7.G..X.X!.' ~ t.r.8.~ ' T.6.q.6.y.R r 5 x n A P T I ] ) | +.1.o.+.4./ B P ] 4.y.y.^ ] y.R.N.] C ^ =.6.6.q.,.q.6.N.R.~.M.M.}./.a.y.y.} V.i.a.M.g.M.a.6.;.o.] } +.I o.o.,.,.' p i d i 0 B T h ~ +.o.+.] :.l.6.,.*.=.[.F.^ ~ ^ R.i.F.F.g.R.!.(.R.N.R.N.g.N.g.G..XR.(.+X]./.(.XX2X2XOX2X2XOX=XOX+XOX=XXX(.].N.G.N.N.g.a.A.}.}.+.a.@.r.].R.p.!.F.6.+.r.2.a.g.a.r.f.F.N.N.q.4.e.9.N./.}./.(.E.6.q.oXoX.X].].^.p.+.@.4.}.;.h +. .:.y.6.,.6.+.r.y.T i i h d q m N 8 +.r.' ~ ] *.6.",
"^..X=X&X=X;X~.;Xi.% ~ &X;XZ.G.z.!...f ...X(.>X8X(.5.5.g.(.G.G.7.~  .=X2XOX6.^ G.V.^ o.^ 4.4.h i h h U Z U ] | ~ T :.;.[ ' | ;.4.+.o.o.i.2.,.6.V.L.6.n o.=.,.q.6.6.+._ ] A.E./././. Xe.~.r.e.R.6.f.A.i.+.=.g.6. .! 2.@.!  .+.6.:.) i 0 h d 8 ~ } h T *.} } +.y.V.=.y.f.,.z.K.+.e.4.f.f.F.G.N.g.G.D.!.!.Z.c.!.!.D.N.Z.f.(..X(.G.>X}..X=XOX&XOX~.(.(.~.F./.}.!.F.N.g.f.F.].r.E.&X=X~.y.+.@.f.G.z.G.1.f.e.,.4.V.F.L.V.a.f.f.a.M.y.Z.r.F.}./.}.}.}.}.N.~.!.R.].^.Z.]./.(.f./.F.i b +.0.f.n ~ y.! } ,.{ i i h i 8 ~ ' 4 ] e.+.*.) T _ ",
"G./.A./.=X+X=X&X+XE % S !.i.L.G.G.9 9 9 !.oX1X3X(.Z.(.]..X.X^.7.( ^ 2X=X}.OXG.7.7.4.Z Z I S.T ! T U T P T } +.,.4.*.' [ { :.1.' E o.2.a.,.] @.] 6.r.] 7.q.=.r.Z.M.,.+.+.4.r.N.f.}.F.}.Z.} +.F.F.7.p.Z.7.+.g.q.~ C ! :.:.6.} 4.*.A p p h d 3 U +.P ~ +.o.] 0.N.y.Z.0.:.,.r.4.+.1.f.,.f.L.E.F.7.G..XA.G.Z.^.(.Z.G.G.^.L.G.!.A.^.+XOXOX&X+X/.+X/.R.r.f.Z.Z.N.R././.F.M.g.L.}.>X2X=X&Xo.;.] f.z.L.R.e.} +.g.B.V.M.g.z.a.i.Z.6.G.R.f. .6.}.}.}.}. XR.D.f./.N.].(.q.7.:./.!.z.1.d i ' y.6.B ~ f.;.o.,.] d u h i 8 ~ ~ 2 ] y.:.~ T ' =.",
"~. X!.F.N.Z.7.!.2XG.= % q.E.!.~.G.= 9 O OX&X XXX~.]./.(.F.F.Z. .] ] &X&XrX&X8XL.Q ] ^ f.r.L.~.E.*.;.;.n B :.+.| | ;.+.o.o.~ :.~ o.o.6.a.n m +.r.r. X0.] z.r.2.f.e.4.4.;.4.%.:.e.V./.S.7.i.@.S.i.7.g.F.g.@.6. .] ^ ^ +.z.r.7.4.} Z h u 0 u d U ] ~ I _ o.] =.,.,.=.*.+.+.1.+.r.1.4.N.f.f. Xa.2.p.p.g.G.Z.G.Z.G.G.G.^.!.!.^.!..X.XXXXX]. X(./.F.Z.F.@.9.%.g.j.OXS.F.S.F./.&XXX XXX Xi.,.@.r.!.E..Xe.6.4.R.F.M.f.V.g.6.q.R.4.}.].q.:.2.}.(.=XOXOXF.p.q.5.7.g.G.p.g.N.~.;X&Xy.} h m ,.0.A { l.;.,.o.A h i h d 0 T } b +.r.=.~ I ' 6.",
"F./.Z.F.g.Z.q.r.Z.N.: : V !./.E.F.S = : XX XOXOXXX/.S.!.F.R.] = S.N.&X&X2XiXiX2Xg.a.fXjXpXgXpX;XV.N.+.m A +.A U U } *.P P ~ 1.1.o.} 0.6.+.P S +.6.OX X~ o...o.=.2.4.6.2.6.e.4.r.e.i.6.e.r.@.D.+.Z.F.r.r.=.N.,.+.Q ] Q ,.] i.6._ A h 0 u u 4 n } ~ T ) o._ 0.r.*.;.*.:.a.r.,.6.1.M.f.6.z.Z.2.2.g.Z.A.^.^.Z.7.g.G.(.G.D..X(..X.X{. X&X&XOXL.].!.g.F.:.i.r.r.F.(..XA.F.~./.OX;X2X].XXi.@.:.p./. X}.7.M.r.g.r.f.V.y.z.4.g.F.2.}.2X4.f.,.:.}.}.&X}.G.L.G.g.7.7.q.Z.i.j.=X].&XF.+.b n 1.,.+.{ B ,.,.+.A h u u 0 4 A ) h } 0.,.:.;.=.,.",
"] 6.V.q.i.N.N.e.F.g.] = % q.E.].E.,.- 3 0 OX XOX].+.a.}.G.Z.F.( t i g.&X XOXOXiX.X+XoX}.jXjXiXjX X:.b :.+.e.:.| r.U P d k A U ~ q.N.F.V.r.3 : C ] q.].!.] 2.7.=.,.i.6.,.6.r.=.r.7.] } } 6.!.!.,.7.i.@.6.+.f.0.i._ ^ ~ ] *.e.*.6.n k q q u 8 h T ~ T ~ +.*.V.a.+.f.4.o.,.] ^ ,.e.f.6.a.~.f.2.i.=.7.G.!.F.Z.Z.Z.G.(..XD.(..X.X].oX&XOX X.X+XOX/.R.F.] f.F.G.!.+X}.XX].+X=X2XOX&XoX.Xf.@.%.6.G.+XOXg.g.r.F.G.g.Z.g.6.N.}.L.e.F.1XS.a.:.,.E.].}..XG.g.g.(.{.p.i.=.q.g.^.OXpXE.y.~ | ,.^ m n n *.4.o.B h i q u - P { h ] i.r.,.:.6.r.",
"4.a.2.Q +.=./.E.S.Z.Z.% O X !.!.F.,.3 = h i OXlX/.:.T A ^ o.1XeXo.9 +.N.&XE.}.+XI .XOXOXuXiXjXpX Xd Z A } /.f.W.r.h D D 0 * 8 n +.N.]./.f.m C S ] ^ S..XR.E.!.7.M.z.@. .2.i.z.S. X+.+.o.+.N.r.,.2.9.,.;.] 4.4.+.] ~ =.] ,.+.o.,.u h i u 0 8 p T ) P ) r.r.N.f.r.[.y.:.,.h r.A.:.o.o.6.f.r.,.p.@.g.G.^.R.G.Z.A.(.].(.oXoX^.].oX(.>X=XOX}.OXOXXX].Z.f.i./..X/.].&X2X2X=XOX>X+XoX&X.XG.i.i.f.(.}.R.Z.N.a.g.V.M.F.F.}.(.f.V.:.N./..XF.4.:.Z.^..X(..X(.s.s.G.^.^.^.D.A.N.&XyXG.~ a.e.,.~ i E h i Z ,.D b u q u 8 d A ) =.e.r.0.,.,.q.",
"a.V.a.6.| { e.|.R.f.a.R.T   T }.E.;.3 3 - P B *.W.y.~ T 6.:.R./.L.E.V.E.OX+X(.1XF.!.tXuXlXXXeXjX;X;.3 i 2 B C.V.f.U P F k h n D ~ ] z.z.6.!.G.f.3.C 6.:. .@.A.H.i.7.] X.@.%.V.z.N.Z Z ,.4.R.G.,.2.+.%.6.+.+.4.,.! ] ] =.6.+.i.+.i B b u i b b m ) *.:.,.6.y.r.y.q.] P I _ T r.e.+.,.:.e.Z.6.5.Z.!.Z.(.(.(.^.].G.(.!.:X>X&X+X(.(..X=X!.F.}.+X(.}.H.g.i.E. X/.(./.2X8XXX X+X+X.X+X+X.X!.j.7.!.R.L.g.Z.G.g.a.f.M.R.R.F.E.A.+.g.].L.r.f.i.i.L.oX.X.XoX.Xg.z.i.OXOX X!.^.>XtXF.o.6.a.V.Z.z.Z.@.: j f n A h u i 4 h A x *.6.} ) +.,.r.",
";.a.;.a.C.e.e.6.M.E.S.4.9.I X r.$.8 0 u 0 A 6 *.f.T f.R.}.V.F.6.F.OX&X X&X]./.!.G.Z.^.eXeXtX+XOX2XF.{ ' T - 6.m 6.+.$.[ [ U ' ;.6.] 2.6.] Z.N.q.G.6.C C I S R.i.7.p.] X.g.2.4.:.Z J P S J ,.4.6.2. .2.a.4.,.,.,.A +.+.;.o.o.,.I n h i 0 0 h d Z ,.=.} 4.E.V.=.} y.I F = :.] 6.f.4.;.;.f.f.r.5.A.D.L.+XG.g.z.^.(.>X>X^.:X&X(.G.A.].(./.F.OX X(.L.R.~.!.q.F.6.7.Z..X.X.X+X+XoX.X+X(.:X:X^.f.R.F.R.Z.g.L.E.F.M.i.(.E.N.=XR. . .(.>X,.6.;.f.oX(.].(.{.oX].D.Z.]./.S.g.(.8XiXF.r.} e.V.V.XX}.R./.^ @.S c +.c u B p 8 h I ,.6.} ' :.a.",
";.>.;.[ y.e.e.y.r.T.K.0.r.7.E Z W.*.8 , M P 2 u.1.T ,.P T U 1.1.D.L..X.X^.(..X}.!.(.g.g.tXlXtXoXN.2XF.{ Z T b >.| U 3.+.9./ +.{ S E } 2.@. .@.6.2X=XG.C +.r.F.F.F.G.+.] z.4.P I ! h :.F.,.q.4.D / X.3.} ,.f.r.] N P | } 0.e.~ | n i u u h ~ n b ,.+.;.:.*._ 0.K.h.P = - f.f.6.f.y.+.,.y.2.f.g.G.L.(.oX(.(.Z.5.7.^.pXz.Z.].R.G.F.!.G.=X(.G.G.XXN.r.Z.R.!./.(.N.7.i.Z.!.L.].oX:XoX+X:X+X(.!..X+X.XA.D.G.G.Z.F.N.}.}.}./.G.+.2.R.>X=.i.,.z.Z.G.(.(.(.oXG.].D.D. XL.g.+XuXtX Xo.a.q.z.OXoXXXtX>X!.!.z.V @.=.T Z i q U T ,.f.;.~ ) o.",
"[ +.+.1.8.;.e.F.M.M.f.4.i.7.r.}.iXiXE.r H { Y B T U R ~ P T 1.C.!.A.!.!.^..X(.(.g.Z.^.^.L.+XtXuX2X=XF.0 B.C.P ;.M.P 6.I [ U 6.I C } 4.] 7.+.] N.R.>XR.G.r.f.i.i..XOX.XR.,.J 0 p C T *.XXOXOXOX6.+.%.t.U +.~ ) ' ~ h U H +.+.U :.T h p 0 0 P b n ;.=.+.,.,.^ 0.L.o.3 o I M.f.q.N.i.,.7.2.q.a.5.g.(.(.].(.oX+XZ.6.(.yX<XN.Z.].(.r.g.F.f.Z.N.N.f.}.S.].(.(.>X2X>XS.F.g.r.7..X(.{.+X+XoX+X+XoXOX4XOXg.G.G.!.F.F.N.}.Z.E.(.G.f...^.1Xf.q.i.f.L.L.^.!.{.G.G.(.L.g.].S.g.&XuXyX}.o.] +.Z f.oXoX6X8X!.D.}.z.@...,.4.A u o.] ] +.+.] U ^ ",
"6.X. .7.+.6.;.2.e.e.i.E.q.7.G.g.XX X2Xf.A A A U d m A S j ] f.r.M.F.E.V.R.G.f.G.Z.N.g.G.L.F.XXrXdXdX!.o r.i.A ~ R.r.T ! ] @.....n n _ Z.g.6./.g.g.+X+XoXG.g.i..X>X&XlX&XG.H.F. .h E R.G.OX.XR.g.7.Z.F.] ;.P b } } Y { { ' { u.r./ ' P i i P P U 6.4.,.:.;.6.y.} d 4 f.|.6.f.i.g.p.]  .2.g.g.7.5. XL.G..X.X(.Q.(.{.:X+XoXG.D.!.G.f.!.z.z.g.N.g.F.].OX=X(.~.OXiX~.Z.G.2.A.+X/.^.(.&X+X.X&X+X&X=X].7.g.i.g.s.g.g.(.z.(.(.D.g.2.g.1X2.5.D.Z.g.6.A.A.A.G.G.^.!.A.Z..XK.XXXXdXXX+.c h i d V.;XrXtX(.^.OX!.!.f.e.:.} A +.{ ~ ) +.=.o.+.",
"7.7.6.2.r.6.@.] y.+.y.g.L.q.Z.5.G.3X2X2X;.D - % * - A ~ o.+.r.z.f.E.F.R.R.i.3.7.Z.N.G.f.q.F.E.L.jXrX^ % ;.4.n { e.W.W.o.T q...J ( ^ ^ 6.4.N.&X(.!.+XG.(.G..X/.i.D.:XjXlXlXlXlX8Xw ] 6.,.=XOXR.N.G.g.}.7.;.{ | ' T Y R | ' ` 1.u.~ ~ ~ b i A A P } *.4.;.o.K.E.P 9 ~ |./.N.M.g.g.f.i.q.p.q.p.q.7.D.L..X^.(.(.{.(.{..XQ.(.(.{.+X+XE.OXOX XL.].(.N.(.(.(.&X/./.tXOXA.i.:.f./.!././.oXoX(.oX.XoXoX].7.i.g.p.G.G.5.G.q.G.G.Z.2.@.g.>X7.5.^.i.6.:.p.r.M.Z.N.!.Z.^.Z.c.N.F.OXiX&Xn f h b 0 +.C.2X/.Z.G.Z.~.+X+X.XH.2.;.o.} o.+.o.=.:.,.",
"2.r.+.~ ,.A.+.@.i.=.6.Z.D.^.D.g.r.XX2X2XK.b q 2 * 4 i ] } i.E.E.R.F.R.V.F.g.:.e.r.g.i.g.G.!.L.r.G.(.o._ 2.n Z n ,.o.r.~.+.+. .Z.4.m 7.N.N.~.+X>X(.G.Z.!.G.j.F.3.( A.D.1XlXlXlXlX] p R.R.g.f.f.R.Z.r.].F.B m A B d v d d M m ~ :.+.~ ~ n 0 Z U { ,.4.,.+.) K.,.5 9  Xl.OX/.A.A.F.f.r.6.g.p.D.L.(.f.f.G.L.^.^.(.>XoXoX(.{.oX!.!.(.N./. X(./.].!.!.!.N./.XX.XE./.2XR.f.6.6.Z./.(.!.oX.X!.^.(.+XoX.Xg.g.A.G.!.G.G.{.7.6.G.3.X.2.Z.>X5.2.Z.N.4.,.y.A.g.F.!.!.j.A.G.p.,.F.XXtXXXm o.n u b *.@X=X/.z.N.i.f.~.;X.XOXF.4.] +.4.6.A.} ! } ",
"r.i.3.7.6.f.V.] 7.o.i.S.L.!.G.c.f.~.}.2XF.U $ - h $ h m c l.].E.E.g.E.}.(.N.6.r.r.r.N.g.9.G.!.9.(.R.R.G.6.P n P T P ;.r.r.+.@.I ] 4._ 6.!.(.!.Z.2.@.6.g.f.R.!.G.^ N.G.i.rXlXlXrXQ h L.2.2.Z.6.N.6.r.F.F.m m d d y a u 3 D / >.1.%.} T b q A ~ ] +.~ ,.V.y.,.G # a./.M.(.(.].L.F.r.f.=.6.7.p.G.2.f.!.!.R.G.(.!.(.(.(.^.^.{.!.^.+X/.R.(.].}./.L.R.g.N.G.(.&XOXOXXX!.Z.i.7.r.Z.R.}.+X.X(.(..X>X>X(.g.G.G.(.G.A.G.(.L.L.A.g.2.2.g.(.5.7.i.R.f.2.7.A.f.M.R.F.A.j.G.j.=.+.F.iXXX] n h b i h V.=X;X(.A./.!.,.=.V.iXpX}.^.+.+.f.f.] 6.T ",
"F.N.f.F.g.y.6.,.i.6.a.r.!.z.!.!.r.r.E.OXW.U ; 2 b 3 d P 8 { T.W.V.f.OX+XL.OXF.F.r.f.r.f.A.G.^.G.p.G.g.i. .I I A m P ] o.F.o.I I { M.F.6.y. .g.7.q.7.N.7.2.M.=X8XM.Z.D.;.z.iXiX Xn n 6.e.y.a.7.T  .7.4.+.h 0 u 4 > 3 8 3 M P [ R ! @.^ B h Z T ~ ] ^ =.r.} B e b +X/.N.A./.G./.N.2.:.4.=.] r.F.~.F.E.7.%.r.(.}.(.}..X(.^..X^.E.E.R.R.F.Z.}..XZ.Z.r.:.7.F.Z.^./.S.L.g.i.!.R.(..X.X.X.X>X+X>X>X>XG.Z.Z.g.g.j.F.g..XG.S.G.G.g.f.f.(.7.e.a.f.F.f.f.M.V.A.j.g.Z.z.Z.Z.E.g.f.+X XN.] 3 i d d 1.2X2X!.(.S.A.;.y.f.R.1XeXOXR.y.f.e.A ,.;.",
"+./.F.R.;.,.a.,.+.Z.f.i.(.^.Z.i.r.i.M. XR.U 2 ; B 2 i B i R 0 u / f.M.}.V.;X;XF.iXS.^.^.^..XZ.Z.g.^.G.5.I E P Q P ] ] T +.@.P +.e.6.}.}.f.q.r.M.,.N.1X;Xf.;.}.1XS.g.i.F..XXXD. .h C ,.E.(.R.}.y.6.r.+.q.~ u 0 3 > r i s i i b B ,.+.o.T B A T ) } ) ~ ~ G y & R R.!.A.r.Z./.F./.R.%.] %.@.g.6.r.~.N.3.2.A.H.!.(.(.(.(.(.oX].^.G.(.Z.F.F.z.R.R.i.:.] f.q.7.r.F./.(.F.N.(.H./..Xj.+XoX>X&X1X>X>Xg.i.p.g.F.!.A.z.!.R.~.!.}..Xi.S./.L.r.y. .6.g.2.6.G.R.i.4.g.g.g.g.i.y.7.+X.XQ ^ 0 h d i A /.1X].!.f.V.a.A.6.i.2X>XiXeXOXR.E.i.a.+.",
"i.j.N.A..Xf.;.,.] N.z.@.Z.A.g...q.r.i.~./.T 2 - b e m 3 i 4 i i 8 8 0 | :.K.OX;XeX=XXXR.E.].!.!.g.!.g..Xr.r.] 7.4.n P ] ,.+.o.o.6.~ A.}.F.G.+XA.F.F.N.L.z.F.z.*.z.z.OX8XuX} z.N./.,.4./.].i.6.~ :.] n +.A 8 4 i 2 x x x b d d B ] ! _ A U ~ ] } ] ' P h 2 > $ R a.e.G.r.g.R.F.E.R.F.^ } ( 6.~.y.6.4.y.@.r.N.G..X}.(..X}./.]..X/.G.F.N.S.g.F.G.F.q./.].r.r.+.Z.F. X(.G.F.N.Z..X}.+X>XoX+X1X>X>XA.Z.Z.g.G.G.r.Z.!.R.F.F./.F.N.i.(.}.,.e.o.:.S.f.F.V.N.:.,.N.V.f.6.a.+.%.E.}.] ( ^ B i M i V.&X1XN.r.F.Z.R.f.r.(.2XtXiX=X6.+.N.F.R.",
"N.F.!.!.OXR.g.f.:.6.j.r.Z.A.^.Z.Z.i.r.y.W.P - 3 M 2 Y a i u u u 8 8 q 4 M A 6.V.R.E.L.R.!.}.OX.Xf.!.g.7.7.F.+.A.z.N.f.e.6.A.F.+.8.e.e.6.i.R.F.&X2X].].4.}./.].V.N.].tX8XN.@.iXrXiXrXyXrX2X/.f.P 3 S +.6.| 9 4 8 u P G x ) n d p 3 0 9 0 m B ' ) :.| ~ ) d . 3 ;.f.i.N.f.G.N.i.N.G.E.G.%.A  .L.L.,.;.i.:.r.!.N.G..X/.}.}.R././.F.].}.G.~.E./.E.S.S./././.Z.Z.Z./.&X.XF.N./.r.i.!.].3X+X>X>X&X>X.XZ.A.f.Z.F.g.r.OX(.N.S.F.G.S.E.=XR.) r.| :.q.V.N.e.A.e.!.V.V.,.@.o.%.] f.f.^ ~ ] { Y u s 1.].~.5.,.=.;.y.^ Q ] Q r.r.OXR.P R.R.i.",
"Z.r.y.V.A./.V.(.+Xf.N.g.5.!.!.!.V.A.,.e.R.,.3 > &.z m i > m R 2 & 5 e r 6 > 2 s ,.*.N.N.W./.~.~.A.G.G.:. .@.6.@.^ ,.g.4.+./ 6.1.6.8.M.a.!.E.r.r.F..XF.,.].2X2X/.2.F.y.f.N.OXN.XXOX2X;XXXdXdXE.r.0 +. ...I h i d n { T B ~ b H n P { n 0 0 8 0 u m T U T ~ b d 1.F.6.F.R.F.R.g.f.F.N.!.XXa.h ] f.f.y.e.8.R.!.G.R.G./.}.(.}.!.}.f.i.i.F.F.g. XOXg.R.+X}.G.L.~.}.XX8X8XOXF.g.+.i.(.^.+X^.+X>XoX>X(.r.f.r.N.Z.N.N./.!.f.E.~.!./.!.f.8.U 6.h.+.+.4.6.o.q.+.i.A.Z.i.+.N.+.+.6.7.r.7.o.} } P B } N.6.5.P T T +.( A C C X.@.}.}.:.f.A.f.",
":.=.@.:.6.f.A.~.L.~.}.~.i.R.i.q.G.g.r.4.R.1.B 3 Y R 6 G * R R i & * 2 u d u 2 3 9 0 +.=.] E.'.~.G.N.:.S X.6.f.^ R.R.,.~ ;.:.:.4.M.>.M.|./.E.M.i. X/.6.,./.2Xa.f.,.;.y.f.OX&Xo.XX&X8X;X2XiXdX!.L.Z.+.;.o.f.E T :.l.,.{ ~ { n B ' ] ^ T U A I B 3 2 3 n A T :.M :.Z.6.i.Z.R.G.G.3.e.M.A.}.}.Q +.i.V.e.e.i.g.N.!.G.!.}./.!.}.}.}.R.!.F.r.G.j.g.(.(. XE.F.Z.z.L.XX}.8X].E.R.i.r.:.f.Z.(.+XG..X>X(..XG.6.7.Z.N.F.F.N.!.G.E.!.^.!.D.i.f.m ' h.M.,.,.A.6.y.] ( R.F.A.Z.(. .@.7.r.(./.r.1.| ' U ~ g.5...~ ~ ] +.F n l A X.7.G..X=.;.f.6.",
":.] ;.6.6. .3.N.OXXX8X3XpX>X!.G.N.Z.,.r.F.4.R * 8 m b M b G R b 2 * 5 d x z u r 6 6 u 6 , ) 0.'.F.G.F.C S 7.g.f.F.F.f.E ;.] ,.6.h.3.g.}././.~.L./.E.:.F.g.:.o./.).f.z.=.OXXXi o.yX8X;X9XkXi.i.jXtX1X] L.a.h o.f.y.n ' ~ P P H U A A { ] 1.U A B i 3 - b T ~ & ,.g.r. .g.j.A.j.6.A.N.f./.~.a.] ] y.6.6.e.f.f.G.F.G.G..XR.i.}.2X.X/.(.Z.G.Z.G.!..X}.F.G./.Z.f.N.g.G.!..XF.f.G.r.:.7.Z.Z.D.oX.X+XoX/.7.F./.f.f.V.S.F.!.~.z.F.F.6.F.8.b / 1.a.+.=.a.,.;.,.:.^ r.}.}./.e.7.r.6.F.r.Z.f.T A { ' g.q.5.7.,.y.f.3.6.7.f.+.+.R.}.e.g.:.:.",
"@.^ ;.2.6.:.3.7.^.R.2X2XlX2X>X3X1X(.L.l.W.1.A A 6 M Y P B M b d r > > e u u a a r a , G } 2 8 e.+XOXE.S I r.Z.N.L.L.g.6.6.r.q.4.6.8.e.M.N.R.].L.G.G./.}.r.@. .} ;.}.Z.,.A.Z.h i XXjXrX>XiXf.F.iX3XrXF.] h ~ :.,.1.;.' T P B ~ P m Q ^ ~ D [ ^ [ d h 4 d k k % :.,.f.o.6.f.OXH.g.a.a.6.a.}.(.~.i.} +.6.e.g.f.g.N.Z.^.Z.G.z.g. XE.N.XXF.f.N.G.G.F.}.!.!..X XF.Z.G.i.r..X.XF./.OXZ.^.g.A.oX.X.XoX(.H.2.N.R.A.N.z.~.F.F.i.q.i.7.i.7.T m :.8.e.a.g.i.,.2.a.f.+.X.Z.V.A.M.Z. .Z.7.] 9.4.{ P 6.+.N.6...M.g.N.V.f.f.a.N.r.r.F.(.i.i.;.=.",
"+.+._  .3.g.R.g.2.F.1X>XoX=XoX^.OXdXiX XM.,.;.~ h p 0 ) +.0.} H x 6 & , 2 6 a u 5 b z z Y u u 8 ] }.a.3 h R.pX!./.(.Z.i.@.,.4.N.g.a.f.g.Z.(.>X!.D.1XeXoX/.f.M.S.,.,.V.a.7.z.y.P +.8XeXrX(.}.dXjXpXjXpX~ h j 1.' 0.' ,.' b A T T m ~ ~ ' +.| A +.] 0 h b 4 u 0 0.F.B.6.1.6.4.y.r.+.g.R.;.r.Z.4.f.o.^ 6.i.p.7.i.A.(..X(.Z.z.S.~.F..XOX(.f.G.~.F.}..X(.!.OX1X.XR.H.Z.r.F..X/.}.!.Z.^.p.!..XG.{.oXoX(.:.g.z.E.g.y.A.V.:.r.e.+.@.r.~ / / >.+.} r.F./.G.}.z.f.4.G.R.q.}  .X.] :.2.+.P 1.} B 1.,.+.2.G.E.}.~.!.F.M.g.F.A.H..X}.f.6.;.6.",
" .r.] ( ] ^ f.%.9.7.~.8XOX(.Z.(.XXOXiXiXN.f.;.~ u i d 4.6.:.r.*.N s 6 , , 5 u a z z N G M d u r d y.|.d i /.8XiX}.i.2.,.=.:.r.f.y.e.6.y.!./.}.!.5.oX].(.>X.X;X/.a.@.;.~.f.i.OXZ 9 rXrX3Xg.dXjX]..XpXjXf.h C 8.$.' [ ,.} T T I ~ ( / t.;.( [ M.y.} n h i 8 8 0 N ' :.4.V.f.6.A.,.;.f.e.:. .f.@.,.g.:.@.6.g.3.5.A.(.+X(.].+XR.F.].F..XF.g.G.z.]./.OX].(..XOXOX1XeX.X(.XX(.2X1XN.7.A.g.c.!.G.G.&X+X/.+.N.a.~.V.F.G.2.4.@.4.+.~ e._ m +.u.,.+.+.@.S.(.+X&Xf.7.R.iX&XN.] o.g.g. .N.:.T ~ A ' 6.,.g.^.~.}.E.E.E.R.E./.A.~.}.~.a.;.,.,.",
"E 7.2.^ ] ^ g.4.6.N.3X3X0XoXz.z.F.F.XXiXf.T :.P i 3 o ,.q.q.y.6.! H d * $ & 2 u u u s d e d d M 8 { u.u h 4.~.!.A.@.@.i.2.g.x.i.e.f.q.r.!.~.L.^.D.5.G..X(.(.!.N.N.@.,.g.OXm M.OX+.S.rX!.g.~.kX&XoX.X X X^ T 6.h.6.^ 4.| B ~ U A n D +.6.U U 6.f.e.T - 3 s , 8 H u d d y.u.h.T.M.+.T ,.@.:.2.7.i.g.e. .,.f.@.5.p..X(.(.^.R.].]. XL.].].R.R.~.+X/./././.(.L.E.OX=X>X(.2X=X>X>X(.7.!.g.p.g.G.g.z.L.=Xf.N.f.G.E.F.a.6.,.~ ^ @.6.@.@.B :.f.;.+.+.] i.5.Z.+X'.q.2.R.jX2XS.] g.N.E i.N.o.D m T ,.q.G.]./.~.G.L.F.R.^.!. XE.OXG.7.e.*.y.",
"p.:.6._ 2.^ :.f.6.Z.}.N.+X>XE.(.A.,.6.iX/.,.:.T ~ p p ;.6.,.r.z.q.=.M - & & > 2 e 6 e M M M G 6 8 i ' 4 h h :.,.2.%.i.=.7.i.f.6.6.z.z.f.N. X+X+X5.G.(.G.!.g.6.f.H.E.g.}.+Xf.y.lX8XR.L.L./.N.E.kXpX.X.X.XQ ] %.M.6.' ' :.| +.6.| D n A / F U +.' e.} ] ~ ' | M N h R T ) +.1.M.R.p.E I =.S.,.,.,.} +.+.q.4.] f.2.6.].(.>X+X^./.OX&X(.(.}.R.R.].(./.F.f.f.Z.!..XXX1X;X2X8X/.=X2XN.G.p.g.A.G.L.f.L.>X/.g.g.a.~.f.6.e.+.! } _ r.;.+./ ' :.~ +.=...o.7.z.&X&XG.q.4.=XrX2Xg. .f.I N.E.} A T +.+.G.^.(.).R./.!.j.H.^.!.V.F.F.F.2.+.*.6.",
"| 6.:.,.f.a.] ,.+.+.>.;.l.'./.W.+X@.X.OX+X:.+.M R d b 6.>.' / t.] :. .A 0 * 3 % 4 M M d u r r r q b ' i 2 b :.N.4.f.:.:.M.6.1.e.p.j.G.N.}.>X1X;XL.~.R.(.F.5.2.A..X.X].>X&X<X=XlXE.~ i.E.E.E.f.(.;XiXjXR.~ ^ 9.Z.8.t.e.8.+.| 6.y.+.+.A B A T ' ' h B 1.M.1.;.~ A B / ~ n h b P ;.N.0.N ) S.F.5.q.} o.+.o.} _ ] 4.i.L.L.(.>X>XoX(.(.=Xg.].F.L.(.Z.A.5.5.6.i.L..XL.(.,X(.!.>XL.~./.R.G.E.z.!.G.!.!.tXOXN.V.A.3.7.y.:.2.6.,.' y.^ :.=.4.] ~ ] =.+.@.F.G.G.&XXX^ E .X>XjX>Xr.@.S 2.~.7.f  .5.g..X(.(..X!.(.{..X!.^.!.g.i.L.D.:.+.} q.",
"| :.;.E f.F.6.] ^ ^ ;.$.~ W./.V.R.i.+./.+X+.n M d s T :.+./ [ $.Q j Q ~ ~ 8 * * 8 b u 5 i u 6 s k u T.{ & U +.M.,.y.M.:.M.E.A.f.H.(./.!.(..XL.R.(.L.z.f.2.2.A.(.^.:X8X&X&XyX=XlX].~ r.r.N.V.z.Z.=X;XdX6.] 6.9.}.T.t.8.y.V.6./.e.{ y.+.| A U P b n b 1.6.] +.P { o.=.^ A d d b 4 n { ~ ] i.N.7.7.+.^ ] ] ^ Q ] @.r.Z.].(..X+X+XoX+X+Xg.G.F.S.G.G.F.Z.q.G.q.oX.X8X>XZ.3X>X.X(.V.N.N.L./.F.G./.OX.X.X3XF.S.Z.@.+.2.,.6.:.4.] ;.} ' } ;.o.o.S E ^ %.M.i.g./.XX7.] .X3X3XkX!.=.E S N.6.6.V j ..(.(.(.oX!.L.(.&X(.G.!.A.!.+XL.=.] ;.=.",
"1.' ~ +.M.F.;.^ +.^ P ~ ] W./.N.R.G.f.( +X@X;.b . 4 1.>.+.' t.t. .] ] T b A u - 5 u u r u 8 2 6 p / W.u.2 o 1.+.f.f.4.E.M.R.F.^.A.Z.H.R..Xz.f.L.XX/.F.r.Z..XD.(.{.0X3X+X;XiX=X=Xq.T T 3 z.V.g.M.F.R.+X6.' >.e.6.r.6.!.R./.E.!.E.f.+.o.+.p h d b ~ { 1.,.{ ' ~ o.:.' +.+.R b d d m d A R A ' +.] } ] } ] } +.+.;.f.G.!.H.+X.X(.(.^.+X(.A.}.~./.OX.XG.A.G.D..XtX8X+X(.G.A.Z.^.3.V.N.g.R.G.j.N.(./..XiXN.F.N.g.p.2.C n ,.2.J P | 8.6.+.^ ,.]  .Q ] f.g.R.~.}.r.I 7.F.2XlX2X+.4.,.f.| P 6.] n (.].}.OX+XoXoX^.(.!.D.G.Z.1X.X6.} 6.4.",
"1.1.;.| ;.E.f.] o.^ F A ] ] N./.!.!.H.f.F.OXF.M $ o 1.1.6.>.t.3.] ] ^ I P P U u 6 5 b M 8 9 p r k R T.y.2 4 k 3 ,.} F.f.g.}.R.G.G.!.^.G.G.G.L.XXL.i.g.z.q.g.N.3X0XoXoXtX;X%X;X=X~.e.} 0 r.f.V.L.R.K.e.e.~ T.B.6.] e.+XR.r.!.E.A.T.y.| o.' Z A Z B T ~ ] } ] ' ' +.y.;.+.U 8 d v M M b m B n m +.] ~ ] ] ] o.+.:.i.z.(.i.^.(.{.+XR.(.}.G.(.}.].G..X3X.X.X0XoX1X8X^..X.X(.N.r.A.V.g.N.}.G.f.f..X!.XXtXS. .f.2.r.+.n 6.2X8X] I A ;.^ ^ ~ ] +.@.o.=.f.Z.G./.OXN.~ ^ r.2XkXrX+.;.f.,.P k n 6./.}.].(.XXXX.XoXz.Z.G.(.g.p.>XD.6.2.} o.",
">.+.u.e.u.V.A.7.~ Q  .Q ] P e./.(.7.OX}.i.N.7X} 8 o :.| >.;.;.X.] ^ E ] } ~ ' H b 3 u k 0 u n A u 1.F.C.; ; 4 - h } 2XK.F..X.XG.(.(.(.!.A.!.].(.z.r.G.f.f././.rX8X0X1X+XrXfX2XrXXX:.0 l i.F.f.A.K.N.] { M.f.R.}.:.f.@X/.i.N.a.V.F.;.6.+.T P m A k B ' T +.e.| ;.| [ ' D m M M Y M d 2 2 i b u A +.T ' +.~ T } ;.] i.}.N.G.g.1X^.Z.!.F.G.N.Z.A.!.(.tX+X+X>XG.^.>X>X,X.X(..XF.f.e.j.i.R.R.F.Z.OX!.(.2X=XR.2.:.j.y.F.g.!.=X2.Z m A S C S F ] o.=.} +.e.S.L.E.N.S C f.R.;X-X,.P 1.V.U P A 8 ] V.}.+X&X&X.X+X(.!.A.^.R.5.oXR.,.2.} +.",
"+.+.y.r.e.V.S.r.7._ ^ } A 9 < q.i.r.}.(.i.}.eX+.2 3 o.P ^ ^ ~ ] ~ ] ] ] P | ~ $.' i 3 8 d u 0 T d 1.C.C.U * 3 % h 2X;X=XXXF.A.A.!.Z.G.A.G.D.(.A.i.G.g.3.N.f.=XiXpX>X=X3XrXiX8XOXz.h g h p.e.F.Z.V.W./ ' u.f.F.+XOXj.(.+X2.i.F.F.C.f.~ [ +.' A A k P ~ P o.,.+.;.;./ I R D D ' P L P d * $ & o h P +.;.+.*.{ Q @.:.6.!.7.Z.i.(.F.i.g.g.R..X!.G.G..XoX].D..X.X!.!..X>XG.(.}.OXR.E.E.f.M..X/.G.R.G./.>X3XR.:.:.G.OXN.F.}.f.S 2.F.OX,.I C C C n o.i.6.+.a.L./.a.A +.e.].;X2X6.D T 1.:.6.1.u 0 ~ M..X}.].(.{..XOX^.Z.Z.N..Xz.^ 5.e.+.",
"8.;.$.+.[ N.F.A.@.o._ ^ ~ ~ t < F i.(.}.OX/.2X} 2 b T S ^ ^ S I A A ^ ~ ] ~ ~ 4.} B q 4 p 0 9 ] u 6.V.F.A.* - 3 S.S.G.1X+XA.^.(.!.!.G.D.g.!.].L.f.Z.Z.7.f.E.iXiXuXpXtXtXtX1XeXXXA.+.n } F.}.!.=XC.R A e.R.z.4.F.).OXR.(.i.p.F.] y.y.6.:.] ] ~ A m ^ U T +.+.:.;.] ~ +.I m ;.;.T R b m v & * $ . 3 R +.{ :.+.T ( ( r.Z.7.G.r.S.F.F.7.F.A.G.F.>X.XD.G.&XoXp.^.G.Z.G..X)..X.X/./.F.(.OX}.=X/.!.G.G.G.(.+X=X2.f.G.R.F.E.].F.=.OXS.].=XA.A C C I C +.o. . .] z.N.i.4.f.~.~.;X:.0 Z A.K.+.6.,.^ 0 t N. XG.!.^.R.S.Z.p.g.^.(.r.2.4.=.f.",
"t.+.$.[ 8.F.(.(.L.2.6.4.E 3 ! 9 = % Q f.~. X8X+.h o.P T ^ ^ o.r.9.r.^ _ ^ ~ U T ^ P B q 9 p A 6.' C.0.V.=X~ 3 ~ 2XF.=XL.(.(.]..X^.G.!./.(.G.(.].p.g.7.r.N.~.+XiX0X3X3X1XiX8X2X=X.X+. .V.].!.A./.e.B d 8.M.a.R.W.f.~.=XR.Z.2.i. .K.e.{ ;.6.^ ' A / ~ ' ~ ;.:.} +.+.+.o.A D :.1.:.R | ' m m b & 2 3 , P :.^ ~ ( ~ @.g.F.+.r.S.F.S.Z.g.f.g.R.}..X+X(.G.G.^.A.^.g.Z.!.s.H.^.f.g.R.E.XX=X(..XOX(.!.G.G./.OX+Xi.g.R.E.].&XiX].N.N.,.4.F.=X:.:.a.R.n A Z A m o.l.Z =.*.] r./.~.1.3 U F.C.1.K.:.N.M.9 9 Z./.;XXXOXE.F.i.7.7.!.7.} 4.,.r.",
"h.e.6.$.;.;./.N.g.f.z.7.~ n o.T h h h h g.OXOX} H r.+.] ] +.6.g.N.A.+.~ ] m U ^ ~ ' [ ] I I 2.N.R u.U ].1.- 3 ^ i.~.E.(.!.^.!.^.G.].L.^.^.(.].N.f.f.a.g.OX1X3XiX0X>X3X8XeX9X8XrXS.+.N.V.S.N.j.9.A m ~ +.6.4.F.W.(.g.A.Z.~.N.:.g.|.F.+.+.{ ~ ~ P ' / A +.{ +.} { +.C n A +.,.r.4.6.1.;.U n +.n , > , s Y ;.| | +.6.g.z.+.y.E.L.N.g.F.j.g.A.^.G.(.+X.X!.=XoX:X+X+XA.!.A.i.r.r.i.a.i.].].Z.G.G.!.G.Z.^.;X+XG.G.G.G.~.!.F.S.F.z.M.e.6.7.+.6.e.R.L.h < P f.a.E./.~.f.7.p.q.Z.i.= ! XXE.f.E.i.^ .Xs.t 9 F.f.+XZ.+.%.@.2.^ A.f.4.M.:.7.",
"$./ ;.$.,.6.g.F.F.q.6.@.E 4.,.H E ~ ] h h ] +X} ] ~.o.] ^ ] Q _ ] I I :.T } +.;.y.T ( +.3.%.3.:.T e.) e.- * m ^ n ] } i.!.(.!.!.G.G.R.^.}.(.>XA.f.E.f.+X>X=XeXiX3X0X+X3X8X/.~.rXS.4.A.o.e.q.g.] b Z e.6.6.6.M./.g.H.(.N.@Xg.;.3.y.C.| A.;.{ } e.>.D o.T ' Z { +.V E V C o.i.r.r.e.6.' ] +.i.q.Z # > & 2 U P +.+.y.4.i.y.a.R.S.r.g.R.A.g.Z.>X3X&XZ.G.(..X+X3X3X:X!.6.!.2.] %.f.N.,.y.].(.!.Z.D.G.G.G.@X&X.Xf.r.f.Z.a.6.F.R.F.f.z.6.:.T E _ _ r.r.y. X}.r.N.~.iX~.A.7.5.Z.S : I  X!.L.Z.^. .z.{.^ h  .] ] i.g.r.+.g.g.F.N.G.R.G.+.",
"+.( +.+.:.:.:.H.L.G.f.+.6.;.;.! I C +.r.p h f.o.r.R._ +._ ! ] _ P ~ o.e.} 6.| e.,.;.:.%.5.j.N.E ) l.R u - - ~ ] j Z h l ] R.].E.OXF.z././.;X(.6.f.E.~.8X=X2X+X2X3X>X+X+XrX4./.~.4.+.,.o.I } ] Q ! C @.+.S.q.N.6.V.g.=X}.V.C.+.4.0.l.e.e.r.} 6.y.6.6.:.o.b B n U V j S @.5.f.f.r.4.=.+.+._ r.f.y.` . * o . b $.+.i.f.f.z.7.a.S.@.N.}./.Z.R.(.oX>X+X.X.XoX+XG.(.(./.}.i.+.6.2.o.r.i.e.N.S.oX(.(.!.A.G..X>X3X(.p.7.Z.Z.y.i.f.M.;.o. .y.2.A  .e.E.F.}.].(.r.z.l.W.;X7.2...!.9 : Q XX(.L.Z..Xp.r.oXoX]  .o.N.F.+.I I X.2.!.f.f.r.g.5.",
"j.9.@.:.6.2.6.N.F.E.+. .,.] T ] U ~ ;.4.] h o.+.L.R.+.E.0.] ~ _ T ;.4.o.+.,.T ;.' ' ;.7.@.:..X2.E.R.8 0 2 ~ ] ] j l h n l t p y.~.L. X&X&X2XZ.2.OX&X.X8X=XOX2X2X3X,X&X+XiX4.J 4.o.6.4.r.r.i.r.A c m Q ,.6.} e.q.6.V.2X3.h.;.1.,.r.e.F.| e.[ y.y.u.B.4.Z m 0 i h S g.R...@.7.N.y.e.] S o.} i.a.y.<.Y & & 4 & $ P ;.:.e.f.V.A.f.,.p. X!.g.Z.G.^.G.G.G.!.>X(.A.+XG.G..X/.F.7.@.2.e.4.i.o.,.z.(.+X(.G.H.R.^..X.XG.f.i.:.4.6.f.4.o.;.+.} +.] 7.y.F.L.}.}.}.OX=X;X&X/.s.=.2.r.: = E XX].z.G.Z.g.Z..XoXZ.~ o.G.q.y.p.a.2.Q g.f.Z.g.2.i.",
"@.@.2.p.g.p.g.i.F.g.2.;.;.} B ~ T T o.V.7.:.}.f.i.r...F.E.6.~ I +.;.4.+.+.+.~ T { ] o.] 6.] ]./.&Xf.9 0 U ^ ~ m ] n n n M M 8 d H ;.:.f.(.E.N.i.uX1X1XtX1X.XoX3X>X0X3X3XG.5.r.] ~ i.2X2X&X&Xz.%.h t ^ ] 4.o.7.a.R.1.F.V.1.;.:.1.4.| ;.:.[ } { ;.a.a.B u ; - , M Q 4.f.] ,.4.a.:.+.n P ^ ] q.o.*.;.*.P u $ * 2 > n 1.:.R.f.f.M.9.i.E.!.].N.A.G.A.A.(.Z.p.p.i.(.A.7.g.N.!.R.f.q.q.+.o.] _ 5.z.+X^.!.A.!.G.^.R.(.G.7.@.7.6.N.6.:.2.4.7.e.,.i.N.F.S.R./.R.(.+XXX(.&X].oXL.+XS : P R.~.~.~.y.y.@.2.i.4.} ] 6.F./..XV.r.A.N.7.6.g.g.6.",
"2. .5.r.p.G.G.g.N.N.p.:.>.U B U ~ P U B.G.L.oXXX:.f.G.].L.f.*.) 4.,.e.a.,.+.] ~ } t.y. .:.N.^.(.XX9 - % e.o.~ Z A P B d B B 8 b T I E C e.Z.r.!.1X+XuXuX3X>X(.>XuX1X3X(.g.=.z.4.% ^ V.V.F.] :.w t h n ] ~ } =.;.M.+.M.f.T R P :.:.] T 4.$.} | | y.| T i 2 4 u B ] m Q ;.6.2.6.| ' { ] _ } I =.~ ;.;.1.M 2 * *   3 & A +.f.e.V.a.r.r.L.2X&X6.5.G.^.^.(.Z.A.7.p.7.F.p.7.Z.Z.e.7.g.g.=.7.=.Z.Z.^.(.^.H.!.(.^.^.(.G.G.7.7.N.F.f.r.N.q.Z.z.i.N.Z.Z.L.G.R.G.R./.G.}.R.%XoXXXrXZ : 3 4.E.a.~./.:.^ ] =.o.;.7.} F.OXA.F.E.~.e.N.g.g.g.7.",
"@.5.^.(.i.Z.Z.A.g.G.@.>.$.| { :.U U t.M.!.G.G.p.=.7.p.{.f.~.6.J o.,.q.r.e.,.+.6.F.F.(.(.;.N.g.Z.! = < z.;.T +.T d b U Y G v 5 6 0 A P ;.Z.2.].OX.X3X>X1X3X1X1X>X>XtX.XA.F.F.N.4.% = % % i +.+.i 9 g 9 S ! C o.P f.:.' 1.;.R Y R I U T ' ;.~ ,.4.+.A P u - , u s ' t.u.| R $.8.1.6.| ~ P ] ^ T Z D P A <.1.# & 2 , & * :.e.>.6.M.r.r.f.F.iXF.5.G..X].(.r.i.7.g.G.N. .A.S.}.F.f.F.F.M.i.f.g.Z.5.!.(.).G.^.G.}.(.G.(.R.N.S.z.G.F.i.N.L.z.i.z.z.F.G.N.g.!.f.N.f.g.!.E.F.OXeX6.% 2 H :.T *.6.} 4. .@.] +.+.+.+.F./.A.S.R.N.G.^.L.g.5.",
"=.=.p.G.7.G.A.G.7.:.:.:.[ [ ' [ | r.V.A.F.G..X{.@.@.i.i.f.6.i.4.e.6.i.4.f.N.f.l.q.q.F.}./.z.N.1X~ < ! ~ U P T o./ k 4 d R G e u 0 3 0 M.~./.E.Z.!..X.X(.>X>XoXoX0X(.Z.5.q.G.o.~ ~ _ =X2X2X&X .h f g C } ~ I } 4.~ { ;.{ { | R Y ~ ' P ' ;.;.{ 6.+.T q d 2 , d T :.R / | ' 1.f.r.6.;.+.+.^ ^ Z +.;.:.| M.J.G & * $ 5 * % | 8.r.e.r.r.Q ] Z.G.7.G.c.g.^.!.7.5.i.5.R.i.N.~.F.M.f.6.G.i.g.6.g.5.5.5.G.!.G.^.(.).(./.G.Z.z.R.F.F.F.f.F.N.S.F.f.6.g.r.7.i.r.g.g.i.N.i.F.E.9XkX1.4 & 6.:.U T ,.*.*.=.r.+.:.^ +.{ [ u.C.E.OX~.N.(.].].g.",
"p.g.G.6.2.Z.N.f.g.,.7.6.+.^ =.] Q ! 2.~.R.f.~.;XN.;.1.:.A.] C.u.7.7.7.oXuXG.2.7.N.N.D.S.L.L.^.K.0 0 9 ^ ^ ;.4.P R . * P y.;.m 4 0 0 3 ~ L. XXXF.E.L.y.i.V.] S.&Xl.;.% 3 B A a.OX>XuXjXiX1XD...9 5 6 z 1.+.~ | 1.P T J o.o.] j j A ' ' +.U { R A B B Z 0 9 9 Q i.F.q.[ U [ 6.u.+.] ) +.' { P U | ;.A.N.S.r.6.b * & ; . & 5 ' u.0.q.q.r.} !.F.r.f.F.r.g.F.N.Z.N.f.N.Z.Z.Z.Z.i.@.@.6.@.6.+.e.u.r.6.5.G.F.R././.8X}.R.7.A.G.!.!.D.D.G.F.!.!.r.i.r.r.r.7.2.7.2.f.G.F.i.H.OXiX} o n i.r.N.q.*.4.+.%.2.7.o.] +.r.| U } M.R.l.M.V.F.E.a.",
"F.N.N.f.g.N.F.F.F.z.:.+.:.] ] ^ ,.:.z.L..XE.R.R.a.} +.e.e.,.+.;.A.5.oXtXpXtX=X5.] Z.S.F.L.6.R.2X XT 0 ] +.6.,.T D ; % U | t.$.B 3 3 3 t J 4.OX}.R.L./.;X+XL.g } m 3 3 b M.n I OX>X+X>X=X1XD. .9 5 z ' 1.| ;.:.| T P V.+._ ,.c I U [ D +.R | B T B I 3 < _ i.(..XV.G.e.+.V.6.U U ~ ~ +.+.:.' ~ b ] J 4.6.~ ] e.h *   5 # + & a k.Z.N.V.r.f.E.g.r.A.(.N.g.r.i.7.2.i.5.G.!.N.i.r.2.P P ^  .{ f.N.0.5.5.Z.A.(././././.i.f.i.c.Z.!.!.Z.Z./.~.f.r.6.f.r.q.f.R.r.N.g.F.r.a.E.rX+.% n l. .] ) ~ +.o.] ,.:.6.q.+.y.y.} ) { M./.*.F.f.f.F.",
"R.R.i.r.r.Z.!.^.G.F.4.+.] C ^ 6.R.N.g.G.R.!.R.}.2.7.~ r.f.i.y.F.7.7.uX+XtXpXtXtX! : ~ V.E.C ,./.]..X/.i.2./.]./.|.U . P +.| ;.| f.} _ ~ I ] N.OX2X!.;XdX;XV.h h 5 2 % M.lXf.e.OX.X1XuXuX3XD. .9 5 ' 0.;.| +.' ] A A M.T o.4.I P I ~ n I n ;.P T 3 H +.a.r. X(.r.2.] ;.6.;.;.' I } ' } +.>.:.;.h h i h I ] _ 6.6.A n * * > * > ' F.G.q.4.R.~.r.F.y.M.(.a.r.Z.Z.S.....A.G.(.2.] i.S.o.} M.~ ) ,.y.f.2...5.X.j.g.j.E.A.Z.f.A.g.!.!.L.~.}.Z.N./.~.N.g.N.R.E.g.i.N.f.r.g.OXiX}   h +.} ^ ] ^ X.+.E +.@.6.7.} 4.y.+.| ;.M.f.A }.~.~.}.",
"g.R.g.7.Z.R.}.N.a.N.i.] C F ] P f.g.i.~.g.f.L.XXa.2.7.3.i.p.;.V.5.G.8XuXuX.X>XpX3X_ _ Z.A I q.,.q.g.].(.Z.].}./.].}.u.D | P { u.}. X/.}.6.S 6.6.F.>XjX!.A.] +.h & % :.N.OXa.f.i..X>X>X>X1XZ. .9 b ' ,.:.6.;.' 1.e.y.o.P Q ,.T I D / A n Z +.n A o.q.r.0.f.}.f.Q P @.o.~ T >.A T } ] | { ;.:.| d t h i ! q.6.e.0.l.V.V.*.o > * & S 6.q.0.N./.a.r.6.,.e.~.G.z.7.f.5.2.G.Z.N.7.2.@.6.V.f.r.*.:.;.0.6.F.G.p.+.X.} +.f.f.f.i.g.7.D.!.(.G.!.R.~./.].Z.L.R.S.S.N.2.Z.2.p.7.r.E.+.%  .f.X.@.6.,.+.@.( 6.+.@.4.+.;.6.:.6.+.| A A /.V.G.}.",
"2XR.(.Q 3.i.6.6.f.4.6. .P C ~ C G.L.g.N.N.i.L.}.f.2.r.!.g.:.M.g.!.+XtX.X.XtXtX>X2X>Xe.5.t _ f.i.N.z.Z.F.Z.E.~.F.z./.;XR.M.~ ] z.z.q.4.N. Xi.r.! Z.g.o.+.,.V.,.A 3 * ^ _ Z.D.g.(.oX+X>X>X>X7.J n d T 1.1.| ;.6.f.Z.f.6. .~ +.E ! ~ ] C l I +.S +.q.z.F.!./.@.^ ( +.+.@.@.} ' n ' ~ ~ } ~ +.6.| T C i 0 ^ A.M.Z.z.R.F.F.E.f.: % < % ' ,.0.:.|.V.;.,.4.6.6.].].S.i.p.@.p.Z.H.G.7.I q.6.y.@.+.} +.1.;.a..XF.6.p.9.] ] @.6.6.2.:.q.G.G.E.S.g.S.g.(.}.}./.g./.F.q.N.6.,.:.f.;.} l ] z.g.r.,.,.;.:.] ~ X.X.4.6.;.+.+.+.u.f.[ n j.V.!./.",
"2X2X~.p.r.r.g.6.:.,.,.I I ~ 6.r.i.G.L.L.~.Z.z.OXf.g./.(.j..Xj.,.tX>X.X(.>X&XoX+X;X2XlXq.9 f.r.r.p.F.G.A.Z.a.i.N.V.g.W.-XT.f.,.a.XXE.N.6.7.XXr.E ] ^ +.+.;.F.V.:.) s - ] :.5.D.(.1X>X0XtX1X!.n Z R ' :.e.;.] +.M.!.F.F.g.Q  .^ S ] Q S I C =.+.+.i.L.E.e._ ] %.4.2.y.V.o.! U ] o.T U ] ~ +.e.+.+.j h 0 ~ V.F.a.z.6.z.}.E.OXr.3 3 8 i { +.I K. X4.:.o.,.2.i.L.r.F. .5.X.2.G.A.9.!.N.e.g.6.V.:.] *.,.4.e.G.!.E.Z.A.r.r.p.g.f.i.@.:.i.F.i.g.].i.p.L.(.L.F.F.N.r.f.2.2.,.r.(. X] N.z.e.f.4.=.@.e.r.^ ( ~ ] 8.>.+.>.f.y.u.p ] }.R.G.!.",
"~.>X!./.r.N.N.6.2.:.^ ] @.X.g.F.(.(.!.(.+X.XN.F.g.r.R.f.:.N.+.OXiX(.(.(.>X>X.XoXlXkXlXG.S e.q.f.g.g.g.f.7.a.S.i.i.Z.f.E.K.z.4.R.XXz.E.a.g./.tX.X+.N.f.] ;.OX|.OXT 9 - ~ Z.(.>X>X>X>X+X3X>X!.n P :.C.6.+.e.M.4.;.Z.M. .7.A  . .E n I @.i.i.R.Z.@.o.f.N.+.Q 7.,.A.F.A.F.,.T Z } | P T +.| | +.U m 0 C T +.4.A.6.o.7.f.G.(..X.Xi.I * h ~ d U :.M.1.^ ~ ,.4.i.r.f.i.i.Z.2.@.f.F.g.r.M.o.:.+.e.:.e.y.2.r.f.:.%.4./.E.f.>.,.r.R.}.z.:.2.F.g.:.N.z.q.4.R.R.R.f.i.i.D.6.:.%.f.}.~.;.f.g.=.F.~.z.@.=.i.:.+.4.o.6.e.+.,.f.y.u.X } (.N.Z.Z.",
"g.!.(.!.f.Z.z.f.R.R.:.:.+.+.F.N.A.!.(.^.(.^.oXA.f.g.i.2.f.g.g.(.(.>X1X>X>X>X>X&XlXlXlXr.+.i.y.r.A.Z.g.g.f.y.a.R.g.N.g.f.f.g.f.,.L.!.E.f.i.i.i.].].8XeXg.P }.V.OXZ o - q./.1X:X1X:X+XoX:X6X5.Z Z 0.V.4.6.f.M.e.y.M.7._ Q 2.( ~ I A @.6.r.~.z.o.S o.] q.f.Z.f.A.g.S.f.4.4.o.o.{ ~ I ~ +.| U ~ U n m h T } 7.6.6.A.F.R.G.F.XXXXXXXX~ n k d U B ~ ;.u.' ] o.f.f.o.,.y.N.i.4.;.f.G.i.g.N.7.^ 1.e.M.f.%.2.F.F.4.+.6.|.( +.r.e.f.f.r.;.^ 6.f.,.6.f.f.f.r.N.q.r.,.6.N.2.4.%.i.F. Xf.n } 4.M./.~.f.:.r.6.h 7.o.,.f.e.6.6.u.~ X } oXF.G.R.",
"r.F.~.N.r.i.f.r.>X!.+.X.I 9.A.Z.p.Z.F.Z.}.!.8X~.f.p.s. ..X2.A.1X]..X:X3X>X>X(.+XkXiXXXA 4.f.z.f.^.Z.G.g.N.Z.N.g.g.G.F.R.Z.Z.}.G.2.2.+.J C  . . .F.1X=X,.;.2XL.F.= 6 - l.:X0X0X:X3X1X(.(. Xy.9 0 4.}.F.C.R./.a.f.L.4.I ~ I 4.~ ] =.f.,.~.+.Q S ,.r.i.E.N.G.F.L.a.r.f.+.;.y.E E Q ^ [ ^ e.;.;.I ~ Z Z o.o.f.z.f.f.F.G.i.p.G.^..X(.V.*.{ 0.~ P n n T e.o.| +.,.7.+.;.7.3.] ( X.6.7.a.R.F.t.+.4.e.y.M.y.6.6.N.e.3.2.f.y.u.] / ^ ;.+.:.N.A.g...] =.,.=.6.6.i.2.=.=.+.@.6.g.f.L.2X4.S T ^ ;.e.f.g.a.r.4.=.,.} r.r.0.,.o.m 3 g.(.A.^.Z.",
"6.N.]. Xi.=.i.r.!.i.f.g.~ ,.7.A.R.(.R.(.}.].>XdX(.f.@.p.(.6.].>X(..X(.3XoX.X!.oXdXjXr.A q.i.z.~.A.Z.g.i.9.N.f.A.F.Z.Z.F.H.Z.f.}.=X=XR.g.L.g.6.!.F.>X2X,.C.=XT.o.* % N J 3XsX>X>X>XoX].1X/.z.0 0 A +X}.C.M./.y.a.~.F.+.} } ;.] 6.=.+.g.+.! I +.z.F.R./.F.G.}./.a.f.+.6.] ~ T E E ( ( ] a.6.a.~ T +. .4.g.N.F.a.S.F..X(.p.2.N.^..X}.F.e.y.6.;.M B b U 1.;.o.] 6.:.^ :.2.@.( X.o.o.+.a.a.M.+.+.' ,.A.M.g.f.A.A.A.:.y.6.6.>.r.M.+.V.6.g.A.A.r.@.+.+.z.f.7.4.7.=.4.4.,.;.2.4.E.R.6.6.6.,.+.,.o.q.Z.y.i.=.,.] 4.N.y.e.;.Z % ] r.4.(./.",
"7.7.OXXX}.G.+.E.!.f.f.] %.7.o.;.G.!.(././././.1X3X}.] }.,.1X3X(.G.^.^.(..X^.>X1X.XOXr.S 6.6.G.^.g.i.p.9.N.G.Z.p.N.N./.].}.Z.f./.=X&X;X;XE.i.g.R.2XR.=Xj E.F.T.d 6 < - O.qXuX+X0X>XoX3X3X}.f.8 4 I |.C.F.| | l.M.I 1.;.,.y.*.~ 1.:.M.l.,.*.,.4.f.Z.}.XX}.F.f.2.a.y.;.~ C ~ /.}./.y.Q ] r.f.+.T h ^  .4.z.L.E.A.z.F.2XR.i.+.@.L..X].L.6.q.,.6.+.b U n ~ U } o.=.4.] +.2.;.] ]  .+.^ [ ~ o.;.y.;.;.6.M.a.G.M.f.r.7.;.] ' +.[ M.$.$.6.g.f.p.i.q.2.@.=.p.g.:.i.r.f.7.4.i.a.a.2X=XC 6.@.;.+.6.r.7.7.e.2.5.4.@.o.,.,.r.] ;.N ;.) +.~.}.",
"j.i.R. X X}.S.G./.y.i.g.y.V.i.e.:.F.}.!.(.].Z./.eX/.g.}.(.1X&X}..X>X(.(.(.(.3X>XOX7.r.S 7.p./.(.G.7.r.i.Z.Z.F.Z.R./.!.(./.R.~.].&X>X;X2XR.F.R.G.>X=Xh m Z.E.C.d * @ 3 x.8XuX>XoXoX:XtXoX Xr.u 8 U 6.1.;.B H ;.| U T A T 4.:.+.;.T A T ;.,.,.N.(.}.}.~.N.6.;.:.f.+.:.2.,.I ~ /.3X2X}.Q ] y.~ k p T 4.6.f.F.A./.E.G..Xi.r.j.f.F.].].(.].F.e.r.1.6.+.n h n o.y.;.+.6. .%.+.%.] ] ] D ~ ~ I ~ +.>.y.+.' @.6.y.o.6._ ( @.[ ] | y.6.| 2.A.Z.g.5.7.:.6.4.z.z.f.@.+.,.g.e.+.o.N.;X3XC C ] X.] ] Q 7.e.q.5...o...] *.,.y.:.u.:.:.~ ) A.A.",
"6.G.Z.G.S./.+XF.~.6.y.M.i.N.f.e.{ f.e.y.F..XS..XjX@.OXM.1X3X>XXX.X+X(.(.&X+X>X+X2.7.Z.^ :.L.OX+XR.f.7.V.a.6.6.R.+X(.N.F.E.OXN.E.XX X].rX(.E.G.E.z.dX=X:.}.].~ * , 6 % L.(.qXuX{..X0X1X&X/.t.1 7 b n m U U b i u a 5 d z A Y | *.P ~ u b ;.] /.|.G.f.e.4.f.;.;.a.F..XA.Z.Q I 2.XX(./.6.] } ' ' h ~ 6.6.F.L.~.E.}.Z.}.i.i.r.6.F.L.oX].!..Xg.,.z.f.M.} T B m o.,.] | ;.a.t.;.~ / ' [ / U / [ / / [ +.6.o.E i.9.y.6._ ] +.+.' { | R 3.f.Z.Z.F.Z.g.F.L.4.i.4.N.:.7.+.,.,.,.i.2X=Xw } X.} o.+.4.,.r.z.Q.:X&XoXeX].o.=.:.0.~ u.| ;.[ { ",
"+.f..X(.z.}.(.F.Z.6.A.2.f.e.i.i.6.a.z.A.A..X X.XjXX.@.G.eX/.OX}..X+X{.^.+X&X+X!.7.Z.7.Q ^ 6.XX=XR.H.g.F.!.V.9.F.N..X.X].S.r.r.r.4.E.F. X(.(.N./.S.S.iXz.u.u.* 2 * , % Z..XqXtX(.oX0X1XeX/.e.1 1 d ~ ' +.U m d 2 z * 5 6 6 z T R H n b 0 i ;.XX/.A.;.4.6.a.@.f.(..Xg.G.2.P ~ 4.}.}. X/.] ~ ] ] / ]  .f.V.F.R.a.V.F.N./.j.2.i.f.Z..X.XG.Z.L.G.f.V.l.f.f.+.P Z A n ~ | +.r.6.f.6.U ~ / ' +./ ~ I ~ E 2.+. . .r.i.f.f._ =.4.I ) T m ^ @.g.f.G.z.i.6.L.r.q.7.=.2.7.6.=.:.Z./.=X>X9 ] X.,.A.XXW./.;Xz.p.!.(.>X=X/.].z.,.,.;.:.o.} { ' ",
" .G.(./././.g.Z.A.] ] 6.f.f.i.6.u.u.C.1.U ,.F. XiX,. .jX].}.^.OXoX>X/.(.L.>X+XD.^ 7.6.Q F @.+XOX!.F.g.g.!.E.A.f.A.F.].r.i.G.r.@.q.,.,.S.Z.Z.z.}.OX+X;XdXy.] Y 2 , , 3 =.l.lX1XoX(.oX1X2X'.1.7 1 d m ;.;.Y d $ 2 2 5 5 6 * 5 x Y B d b d b b /.|.a.^ ,.4.=.f./.F.N.F.Z.Q E :.6.XX!.F.}.R.~ } ~ f.^ m 4.6.q.a.G.(.A.f.F.F.E.!.R.a.G.oX^.G.D.z.F.z.f.V.l.,.{ T m T n T ~ ;.$.r.h.;./ ' [ [ U ( ' / Q +.%.^ 6.6.5.p.N.q.;.+.{ +.P R ] :.f.:.6.q.F.!.F.q.i.N.r.2.+.:.6.=.@.].;X=XX.X.+.^ E.F.;XR.2XE.i.D.5.g.N.g.}.~.4.y.M.,.] +.' ' ",
"] F.N.Z.D.!.~.G./.F.] _ 6.+.,.;.f.A.u.,.^ 6.,.}.dX+.Z.OX/.!.!.XX&X+X!.^.Z.^.(.7.7.Q ^ V S r.Z.G.!.N.Z.(.Z.R.E.V.S.}.^ ^ i.}.R.r.4.F.F.q.7.z.g.L.&XfXfXkX|.P 4 * > , - A f.lXtX{.(.+XeX&X/.t.7 7 u / ` m Y d 5 > G R 5 5 2 * 3 d R u d M M n V.| ;.,.] ;.F.}.S.F.Z.F.:.E 6.~ ,.}.}.e.6.N././.y./.j.m m 4.4.7.F.A.i.N.y.,.f.f.N.a.7.G..X.XG.f.N.V.M.f.f.N.:.4.U ~ k ~ +.$.[ ~ M.f.B.6.6.;.+.} $.[ +. .2.+.2.2.=.5.z.f.e.e.;.U T ' %.2.r.i.7.f.g.F.6.6.f.i.g.N.z.z.;.~ ! f.;XR.^ Z.+.+.F.F./.;XW./.Z.D.i.7.p.g.f.1XR.M.V.T ^ ] ' / ",
"+.R.C.M.A.G.E.R.(.(..X(.(.S.6.o.y.].y.=.{ R u.y.T.T OXOX^.(.(.(.&X+X].!.>X!.g.7.M.] n d ;.| u.M.g.j.f.z.6.R.F.G.f.V.t o.R.iX0X+XE./.XXtX}.3X.XN.i.N./.2XV.$ . & # & > x q.jXuX:X).(.0XeX(.t.p 2 1 { M z r f 5.5.(..X=.K n c N x M 4 b | A b +.o.+.+.Q 7.oXG.Z.G.~.~. . .+.E N.y.].F.g.f.f.~./.=XN.j ] 3.r.g.N.g.y.f.2...4.l.y.4.E X.R.R.(.(.7.a.3.N.g.N.i.p.2.@.| m N A { { ] e.!.i.M.4.6.r.4.] 6.@.E X.X.2.r.:.a.f.g.7.5.5.W W  .7.i.Z.z.N.g.i.g.2.g.6.1.V.F.V.:.1.:.l.eX].o.a.^ q.(.]..XOX(.+Xg.5.g.g.q.L.M.}.+X=XM.a.f.+.+.@.",
"1.u.,.+.f.i.g.5.D.]..X(.R.Z.q.r.:.q.y.a.+.T u.u.U P 4.&X(.G.oX!..X(.].^.+X&Xq.4.Z.~ n b u.u.{ b  .;.j.M.e.6.e.6.f. .@.N.F.lXuXuXwXOXg.wX2X2XlX).g. .M.V.f.' o . + # + , 0.uXfXpXoX+XpXtX}.u.U i 1 M M s ~ 4.D.Z.(.Q..XD.+.c x x M 2 B ~ P P :.;.+.i.@.e.^.G.Z././.6.o.e.P o.F.q.g.(.(.g.@.f.G.(.Z.Z ^ 6.N.f.i.a.f.y.f.,.r.r.,.z.i.E.R.R.}.^.V.r.F.Z.g.G.L.R.G.i.e.M.y.F.}.4.' { 6.a.V.~.N.Q y._ @.g.@.:. .@.2.7.g.f.g.7.5.i.2.W E ] r.g.z.p.i.7.5.7.N.f.R.C.1.h ) :.;.4.<X].z.z.^ Q .X^..XOX!.(.(.i.z.Z.q.r.Z.].=X=Xg.,.o.Q ,.=.",
"y.e.e.V.f.r.Z.a.i.z.(.}.~.6.6.r.+.=.y.,.o.^ } 4.,.~ Q 4.(.Z.^..X^.(.].(.!.!.N.N.7.^ n n f.| B b n 6.1.4.6.] } ] ;.i..Xg.!.lXrXF.+X+Xf.~.lXlXjX].(.g.(./._ ~ V.C.Y + * A 1.1XF.pXpXjXiXfX/.l.] 3 1 z z d :.2.5.Z.{.(.(.(.@.+. XK.A 8 - ' +.+.,.) X.+.I E /..X/.N.o.o.7.o.I ^ 6.o.i.}.}.G.r.g.g.i.3.( ^ 6.r.Z.M.r.4.i.F.4.q.q.@.N.E.R.f.f.A.}.}.E.Z.E.S.G.XX.XXX.XF.F.K.r.6.r.F./././.E.L..XA.,.] o.7.f.:.;.4.i.z.z.S.f.i.,.g.z.2.o.P ] S.q.r.Z.G.F.f.R.a.M.;.n n i u ~ V.rX/./.+._ ^ G.(..XoX].(.(..X^.(.~.r.R.M.N.R.V.,.;.} E ,.",
"6.4.M.}.i.r.F.j.Z..X&XF.Z.N.F.4.,.=.*.,.J +.P } 6.^ A T 2.g.G.N.(.(..X+XD.g.N.4.^ ^ m ,.W.*.i n I m A m ] j h h _ OXz.g.OXrXtXR.M.V.M.i.A.eX(..X(.j.4Xg.~ P V.7XW.G $ Z 6.D.R.D.jXsXdXkX/.].T 0 1 1 * u ~ 5.G.A.(.Q.(.A.j +.=Xz.1.- 9 A U ' ' | ] I Z C N.z.f.p.6.+. . .A I @.:.f./.~.}.(./.f. .r.6.4.A.G.N.M.F.F.Z.7.r.N.g.] 6.E.L.a.f.R.}.R.F.L.G.G.(.}. X}.i.+.} r.E.A.N./.N.R.N.!.}./.(. X] +.,.i.@.4.+.M.A.R.L.i.i.2.i.r.6.o.^ E N.i.Z.!.Z.V.g.i.A.e.n / m h d i f.rXN.N. .Q ~ 5.oX+X+X:X>X&X(.(.^. X}.].f.;./.M.+.] ^  .a.",
"r.y.z.f.g.g.Z.:.g.+XOX}.F.y.[ r.6.q.f.q.g.^ ] ] e.h m C n @.i.g..XoX.XF.4.f.M.r.r.C A i.:.F.,.m i i u n $ 3 , 4 ].8XoX.X=X&X!./.V.6.R.~.F.!.!.+XG.5.!.g.] r./.x.XXOXh h q.4.6.6.=XrXiXlX;XK.+.i & 2 u A P  .r.F.^.!.!.g.n ] F.K.XXN.9 0 P ,.n ,.7.Q a.OXF.r.Z.F.o.T o.+.;.T ]  .R.OXR.R.F.G.F.g.i +.3.Q %.+.g.R.E.R.r.r.N.N.=.r.f.}.g.q..XM.4.7.4.,.7.N.g./.OXi.*.f.~.!.F.i.f.z.9.Z.G.A.G.s..Xg.{ f.y.f.f.] ,.f.M.a.f.6.a.+.} +.) e.A./.OX~.E.R.F.e.V.| q D B i % = % q.9Xo.Q +.W.2X8X&X+X1X1X&XoX+X!.!.R.z.g.V.!.!.g.6.,.;.~  .",
"g.!.j.,.f.G.z.:.Z.OX+X}.F.a.' >.i.e.,.r.I ] +XXX}.(.(.7.A  .r...q.}. X7.q.e.f.4.e.A P o.,.2X2X+.* d d . 3 3 o | eXdX2X].(.R.G.A.M.y.h.M./.F./.+XR.Z.G.:.6./.N.6.S.}.S.Z h h % h }.rXiXkX&XN.] p   8 p B ,.i...s.R.(.g.:.j y.r.R.f. Xh t 4.;.Z ;.E.=XOXF.S.L.A.6.E ;.o.@.6.y._ N.(.OX!./.L.Z.Z.F.P l I @.X.] 6.~.R.M.7. .7.F.q.r.R.XX}.2.~.6.,.7.=.@.+.@.6./.&X(./.~.G.+.7.R.N.F.@.@.5.g.Z.G.A.G.1.4.a.f.y.+. .r.a.y.N.V.~.i.o.+.) } 4.6.~.&XL.r.q.A.r.m Z :.' ^ ] i - } 9X*.0 3 6.2X2X3X>XoX.X+X.XG.G.L.!.!.i.A.^.R.:.%.t.4.,.,.",
"f.F.i.4.4.M.i.7.F.F.}.E.H.F.$.n S E e.7.+.z.jXkX/.}.iXpXo.i.@.+.6.R.L.7.N.A.N.+.A J 3 9 G.8X8XE.a a M $ 2 * * iXOX&X}.(.D.R.g.7.,.6.2.y.;./.E.OXg.g.A...].].z.Z.g.+XXXg.h B . 2 ].lXeXsX&Xz.@.i & d D A ^ f.y.i.F.X.X.3.n 6.B e.N.+._ XXXXF.:.OXOX;XL.i.F.N.r.' +.] o.+.f.6.6.f.OX+XE.~.!.G.N.Z.M.I F 3.9.r.+.4.L.z.r.4.:.6.,.i.g.a.~.6.f.7.V.L.f. .+.6.F.&X;XE.F.i.=.r.F.R./.A.G.Z.@.G.g.G.(.].S.o.1.o.| ,.;.y.F.C.a.F.+XOXf.} ' ' { ] | +X=Xf.q.V.A h o.] ~ } _ o.Q o.iXF.3 3 A ;X2XeX;X].R.G..XG.^.^.Z.N.(.N.p./.!.~ ;.>.;.;.",
"Z.2.6.r.7.7.f.6.A.F.(.F.t.t.[ +.E I 1X>XOXOXOX&X(.]./.iXE.!.r.i.] Q ^ o.] ~.6.o.C 9 t o.E.2X2X2X<.a # * 3 * R.eX&X].}.(.Z.Z.).9.q.4.+.+.;.!.~.+Xg.2.:.!.(.z.q.7.N.z.XXOX1.% 2 o '.lXlX9X;XZ...t 7 7 3 P ;.6.f.F.R.9.N.7.m ' e.{  .f.OXoXN.S.Z.OX=XOXr.e.0.0.} b ] ;.6.+.6.^ q.]  X2X}.R.G./.Z.f.i.N.g.g 6.R.F.E.R.!.i.j.7.i.i.2.g.g.f.f.0.4./.XXf.@.@.,./.].N.f.:.@.i.F.G.G.^.!.G.G.7.g.7.5.!.p.C.V.+.6.>.0.4.,.:.e.,.q.L.~.R.+.{ ^ ^ 6.+.f.OXR.e.{ ] | ' m T ;.] h n q.eX~.- 9 A ~.2XR.].(.R.!.G.^.g.=.Z.7.N.A.j.g.R.~ >.$.1.| ",
"r.i.+.a.e.+.V.q.M.R.V.] I Q $.:.i.+X;X(.(.XX XR.}.2XeXlXiX!.L.G.] _ 4.r.} l.0.| ;.8 i L.;X2X8X2Xk.# 1 1 4 9 ;X=XrX XA.N.M.R.}.E.f.6.] ;.2.M.].E.H.:.i.G.!.g.z.f.p.q.(.(.=X3 - * ' &X;X&X8X8XO.9 B a 4 d +.q.e.f.f.g.=.P o } u.f.].(..Xp.z.q.6.N.].].o.r.z./.;.~ ] 4.2.2.6.^ ^ Q !.>XF./.Z.N.Z.f.4.a.N.i.L.r.F.eXE.g.A.F.7.r.G.5.q.r.y.i.,.,.E.>X_ 4.z.6.K.N.,.r.F.N.F.R.!.^.!.^.(.Z.7.5.g. .g. .,.S.*.4.g.4.Q 6.1.~ +.~ } 4.f.r.y.y.e.y.;.| R.OX8.n h m i 0 T 6.6.Q 9 6.V.V.2 r u *.XXXX(..X!.G.g.g.6.r.r.f.@.2.N.p.6.+.;.+.f.;.",
"3.@.( %.;.;.a.f.M.M.;.{ Q A B.^.&X+X(.].>X=X X}.8XeX1XlX}. XoX!.(.^.}.,.M.W.6.} ] i +.7X2X8X/./.{ 7 &   s V.&XN.].N.;.4.e.V./.N.F.y.;.,.6.M.R.F..X@.i..XD.g.g.Z.7.D.G.i.S.C.* 6 6 ) ) +.K.L.G...` m B P ) a.e.r.N.r.,.m . ' u.' '.(.p.@.7.+.r.7.Z.i.@.,.M.~.;.U o.y.+.:.Q E I F p.1XXXF.!.G.g.r.e.;.F.f.7.F.R.OX!.:.f.f.i.7.g.j.4.6.f.,.:.M.,.g.i.E.F.p.l.f.V.+.g.F.R.E.G.^.!.A.2.i.(.3X^.(.3X(.].;XOX%.+.,.+.} o.' ~ P { | ,.i.f.M.V.y.T.} r.y.m ; - - i T 6.P 6.2.i S.' V.u , d u  XXX+X/.H.!.R.N.G.G.G.G.r.f.9.^ f.r.| T ;.[ ",
"+.+.+.6.8.;.:.:.r.6.} o.I Q ^.~. X].].].].+X>X3X3X.XlX(.R..XOXF.].(.(.7.g.z.1.e.d 8 N.eX2X2X3X/.* d m B ' &X>XZ.S.N.2.;.f.V.M.f.N.F.6.4.R.=XA.f.r.F.f.E.}.F.N.!..X>X].S.z.2X] * 6 $ - * ,.] =...R R T T +.,.i.4.,.g.N.t h } u.n s.XX..c @._ 5.N.y.] 6.A.6.z.,.^ +.^ S @.n S ~ A g.1X;XL.F.Z.N.N.y.6.2.6.f.F.F.eXA.6.g.G.G.Z.Z.g.7.f.r.r.,.+.+.,.f.G.F.R.6.f.7.+.6.Z.G.S.g.Z.g.5.F.Z.^.>X0X3X3X8X8X2X2X}.4.+.o.:.^ P +.o.~ ~ ^ 6.y.r.e.y.R.u.a.;.% 3 n 4.q.E A.E 7.i.A E.C.~ 4 4 u d V.XX].OX!./.G.XXOXOX/./.R.+.] ^ e.] ;.6.R ' ",
"X...] +.{ T } ~ ~ o.| | +.M./././.F.}.oX^..X3XuXtX3X3Xg.OX.X=XOXQ.(.G.Z.6.4.l.} 4 +.eX2X8X2X2X .m { ) +.=X&X>X&X,.2.4.@.M.E.y.M.A.A.r.6.(./.f.z.F.f.r.:.f.(.&X=X>X(.G.(.F.F.V.' * 4 6 4  .] @. .d B d ~ ,.r.z.N.g.z.z.+.m } y.{ @. ....._ =.Z.E.A.o.e.OXF.f.4.I q.f.:.I S E P n f.2X>XOXR.R.F.F.f.4.f.F.6.~.R.eX(.p.Z.Z.r.F.r.f.6.7.G.q.i.(.f.:.f.y.N.:.;.o.o.a.S.f.r.z.g.5.5.p.N.Z..XA.(.tX3X3X2X2X8Xg.6.i.6.r.f.i.,.;.+.] T ' ] o.~ o.y.T.a.| m k h e.=.S.N.6.6.2.6.6.-X' 4 8 i r | XXF. X+XR..X].]..X}.(.F.2.~ 3.B.+.~ 1.R R ",
"@.+.X.| U T :.| { ;.| ~ M.].E.XX}.!..XoX.X&X3X8X3XuX:.7.A./.OXOX:X+XoXoXA.r.r.T U V.}.|.=X2Xp.3.| +.+..X=X^.>XtXp...2.:.6.C.e.$.g.p.Z.5.~.~./.+.6.4.6.f.a.+.V.~.}.F.r.G.Z.i.N.i.] 3 - - A y.r.r.n s o.^ r.i.r.N.Z.z.f.f.^ ] ;.{ 6.~ @.4.=.@.@.F.N.=.,.i.E.f.6.) 7.a.a.^ ! ] ] o.@.OX;X(.R.oXz.N.M.r.7.,.G.F.a./.!.6.@.F.7.@.6.f.N.f.g./.(.g.6.f.4.y.4.2.Z.i.F.R.S.i.q.7.g.7.i.g.f.%.A.i.i.+XG.tXiX2X&X XN.Z. XN.e.6.i.:.^ =.^ +.^ +.^ J 1.R.a.u.[ 4.;.z.+.g. ... .p.E ! }.M.i d B H n OX/.}.(./.(./.OXA.Z.2.g.N.6.2.;.8.{ 6.| ' ",
"I Q +.+.' { { ~ ' T R P f.E.XXXX/.}.(.^.&X1X>X8X8X.X5.5.2.R.(.~.oX(.oX].L.F.A T U |.|.XX~./.3.j.f.M.M.2X(.}..XtXA.5.@.2.6.g.C.r.7.7.f.!.2X2X/.} U +.+.o.z./.+.A F.}.G.g.3.i.F.a.a.} - = Z o.r.e.a.) } +.q.(./.F.6.i.M.a.0.o.,.+.4.+.:.=.,.=.+.N.i.q.i.+.6.f.f.4.i.+.e.e.~ _ ] o. .g.>X~.N./.f.g.z.N.a.6.!.i.Z.G.Z.6.r.2.+.6.r.f.F.G.(.}.6.g.F.6.] M.z.!.a.6.V.F.Z.N.i.+.6.p.N.Z.G.i.p.p.r.!.L.pX8X&XtXsXg.Z.N.+.r.R.r.;.q.6.] +.;.=.,.o.,.R.f.M.+.f.y.Z.(.i.p.g.2.5._  .f.].b ) b m h K.V.]./.R.Z.Z.2.f.:.E ^ 2.g.6.6.R.' / ' [ ",
"A Q ( { { ~ T R | U ~ ~ ,.f.~.R./.^.L..X8X>XoX3XtX.XD.G.y.i.!.!.(.oXoXQ.L.OX0.~ 1.f.6.B.W.V.g.%.:.j.3X3X}.G.D.G.G.i.@.:.4.a.V.l.2.c.z..X>X2Xy.+.$.P { y.B ;.t.h.%.a.^.).g.:.f.f. .q...Z ^ ;.| 4.g.a.~.~.^.(.>XF.Z.7.6.Z.4.+.y.y.*.q.q.,.2.,.:.6.Z.z.Z.f.2.N.L.,.;.6.,.4.;.,.] o.+.+.=X;XG.F.S.z.6.r.g.f.6.(.A.6./.7.o.]  .~ ,./.z.p.F.R.(./.g.N.V.i.g.f.r.a.V.F.A.e.,.o.]  .+.G.(.7.3.R.XX8XpXtX8XjXfXiX+X+.^ +.Q @.N.V.p.r. .} +.] +.y.,.E.f.+.+.f.F.F.&X(.p.g.5.^ @.2.] f.&.b B <.;.*.A.N.N.r.o.+.a.} 2.5.2.:.j.;.M.}.{ +.1./ ",
"A } A ~ +.Y ' } ' ' ~ ] 6.g.g.XX^.oX>XtX3X+X:X:X0XtX}.Z.p.6./.!.Q.(.:X{.G.L.&X6.V.>.:.;.|.(.(.3.+./.eX.X(.G.G.:X^.2.:.:.;.f.y.:.c.7.g..X1X(.} +.6.T ;.u.A A B h.F.,.f.F.N.7.4.V.r.@._  .;.;.U ;.y.a.~.~.(.+X=X!.R.f.2.2.6.+.4.+.6.q.=.] =.,.6.z.i.7.2.4.,.,.~.f.:.7.o.:.:. .o.;.+.+.~.;X}.Z.!.Z.p.2.f.y.2.g.R.2.e.} } o.2.2.] ^.5.5..X!.R.6.7.i.j.a.N.M.i.A.7.r.y.a.V.V.e.6.] g.i.2.i.A.&XiX+XuXfXpXuXjXtXg.@.N.:.Q :.7.+.2.i.7.:.+.^ :.i.OX}.f.F.L.F.F.3X!.=. .p.p.:.4.f.V.) } x ,.*.:.R.r.y.e.e.e.6.y.z.(.]./.}.M.f.f.;.u.:.| "
};
